web/src-tauri/luts/bleach_bypass.cube
TITLE "Bleach Bypass (silver retention)"
LUT_3D_SIZE 5
0.000000 0.000000 0.000000
0.042914 0.000000 0.000000
0.260827 0.000000 0.000000
0.478741 0.000000 0.000000
0.696655 0.000000 0.000000
0.000000 0.119246 0.000000
0.151535 0.151535 0.000000
0.369448 0.183823 0.000000
0.587362 0.216112 0.030487
0.805276 0.248400 0.062775
0.042242 0.413492 0.042242
0.260156 0.445781 0.074531
0.478069 0.478069 0.106819
0.695983 0.510358 0.139108
0.913897 0.542647 0.171397
0.150863 0.707738 0.150863
0.368777 0.740027 0.183152
0.586690 0.772315 0.215440
0.804604 0.804604 0.247729
1.000000 0.836893 0.280018
0.259484 1.000000 0.259484
0.477398 1.000000 0.291773
0.695311 1.000000 0.324061
0.913225 1.000000 0.356350
1.000000 1.000000 0.388638
0.000000 0.000000 0.021590
0.053879 0.000000 0.053879
0.271793 0.000000 0.086168
0.489706 0.000000 0.118456
0.707620 0.000000 0.150745
0.000000 0.130211 0.130211
0.162500 0.162500 0.162500
0.380414 0.194789 0.194789
0.598327 0.227077 0.227077
0.816241 0.259366 0.259366
0.053207 0.424457 0.238832
0.271121 0.456746 0.271121
0.489035 0.489035 0.303410
0.706948 0.521323 0.335698
0.924862 0.553612 0.367987
0.161828 0.718703 0.347453
0.379742 0.750992 0.379742
0.597656 0.783281 0.412031
0.815569 0.815569 0.444319
1.000000 0.847858 0.476608
0.270449 1.000000 0.456074
0.488363 1.000000 0.488363
0.706277 1.000000 0.520652
0.924190 1.000000 0.552940
1.000000 1.000000 0.585229
0.000000 0.000000 0.218181
0.064844 0.000000 0.250469
0.282758 0.000000 0.282758
0.500672 0.000000 0.315047
0.718585 0.000000 0.347335
0.000000 0.141177 0.326802
0.173465 0.173465 0.359090
0.391379 0.205754 0.391379
0.609293 0.238043 0.423668
0.827206 0.270331 0.455956
0.064173 0.435423 0.435423
0.282086 0.467711 0.467711
0.500000 0.500000 0.500000
0.717914 0.532289 0.532289
0.935827 0.564577 0.564577
0.172794 0.729669 0.544044
0.390707 0.761957 0.576332
0.608621 0.794246 0.608621
0.826535 0.826535 0.640910
1.000000 0.858823 0.673198
0.281415 1.000000 0.652665
0.499328 1.000000 0.684953
0.717242 1.000000 0.717242
0.935156 1.000000 0.749531
1.000000 1.000000 0.781819
0.000000 0.000000 0.414771
0.075810 0.000000 0.447060
0.293723 0.000000 0.479348
0.511637 0.000000 0.511637
0.729551 0.000000 0.543926
0.000000 0.152142 0.523392
0.184431 0.184431 0.555681
0.402344 0.216719 0.587969
0.620258 0.249008 0.620258
0.838172 0.281297 0.652547
0.075138 0.446388 0.632013
0.293052 0.478677 0.664302
0.510965 0.510965 0.696590
0.728879 0.543254 0.728879
0.946793 0.575543 0.761168
0.183759 0.740634 0.740634
0.401673 0.772923 0.772923
0.619586 0.805211 0.805211
0.837500 0.837500 0.837500
1.000000 0.869789 0.869789
0.292380 1.000000 0.849255
0.510294 1.000000 0.881544
0.728207 1.000000 0.913832
0.946121 1.000000 0.946121
1.000000 1.000000 0.978410
0.000000 0.000000 0.611362
0.086775 0.000000 0.643650
0.304689 0.000000 0.675939
0.522602 0.000000 0.708227
0.740516 0.000000 0.740516
0.000000 0.163107 0.719983
0.195396 0.195396 0.752271
0.413310 0.227685 0.784560
0.631223 0.259973 0.816848
0.849137 0.292262 0.849137
0.086103 0.457353 0.828604
0.304017 0.489642 0.860892
0.521931 0.521931 0.893181
0.739844 0.554219 0.925469
0.957758 0.586508 0.957758
0.194724 0.751600 0.937225
0.412638 0.783888 0.969513
0.630552 0.816177 1.000000
0.848465 0.848465 1.000000
1.000000 0.880754 1.000000
0.303345 1.000000 1.000000
0.521259 1.000000 1.000000
0.739173 1.000000 1.000000
0.957086 1.000000 1.000000
1.000000 1.000000 1.000000
