web/src-tauri/luts/bleach_bypass.cube
TITLE "Bleach Bypass (silver retention)"
LUT_3D_SIZE 9
0.000000 0.000000 0.000000
0.000000 0.000000 0.000000
0.042914 0.000000 0.000000
0.151870 0.000000 0.000000
0.260827 0.000000 0.000000
0.369784 0.000000 0.000000
0.478741 0.000000 0.000000
0.587698 0.000000 0.000000
0.696655 0.000000 0.000000
0.000000 0.000000 0.000000
0.000000 0.000000 0.000000
0.097224 0.004412 0.000000
0.206181 0.020556 0.000000
0.315138 0.036700 0.000000
0.424095 0.052845 0.000000
0.533051 0.068989 0.000000
0.642008 0.085133 0.000000
0.750965 0.101277 0.008465
0.000000 0.119246 0.000000
0.042578 0.135390 0.000000
0.151535 0.151535 0.000000
0.260491 0.167679 0.000000
0.369448 0.183823 0.000000
0.478405 0.199968 0.014343
0.587362 0.216112 0.030487
0.696319 0.232256 0.046631
0.805276 0.248400 0.062775
0.000000 0.266369 0.000000
0.096888 0.282513 0.004076
0.205845 0.298658 0.020220
0.314802 0.314802 0.036364
0.423759 0.330946 0.052509
0.532716 0.347091 0.068653
0.641672 0.363235 0.084797
0.750629 0.379379 0.100942
0.859586 0.395524 0.117086
0.042242 0.413492 0.042242
0.151199 0.429636 0.058386
0.260156 0.445781 0.074531
0.369112 0.461925 0.090675
0.478069 0.478069 0.106819
0.587026 0.494214 0.122964
0.695983 0.510358 0.139108
0.804940 0.526502 0.155252
0.913897 0.542647 0.171397
0.096552 0.560615 0.096552
0.205509 0.576759 0.112697
0.314466 0.592904 0.128841
0.423423 0.609048 0.144985
0.532380 0.625192 0.161130
0.641337 0.641337 0.177274
0.750293 0.657481 0.193418
0.859250 0.673625 0.209563
0.968207 0.689769 0.225707
0.150863 0.707738 0.150863
0.259820 0.723882 0.167007
0.368777 0.740027 0.183152
0.477733 0.756171 0.199296
0.586690 0.772315 0.215440
0.695647 0.788460 0.231585
0.804604 0.804604 0.247729
0.913561 0.820748 0.263873
1.000000 0.836893 0.280018
0.205173 0.854861 0.205173
0.314130 0.871005 0.221318
0.423087 0.887150 0.237462
0.532044 0.903294 0.253606
0.641001 0.919438 0.269751
0.749958 0.935583 0.285895
0.858914 0.951727 0.302039
0.967871 0.967871 0.318184
1.000000 0.984016 0.334328
0.259484 1.000000 0.259484
0.368441 1.000000 0.275628
0.477398 1.000000 0.291773
0.586354 1.000000 0.307917
0.695311 1.000000 0.324061
0.804268 1.000000 0.340206
0.913225 1.000000 0.356350
1.000000 1.000000 0.372494
1.000000 1.000000 0.388638
0.000000 0.000000 0.000000
0.000000 0.000000 0.000000
0.048396 0.000000 0.000000
0.157353 0.000000 0.000000
0.266310 0.000000 0.000000
0.375267 0.000000 0.004017
0.484224 0.000000 0.020161
0.593180 0.000000 0.036305
0.702137 0.000000 0.052450
0.000000 0.000000 0.000000
0.000000 0.000000 0.000000
0.102707 0.009894 0.009894
0.211664 0.026039 0.026039
0.320620 0.042183 0.042183
0.429577 0.058327 0.058327
0.538534 0.074472 0.074472
0.647491 0.090616 0.090616
0.756448 0.106760 0.106760
0.000000 0.124729 0.031916
0.048060 0.140873 0.048060
0.157017 0.157017 0.064205
0.265974 0.173162 0.080349
0.374931 0.189306 0.096493
0.483888 0.205450 0.112638
0.592845 0.221595 0.128782
0.701801 0.237739 0.144926
0.810758 0.253883 0.161071
0.000000 0.271852 0.086227
0.102371 0.287996 0.102371
0.211328 0.304140 0.118515
0.320285 0.320285 0.134660
0.429241 0.336429 0.150804
0.538198 0.352573 0.166948
0.647155 0.368718 0.183093
0.756112 0.384862 0.199237
0.865069 0.401006 0.215381
0.047725 0.418975 0.140537
0.156682 0.435119 0.156682
0.265638 0.451263 0.172826
0.374595 0.467408 0.188970
0.483552 0.483552 0.205114
0.592509 0.499696 0.221259
0.701466 0.515841 0.237403
0.810422 0.531985 0.253547
0.919379 0.548129 0.269692
0.102035 0.566098 0.194848
0.210992 0.582242 0.210992
0.319949 0.598386 0.227136
0.428906 0.614531 0.243281
0.537862 0.630675 0.259425
0.646819 0.646819 0.275569
0.755776 0.662964 0.291714
0.864733 0.679108 0.307858
0.973690 0.695252 0.324002
0.156346 0.713221 0.249158
0.265302 0.729365 0.265302
0.374259 0.745509 0.281447
0.483216 0.761654 0.297591
0.592173 0.777798 0.313735
0.701130 0.793942 0.329880
0.810087 0.810087 0.346024
0.919043 0.826231 0.362168
1.000000 0.842375 0.378313
0.210656 0.860344 0.303469
0.319613 0.876488 0.319613
0.428570 0.892632 0.335757
0.537527 0.908777 0.351902
0.646483 0.924921 0.368046
0.755440 0.941065 0.384190
0.864397 0.957210 0.400335
0.973354 0.973354 0.416479
1.000000 0.989498 0.432623
0.264967 1.000000 0.357779
0.373924 1.000000 0.373924
0.482880 1.000000 0.390068
0.591837 1.000000 0.406212
0.700794 1.000000 0.422356
0.809751 1.000000 0.438501
0.918708 1.000000 0.454645
1.000000 1.000000 0.470789
1.000000 1.000000 0.486934
0.000000 0.000000 0.021590
0.000000 0.000000 0.037735
0.053879 0.000000 0.053879
0.162836 0.000000 0.070023
0.271793 0.000000 0.086168
0.380749 0.000000 0.102312
0.489706 0.000000 0.118456
0.598663 0.000000 0.134601
0.707620 0.000000 0.150745
0.000000 0.000000 0.075901
0.000000 0.000000 0.092045
0.108189 0.015377 0.108189
0.217146 0.031521 0.124334
0.326103 0.047666 0.140478
0.435060 0.063810 0.156622
0.544017 0.079954 0.172767
0.652974 0.096099 0.188911
0.761930 0.112243 0.205055
0.000000 0.130211 0.130211
0.053543 0.146356 0.146356
0.162500 0.162500 0.162500
0.271457 0.178644 0.178644
0.380414 0.194789 0.194789
0.489370 0.210933 0.210933
0.598327 0.227077 0.227077
0.707284 0.243222 0.243222
0.816241 0.259366 0.259366
0.000000 0.277334 0.184522
0.107854 0.293479 0.200666
0.216811 0.309623 0.216811
0.325767 0.325767 0.232955
0.434724 0.341912 0.249099
0.543681 0.358056 0.265243
0.652638 0.374200 0.281388
0.761595 0.390345 0.297532
0.870551 0.406489 0.313676
0.053207 0.424457 0.238832
0.162164 0.440602 0.254977
0.271121 0.456746 0.271121
0.380078 0.472890 0.287265
0.489035 0.489035 0.303410
0.597991 0.505179 0.319554
0.706948 0.521323 0.335698
0.815905 0.537468 0.351843
0.924862 0.553612 0.367987
0.107518 0.571580 0.293143
0.216475 0.587725 0.309287
0.325431 0.603869 0.325431
0.434388 0.620013 0.341576
0.543345 0.636158 0.357720
0.652302 0.652302 0.373864
0.761259 0.668446 0.390009
0.870216 0.684591 0.406153
0.979172 0.700735 0.422297
0.161828 0.718703 0.347453
0.270785 0.734848 0.363598
0.379742 0.750992 0.379742
0.488699 0.767136 0.395886
0.597656 0.783281 0.412031
0.706612 0.799425 0.428175
0.815569 0.815569 0.444319
0.924526 0.831714 0.460464
1.000000 0.847858 0.476608
0.216139 0.865826 0.401764
0.325096 0.881971 0.417908
0.434053 0.898115 0.434053
0.543009 0.914259 0.450197
0.651966 0.930404 0.466341
0.760923 0.946548 0.482485
0.869880 0.962692 0.498630
0.978837 0.978837 0.514774
1.000000 0.994981 0.530918
0.270449 1.000000 0.456074
0.379406 1.000000 0.472219
0.488363 1.000000 0.488363
0.597320 1.000000 0.504507
0.706277 1.000000 0.520652
0.815233 1.000000 0.536796
0.924190 1.000000 0.552940
1.000000 1.000000 0.569085
1.000000 1.000000 0.585229
0.000000 0.000000 0.119886
0.000000 0.000000 0.136030
0.059362 0.000000 0.152174
0.168319 0.000000 0.168319
0.277275 0.000000 0.184463
0.386232 0.000000 0.200607
0.495189 0.000000 0.216751
0.604146 0.000000 0.232896
0.713103 0.000000 0.249040
0.000000 0.000000 0.174196
0.004715 0.004715 0.190340
0.113672 0.020860 0.206485
0.222629 0.037004 0.222629
0.331586 0.053148 0.238773
0.440543 0.069293 0.254918
0.549499 0.085437 0.271062
0.658456 0.101581 0.287206
0.767413 0.117726 0.303351
0.000000 0.135694 0.228507
0.059026 0.151838 0.244651
0.167983 0.167983 0.260795
0.276940 0.184127 0.276940
0.385896 0.200271 0.293084
0.494853 0.216416 0.309228
0.603810 0.232560 0.325372
0.712767 0.248704 0.341517
0.821724 0.264849 0.357661
0.004380 0.282817 0.282817
0.113336 0.298961 0.298961
0.222293 0.315106 0.315106
0.331250 0.331250 0.331250
0.440207 0.347394 0.347394
0.549164 0.363539 0.363539
0.658120 0.379683 0.379683
0.767077 0.395827 0.395827
0.876034 0.411972 0.411972
0.058690 0.429940 0.337128
0.167647 0.446084 0.353272
0.276604 0.462229 0.369416
0.385560 0.478373 0.385560
0.494517 0.494517 0.401705
0.603474 0.510662 0.417849
0.712431 0.526806 0.433993
0.821388 0.542950 0.450138
0.930345 0.559095 0.466282
0.113001 0.577063 0.391438
0.221957 0.593207 0.407582
0.330914 0.609352 0.423727
0.439871 0.625496 0.439871
0.548828 0.641640 0.456015
0.657785 0.657785 0.472160
0.766741 0.673929 0.488304
0.875698 0.690073 0.504448
0.984655 0.706218 0.520593
0.167311 0.724186 0.445749
0.276268 0.740330 0.461893
0.385225 0.756475 0.478037
0.494182 0.772619 0.494182
0.603138 0.788763 0.510326
0.712095 0.804908 0.526470
0.821052 0.821052 0.542614
0.930009 0.837196 0.558759
1.000000 0.853341 0.574903
0.221622 0.871309 0.500059
0.330578 0.887453 0.516203
0.439535 0.903598 0.532348
0.548492 0.919742 0.548492
0.657449 0.935886 0.564636
0.766406 0.952031 0.580781
0.875362 0.968175 0.596925
0.984319 0.984319 0.613069
1.000000 1.000000 0.629214
0.275932 1.000000 0.554370
0.384889 1.000000 0.570514
0.493846 1.000000 0.586658
0.602803 1.000000 0.602803
0.711759 1.000000 0.618947
0.820716 1.000000 0.635091
0.929673 1.000000 0.651235
1.000000 1.000000 0.667380
1.000000 1.000000 0.683524
0.000000 0.000000 0.218181
0.000000 0.000000 0.234325
0.064844 0.000000 0.250469
0.173801 0.000000 0.266614
0.282758 0.000000 0.282758
0.391715 0.000000 0.298902
0.500672 0.000000 0.315047
0.609628 0.000000 0.331191
0.718585 0.000000 0.347335
0.000000 0.000000 0.272491
0.010198 0.010198 0.288636
0.119155 0.026342 0.304780
0.228112 0.042487 0.320924
0.337069 0.058631 0.337069
0.446025 0.074775 0.353213
0.554982 0.090920 0.369357
0.663939 0.107064 0.385501
0.772896 0.123208 0.401646
0.000000 0.141177 0.326802
0.064509 0.157321 0.342946
0.173465 0.173465 0.359090
0.282422 0.189610 0.375235
0.391379 0.205754 0.391379
0.500336 0.221898 0.407523
0.609293 0.238043 0.423668
0.718249 0.254187 0.439812
0.827206 0.270331 0.455956
0.009862 0.288300 0.381112
0.118819 0.304444 0.397257
0.227776 0.320588 0.413401
0.336733 0.336733 0.429545
0.445690 0.352877 0.445690
0.554646 0.369021 0.461834
0.663603 0.385166 0.477978
0.772560 0.401310 0.494122
0.881517 0.417454 0.510267
0.064173 0.435423 0.435423
0.173130 0.451567 0.451567
0.282086 0.467711 0.467711
0.391043 0.483856 0.483856
0.500000 0.500000 0.500000
0.608957 0.516144 0.516144
0.717914 0.532289 0.532289
0.826870 0.548433 0.548433
0.935827 0.564577 0.564577
0.118483 0.582546 0.489733
0.227440 0.598690 0.505878
0.336397 0.614834 0.522022
0.445354 0.630979 0.538166
0.554311 0.647123 0.554311
0.663267 0.663267 0.570455
0.772224 0.679412 0.586599
0.881181 0.695556 0.602743
0.990138 0.711700 0.618888
0.172794 0.729669 0.544044
0.281751 0.745813 0.560188
0.390707 0.761957 0.576332
0.499664 0.778102 0.592477
0.608621 0.794246 0.608621
0.717578 0.810390 0.624765
0.826535 0.826535 0.640910
0.935491 0.842679 0.657054
1.000000 0.858823 0.673198
0.227104 0.876792 0.598354
0.336061 0.892936 0.614499
0.445018 0.909080 0.630643
0.553975 0.925225 0.646787
0.662932 0.941369 0.662932
0.771888 0.957513 0.679076
0.880845 0.973658 0.695220
0.989802 0.989802 0.711364
1.000000 1.000000 0.727509
0.281415 1.000000 0.652665
0.390372 1.000000 0.668809
0.499328 1.000000 0.684953
0.608285 1.000000 0.701098
0.717242 1.000000 0.717242
0.826199 1.000000 0.733386
0.935156 1.000000 0.749531
1.000000 1.000000 0.765675
1.000000 1.000000 0.781819
0.000000 0.000000 0.316476
0.000000 0.000000 0.332620
0.070327 0.000000 0.348765
0.179284 0.000000 0.364909
0.288241 0.000000 0.381053
0.397197 0.000000 0.397197
0.506154 0.000000 0.413342
0.615111 0.000000 0.429486
0.724068 0.000000 0.445630
0.000000 0.000000 0.370786
0.015681 0.015681 0.386931
0.124638 0.031825 0.403075
0.233594 0.047969 0.419219
0.342551 0.064114 0.435364
0.451508 0.080258 0.451508
0.560465 0.096402 0.467652
0.669422 0.112547 0.483797
0.778378 0.128691 0.499941
0.000000 0.146659 0.425097
0.069991 0.162804 0.441241
0.178948 0.178948 0.457386
0.287905 0.195092 0.473530
0.396862 0.211237 0.489674
0.505819 0.227381 0.505819
0.614775 0.243525 0.521963
0.723732 0.259670 0.538107
0.832689 0.275814 0.554251
0.015345 0.293782 0.479407
0.124302 0.309927 0.495552
0.233259 0.326071 0.511696
0.342215 0.342215 0.527840
0.451172 0.358360 0.543985
0.560129 0.374504 0.560129
0.669086 0.390648 0.576273
0.778043 0.406793 0.592418
0.886999 0.422937 0.608562
0.069655 0.440905 0.533718
0.178612 0.457050 0.549862
0.287569 0.473194 0.566007
0.396526 0.489338 0.582151
0.505483 0.505483 0.598295
0.614440 0.521627 0.614440
0.723396 0.537771 0.630584
0.832353 0.553916 0.646728
0.941310 0.570060 0.662872
0.123966 0.588028 0.588028
0.232923 0.604173 0.604173
0.341880 0.620317 0.620317
0.450836 0.636461 0.636461
0.559793 0.652606 0.652606
0.668750 0.668750 0.668750
0.777707 0.684894 0.684894
0.886664 0.701039 0.701039
0.995620 0.717183 0.717183
0.178276 0.735151 0.642339
0.287233 0.751296 0.658483
0.396190 0.767440 0.674628
0.505147 0.783584 0.690772
0.614104 0.799729 0.706916
0.723060 0.815873 0.723060
0.832017 0.832017 0.739205
0.940974 0.848162 0.755349
1.000000 0.864306 0.771493
0.232587 0.882274 0.696649
0.341544 0.898419 0.712794
0.450501 0.914563 0.728938
0.559457 0.930707 0.745082
0.668414 0.946852 0.761227
0.777371 0.962996 0.777371
0.886328 0.979140 0.793515
0.995285 0.995285 0.809660
1.000000 1.000000 0.825804
0.286897 1.000000 0.750960
0.395854 1.000000 0.767104
0.504811 1.000000 0.783249
0.613768 1.000000 0.799393
0.722725 1.000000 0.815537
0.831681 1.000000 0.831681
0.940638 1.000000 0.847826
1.000000 1.000000 0.863970
1.000000 1.000000 0.880114
0.000000 0.000000 0.414771
0.000000 0.000000 0.430915
0.075810 0.000000 0.447060
0.184767 0.000000 0.463204
0.293723 0.000000 0.479348
0.402680 0.000000 0.495493
0.511637 0.000000 0.511637
0.620594 0.000000 0.527781
0.729551 0.000000 0.543926
0.000000 0.005019 0.469082
0.021163 0.021163 0.485226
0.130120 0.037308 0.501370
0.239077 0.053452 0.517515
0.348034 0.069596 0.533659
0.456991 0.085741 0.549803
0.565948 0.101885 0.565948
0.674904 0.118029 0.582092
0.783861 0.134174 0.598236
0.000000 0.152142 0.523392
0.075474 0.168286 0.539536
0.184431 0.184431 0.555681
0.293388 0.200575 0.571825
0.402344 0.216719 0.587969
0.511301 0.232864 0.604114
0.620258 0.249008 0.620258
0.729215 0.265152 0.636402
0.838172 0.281297 0.652547
0.020828 0.299265 0.577703
0.129784 0.315409 0.593847
0.238741 0.331554 0.609991
0.347698 0.347698 0.626136
0.456655 0.363842 0.642280
0.565612 0.379987 0.658424
0.674569 0.396131 0.674569
0.783525 0.412275 0.690713
0.892482 0.428420 0.706857
0.075138 0.446388 0.632013
0.184095 0.462532 0.648157
0.293052 0.478677 0.664302
0.402009 0.494821 0.680446
0.510965 0.510965 0.696590
0.619922 0.527110 0.712735
0.728879 0.543254 0.728879
0.837836 0.559398 0.745023
0.946793 0.575543 0.761168
0.129449 0.593511 0.686324
0.238405 0.609655 0.702468
0.347362 0.625800 0.718612
0.456319 0.641944 0.734757
0.565276 0.658088 0.750901
0.674233 0.674233 0.767045
0.783189 0.690377 0.783189
0.892146 0.706521 0.799334
1.000000 0.722666 0.815478
0.183759 0.740634 0.740634
0.292716 0.756778 0.756778
0.401673 0.772923 0.772923
0.510630 0.789067 0.789067
0.619586 0.805211 0.805211
0.728543 0.821356 0.821356
0.837500 0.837500 0.837500
0.946457 0.853644 0.853644
1.000000 0.869789 0.869789
0.238070 0.887757 0.794945
0.347026 0.903901 0.811089
0.455983 0.920046 0.827233
0.564940 0.936190 0.843378
0.673897 0.952334 0.859522
0.782854 0.968479 0.875666
0.891811 0.984623 0.891811
1.000000 1.000000 0.907955
1.000000 1.000000 0.924099
0.292380 1.000000 0.849255
0.401337 1.000000 0.865399
0.510294 1.000000 0.881544
0.619251 1.000000 0.897688
0.728207 1.000000 0.913832
0.837164 1.000000 0.929977
0.946121 1.000000 0.946121
1.000000 1.000000 0.962265
1.000000 1.000000 0.978410
0.000000 0.000000 0.513066
0.000000 0.000000 0.529211
0.081292 0.000000 0.545355
0.190249 0.000000 0.561499
0.299206 0.000000 0.577644
0.408163 0.000000 0.593788
0.517120 0.000000 0.609932
0.626077 0.000000 0.626077
0.735033 0.000000 0.642221
0.000000 0.010502 0.567377
0.026646 0.026646 0.583521
0.135603 0.042790 0.599665
0.244560 0.058935 0.615810
0.353517 0.075079 0.631954
0.462473 0.091223 0.648098
0.571430 0.107368 0.664243
0.680387 0.123512 0.680387
0.789344 0.139656 0.696531
0.000000 0.157625 0.621687
0.080957 0.173769 0.637832
0.189913 0.189913 0.653976
0.298870 0.206058 0.670120
0.407827 0.222202 0.686265
0.516784 0.238346 0.702409
0.625741 0.254491 0.718553
0.734698 0.270635 0.734698
0.843654 0.286779 0.750842
0.026310 0.304748 0.675998
0.135267 0.320892 0.692142
0.244224 0.337036 0.708286
0.353181 0.353181 0.724431
0.462138 0.369325 0.740575
0.571094 0.385469 0.756719
0.680051 0.401614 0.772864
0.789008 0.417758 0.789008
0.897965 0.433902 0.805152
0.080621 0.451871 0.730308
0.189578 0.468015 0.746453
0.298534 0.484159 0.762597
0.407491 0.500304 0.778741
0.516448 0.516448 0.794886
0.625405 0.532592 0.811030
0.734362 0.548737 0.827174
0.843319 0.564881 0.843319
0.952275 0.581025 0.859463
0.134931 0.598994 0.784619
0.243888 0.615138 0.800763
0.352845 0.631282 0.816907
0.461802 0.647427 0.833052
0.570759 0.663571 0.849196
0.679715 0.679715 0.865340
0.788672 0.695860 0.881485
0.897629 0.712004 0.897629
1.000000 0.728148 0.913773
0.189242 0.746117 0.838929
0.298199 0.762261 0.855074
0.407155 0.778405 0.871218
0.516112 0.794550 0.887362
0.625069 0.810694 0.903507
0.734026 0.826838 0.919651
0.842983 0.842983 0.935795
0.951940 0.859127 0.951940
1.000000 0.875271 0.968084
0.243552 0.893240 0.893240
0.352509 0.909384 0.909384
0.461466 0.925528 0.925528
0.570423 0.941673 0.941673
0.679380 0.957817 0.957817
0.788336 0.973961 0.973961
0.897293 0.990106 0.990106
1.000000 1.000000 1.000000
1.000000 1.000000 1.000000
0.297863 1.000000 0.947550
0.406820 1.000000 0.963695
0.515776 1.000000 0.979839
0.624733 1.000000 0.995983
0.733690 1.000000 1.000000
0.842647 1.000000 1.000000
0.951604 1.000000 1.000000
1.000000 1.000000 1.000000
1.000000 1.000000 1.000000
0.000000 0.000000 0.611362
0.000000 0.000000 0.627506
0.086775 0.000000 0.643650
0.195732 0.000000 0.659794
0.304689 0.000000 0.675939
0.413646 0.000000 0.692083
0.522602 0.000000 0.708227
0.631559 0.000000 0.724372
0.740516 0.000000 0.740516
0.000000 0.015984 0.665672
0.032129 0.032129 0.681816
0.141086 0.048273 0.697961
0.250042 0.064417 0.714105
0.358999 0.080562 0.730249
0.467956 0.096706 0.746394
0.576913 0.112850 0.762538
0.685870 0.128995 0.778682
0.794827 0.145139 0.794827
0.000000 0.163107 0.719983
0.086439 0.179252 0.736127
0.195396 0.195396 0.752271
0.304353 0.211540 0.768415
0.413310 0.227685 0.784560
0.522267 0.243829 0.800704
0.631223 0.259973 0.816848
0.740180 0.276118 0.832993
0.849137 0.292262 0.849137
0.031793 0.310231 0.774293
0.140750 0.326375 0.790437
0.249707 0.342519 0.806582
0.358663 0.358663 0.822726
0.467620 0.374808 0.838870
0.576577 0.390952 0.855015
0.685534 0.407096 0.871159
0.794491 0.423241 0.887303
0.903448 0.439385 0.903448
0.086103 0.457353 0.828604
0.195060 0.473498 0.844748
0.304017 0.489642 0.860892
0.412974 0.505786 0.877036
0.521931 0.521931 0.893181
0.630888 0.538075 0.909325
0.739844 0.554219 0.925469
0.848801 0.570364 0.941614
0.957758 0.586508 0.957758
0.140414 0.604477 0.882914
0.249371 0.620621 0.899058
0.358328 0.636765 0.915203
0.467284 0.652909 0.931347
0.576241 0.669054 0.947491
0.685198 0.685198 0.963636
0.794155 0.701342 0.979780
0.903112 0.717487 0.995924
1.000000 0.733631 1.000000
0.194724 0.751600 0.937225
0.303681 0.767744 0.953369
0.412638 0.783888 0.969513
0.521595 0.800032 0.985657
0.630552 0.816177 1.000000
0.739509 0.832321 1.000000
0.848465 0.848465 1.000000
0.957422 0.864610 1.000000
1.000000 0.880754 1.000000
0.249035 0.898723 0.991535
0.357992 0.914867 1.000000
0.466949 0.931011 1.000000
0.575905 0.947155 1.000000
0.684862 0.963300 1.000000
0.793819 0.979444 1.000000
0.902776 0.995588 1.000000
1.000000 1.000000 1.000000
1.000000 1.000000 1.000000
0.303345 1.000000 1.000000
0.412302 1.000000 1.000000
0.521259 1.000000 1.000000
0.630216 1.000000 1.000000
0.739173 1.000000 1.000000
0.848130 1.000000 1.000000
0.957086 1.000000 1.000000
1.000000 1.000000 1.000000
1.000000 1.000000 1.000000
