web/src-tauri/luts/bleach_bypass.cube
TITLE "Bleach Bypass (silver retention)"
LUT_3D_SIZE 17
0.000000 0.000000 0.000000
0.000000 0.000000 0.000000
0.000000 0.000000 0.000000
0.000000 0.000000 0.000000
0.042914 0.000000 0.000000
0.097392 0.000000 0.000000
0.151870 0.000000 0.000000
0.206349 0.000000 0.000000
0.260827 0.000000 0.000000
0.315306 0.000000 0.000000
0.369784 0.000000 0.000000
0.424262 0.000000 0.000000
0.478741 0.000000 0.000000
0.533219 0.000000 0.000000
0.587698 0.000000 0.000000
0.642176 0.000000 0.000000
0.696655 0.000000 0.000000
0.000000 0.000000 0.000000
0.000000 0.000000 0.000000
0.000000 0.000000 0.000000
0.015590 0.000000 0.000000
0.070069 0.000000 0.000000
0.124547 0.000000 0.000000
0.179026 0.000000 0.000000
0.233504 0.000000 0.000000
0.287983 0.000000 0.000000
0.342461 0.000000 0.000000
0.396939 0.000000 0.000000
0.451418 0.000000 0.000000
0.505896 0.000000 0.000000
0.560375 0.003500 0.000000
0.614853 0.011572 0.000000
0.669331 0.019644 0.000000
0.723810 0.027716 0.000000
0.000000 0.000000 0.000000
0.000000 0.000000 0.000000
0.000000 0.000000 0.000000
0.042746 0.000000 0.000000
0.097224 0.004412 0.000000
0.151703 0.012484 0.000000
0.206181 0.020556 0.000000
0.260659 0.028628 0.000000
0.315138 0.036700 0.000000
0.369616 0.044772 0.000000
0.424095 0.052845 0.000000
0.478573 0.060917 0.000000
0.533051 0.068989 0.000000
0.587530 0.077061 0.000000
0.642008 0.085133 0.000000
0.696487 0.093205 0.000393
0.750965 0.101277 0.008465
0.000000 0.045684 0.000000
0.000000 0.053757 0.000000
0.015423 0.061829 0.000000
0.069901 0.069901 0.000000
0.124379 0.077973 0.000000
0.178858 0.086045 0.000000
0.233336 0.094117 0.000000
0.287815 0.102190 0.000000
0.342293 0.110262 0.000000
0.396771 0.118334 0.000000
0.451250 0.126406 0.000000
0.505728 0.134478 0.000000
0.560207 0.142550 0.003332
0.614685 0.150623 0.011404
0.669163 0.158695 0.019476
0.723642 0.166767 0.027548
0.778120 0.174839 0.035620
0.000000 0.119246 0.000000
0.000000 0.127318 0.000000
0.042578 0.135390 0.000000
0.097056 0.143462 0.000000
0.151535 0.151535 0.000000
0.206013 0.159607 0.000000
0.260491 0.167679 0.000000
0.314970 0.175751 0.000000
0.369448 0.183823 0.000000
0.423927 0.191895 0.006270
0.478405 0.199968 0.014343
0.532883 0.208040 0.022415
0.587362 0.216112 0.030487
0.641840 0.224184 0.038559
0.696319 0.232256 0.046631
0.750797 0.240328 0.054703
0.805276 0.248400 0.062775
0.000000 0.192807 0.000000
0.015255 0.200880 0.000000
0.069733 0.208952 0.000000
0.124211 0.217024 0.000000
0.178690 0.225096 0.000000
0.233168 0.233168 0.001137
0.287647 0.241240 0.009209
0.342125 0.249313 0.017281
0.396603 0.257385 0.025353
0.451082 0.265457 0.033426
0.505560 0.273529 0.041498
0.560039 0.281601 0.049570
0.614517 0.289673 0.057642
0.668996 0.297746 0.065714
0.723474 0.305818 0.073786
0.777952 0.313890 0.081859
0.832431 0.321962 0.089931
0.000000 0.266369 0.000000
0.042410 0.274441 0.000000
0.096888 0.282513 0.004076
0.151367 0.290585 0.012148
0.205845 0.298658 0.020220
0.260324 0.306730 0.028292
0.314802 0.314802 0.036364
0.369280 0.322874 0.044437
0.423759 0.330946 0.052509
0.478237 0.339018 0.060581
0.532716 0.347091 0.068653
0.587194 0.355163 0.076725
0.641672 0.363235 0.084797
0.696151 0.371307 0.092870
0.750629 0.379379 0.100942
0.805108 0.387451 0.109014
0.859586 0.395524 0.117086
0.015087 0.339931 0.015087
0.069565 0.348003 0.023159
0.124044 0.356075 0.031231
0.178522 0.364147 0.039303
0.233000 0.372219 0.047375
0.287479 0.380291 0.055448
0.341957 0.388363 0.063520
0.396436 0.396436 0.071592
0.450914 0.404508 0.079664
0.505392 0.412580 0.087736
0.559871 0.420652 0.095808
0.614349 0.428724 0.103880
0.668828 0.436796 0.111953
0.723306 0.444869 0.120025
0.777784 0.452941 0.128097
0.832263 0.461013 0.136169
0.886741 0.469085 0.144241
0.042242 0.413492 0.042242
0.096720 0.421564 0.050314
0.151199 0.429636 0.058386
0.205677 0.437708 0.066458
0.260156 0.445781 0.074531
0.314634 0.453853 0.082603
0.369112 0.461925 0.090675
0.423591 0.469997 0.098747
0.478069 0.478069 0.106819
0.532548 0.486141 0.114891
0.587026 0.494214 0.122964
0.641504 0.502286 0.131036
0.695983 0.510358 0.139108
0.750461 0.518430 0.147180
0.804940 0.526502 0.155252
0.859418 0.534574 0.163324
0.913897 0.542647 0.171397
0.069397 0.487054 0.069397
0.123876 0.495126 0.077469
0.178354 0.503198 0.085542
0.232832 0.511270 0.093614
0.287311 0.519342 0.101686
0.341789 0.527414 0.109758
0.396268 0.535486 0.117830
0.450746 0.543559 0.125902
0.505225 0.551631 0.133974
0.559703 0.559703 0.142047
0.614181 0.567775 0.150119
0.668660 0.575847 0.158191
0.723138 0.583919 0.166263
0.777617 0.591992 0.174335
0.832095 0.600064 0.182407
0.886573 0.608136 0.190480
0.941052 0.616208 0.198552
0.096552 0.560615 0.096552
0.151031 0.568687 0.104625
0.205509 0.576759 0.112697
0.259988 0.584831 0.120769
0.314466 0.592904 0.128841
0.368945 0.600976 0.136913
0.423423 0.609048 0.144985
0.477901 0.617120 0.153058
0.532380 0.625192 0.161130
0.586858 0.633264 0.169202
0.641337 0.641337 0.177274
0.695815 0.649409 0.185346
0.750293 0.657481 0.193418
0.804772 0.665553 0.201491
0.859250 0.673625 0.209563
0.913729 0.681697 0.217635
0.968207 0.689769 0.225707
0.123708 0.634177 0.123708
0.178186 0.642249 0.131780
0.232665 0.650321 0.139852
0.287143 0.658393 0.147924
0.341621 0.666465 0.155996
0.396100 0.674537 0.164069
0.450578 0.682609 0.172141
0.505057 0.690682 0.180213
0.559535 0.698754 0.188285
0.614013 0.706826 0.196357
0.668492 0.714898 0.204429
0.722970 0.722970 0.212501
0.777449 0.731042 0.220574
0.831927 0.739115 0.228646
0.886405 0.747187 0.236718
0.940884 0.755259 0.244790
0.995362 0.763331 0.252862
0.150863 0.707738 0.150863
0.205341 0.715810 0.158935
0.259820 0.723882 0.167007
0.314298 0.731954 0.175079
0.368777 0.740027 0.183152
0.423255 0.748099 0.191224
0.477733 0.756171 0.199296
0.532212 0.764243 0.207368
0.586690 0.772315 0.215440
0.641169 0.780387 0.223512
0.695647 0.788460 0.231585
0.750125 0.796532 0.239657
0.804604 0.804604 0.247729
0.859082 0.812676 0.255801
0.913561 0.820748 0.263873
0.968039 0.828820 0.271945
1.000000 0.836893 0.280018
0.178018 0.781299 0.178018
0.232497 0.789372 0.186090
0.286975 0.797444 0.194163
0.341453 0.805516 0.202235
0.395932 0.813588 0.210307
0.450410 0.821660 0.218379
0.504889 0.829732 0.226451
0.559367 0.837805 0.234523
0.613846 0.845877 0.242595
0.668324 0.853949 0.250668
0.722802 0.862021 0.258740
0.777281 0.870093 0.266812
0.831759 0.878165 0.274884
0.886238 0.886238 0.282956
0.940716 0.894310 0.291028
0.995194 0.902382 0.299101
1.000000 0.910454 0.307173
0.205173 0.854861 0.205173
0.259652 0.862933 0.213246
0.314130 0.871005 0.221318
0.368609 0.879077 0.229390
0.423087 0.887150 0.237462
0.477566 0.895222 0.245534
0.532044 0.903294 0.253606
0.586522 0.911366 0.261679
0.641001 0.919438 0.269751
0.695479 0.927510 0.277823
0.749958 0.935583 0.285895
0.804436 0.943655 0.293967
0.858914 0.951727 0.302039
0.913393 0.959799 0.310112
0.967871 0.967871 0.318184
1.000000 0.975943 0.326256
1.000000 0.984016 0.334328
0.232329 0.928423 0.232329
0.286807 0.936495 0.240401
0.341286 0.944567 0.248473
0.395764 0.952639 0.256545
0.450242 0.960711 0.264617
0.504721 0.968783 0.272690
0.559199 0.976855 0.280762
0.613678 0.984928 0.288834
0.668156 0.993000 0.296906
0.722634 1.000000 0.304978
0.777113 1.000000 0.313050
0.831591 1.000000 0.321122
0.886070 1.000000 0.329195
0.940548 1.000000 0.337267
0.995026 1.000000 0.345339
1.000000 1.000000 0.353411
1.000000 1.000000 0.361483
0.259484 1.000000 0.259484
0.313962 1.000000 0.267556
0.368441 1.000000 0.275628
0.422919 1.000000 0.283700
0.477398 1.000000 0.291773
0.531876 1.000000 0.299845
0.586354 1.000000 0.307917
0.640833 1.000000 0.315989
0.695311 1.000000 0.324061
0.749790 1.000000 0.332133
0.804268 1.000000 0.340206
0.858746 1.000000 0.348278
0.913225 1.000000 0.356350
0.967703 1.000000 0.364422
1.000000 1.000000 0.372494
1.000000 1.000000 0.380566
1.000000 1.000000 0.388638
0.000000 0.000000 0.000000
0.000000 0.000000 0.000000
0.000000 0.000000 0.000000
0.000000 0.000000 0.000000
0.045655 0.000000 0.000000
0.100133 0.000000 0.000000
0.154612 0.000000 0.000000
0.209090 0.000000 0.000000
0.263569 0.000000 0.000000
0.318047 0.000000 0.000000
0.372525 0.000000 0.000000
0.427004 0.000000 0.000000
0.481482 0.000000 0.000000
0.535961 0.000000 0.000000
0.590439 0.000000 0.000000
0.644917 0.000000 0.000000
0.699396 0.000000 0.003302
0.000000 0.000000 0.000000
0.000000 0.000000 0.000000
0.000000 0.000000 0.000000
0.018332 0.000000 0.000000
0.072810 0.000000 0.000000
0.127289 0.000000 0.000000
0.181767 0.000000 0.000000
0.236245 0.000000 0.000000
0.290724 0.000000 0.000000
0.345202 0.000000 0.000000
0.399681 0.000000 0.000000
0.454159 0.000000 0.000000
0.508637 0.000000 0.000000
0.563116 0.006241 0.006241
0.617594 0.014313 0.014313
0.672073 0.022385 0.022385
0.726551 0.030457 0.030457
0.000000 0.000000 0.000000
0.000000 0.000000 0.000000
0.000000 0.000000 0.000000
0.045487 0.000000 0.000000
0.099965 0.007153 0.000000
0.154444 0.015225 0.000000
0.208922 0.023297 0.000000
0.263401 0.031369 0.000000
0.317879 0.039442 0.000000
0.372357 0.047514 0.001107
0.426836 0.055586 0.009180
0.481314 0.063658 0.017252
0.535793 0.071730 0.025324
0.590271 0.079802 0.033396
0.644750 0.087875 0.041468
0.699228 0.095947 0.049540
0.753706 0.104019 0.057613
0.000000 0.048426 0.000000
0.000000 0.056498 0.000000
0.018164 0.064570 0.000000
0.072642 0.072642 0.000000
0.127121 0.080714 0.000000
0.181599 0.088787 0.000000
0.236078 0.096859 0.004046
0.290556 0.104931 0.012118
0.345034 0.113003 0.020191
0.399513 0.121075 0.028263
0.453991 0.129147 0.036335
0.508470 0.137220 0.044407
0.562948 0.145292 0.052479
0.617426 0.153364 0.060551
0.671905 0.161436 0.068624
0.726383 0.169508 0.076696
0.780862 0.177580 0.084768
0.000000 0.121987 0.000000
0.000000 0.130059 0.000000
0.045319 0.138132 0.000000
0.099798 0.146204 0.006985
0.154276 0.154276 0.015057
0.208754 0.162348 0.023129
0.263233 0.170420 0.031202
0.317711 0.178492 0.039274
0.372190 0.186565 0.047346
0.426668 0.194637 0.055418
0.481146 0.202709 0.063490
0.535625 0.210781 0.071562
0.590103 0.218853 0.079634
0.644582 0.226925 0.087707
0.699060 0.234998 0.095779
0.753538 0.243070 0.103851
0.808017 0.251142 0.111923
0.000000 0.195549 0.009924
0.017996 0.203621 0.017996
0.072474 0.211693 0.026068
0.126953 0.219765 0.034140
0.181431 0.227837 0.042212
0.235910 0.235910 0.050285
0.290388 0.243982 0.058357
0.344866 0.252054 0.066429
0.399345 0.260126 0.074501
0.453823 0.268198 0.082573
0.508302 0.276270 0.090645
0.562780 0.284343 0.098718
0.617258 0.292415 0.106790
0.671737 0.300487 0.114862
0.726215 0.308559 0.122934
0.780694 0.316631 0.131006
0.835172 0.324703 0.139078
0.000000 0.269110 0.037079
0.045151 0.277182 0.045151
0.099630 0.285255 0.053223
0.154108 0.293327 0.061296
0.208586 0.301399 0.069368
0.263065 0.309471 0.077440
0.317543 0.317543 0.085512
0.372022 0.325615 0.093584
0.426500 0.333688 0.101656
0.480979 0.341760 0.109728
0.535457 0.349832 0.117801
0.589935 0.357904 0.125873
0.644414 0.365976 0.133945
0.698892 0.374048 0.142017
0.753371 0.382121 0.150089
0.807849 0.390193 0.158161
0.862327 0.398265 0.166234
0.017828 0.342672 0.064234
0.072306 0.350744 0.072306
0.126785 0.358816 0.080379
0.181263 0.366888 0.088451
0.235742 0.374960 0.096523
0.290220 0.383033 0.104595
0.344699 0.391105 0.112667
0.399177 0.399177 0.120739
0.453655 0.407249 0.128812
0.508134 0.415321 0.136884
0.562612 0.423393 0.144956
0.617091 0.431466 0.153028
0.671569 0.439538 0.161100
0.726047 0.447610 0.169172
0.780526 0.455682 0.177245
0.835004 0.463754 0.185317
0.889483 0.471826 0.193389
0.044983 0.416233 0.091390
0.099462 0.424306 0.099462
0.153940 0.432378 0.107534
0.208419 0.440450 0.115606
0.262897 0.448522 0.123678
0.317375 0.456594 0.131750
0.371854 0.464666 0.139823
0.426332 0.472738 0.147895
0.480811 0.480811 0.155967
0.535289 0.488883 0.164039
0.589767 0.496955 0.172111
0.644246 0.505027 0.180183
0.698724 0.513099 0.188255
0.753203 0.521171 0.196328
0.807681 0.529244 0.204400
0.862159 0.537316 0.212472
0.916638 0.545388 0.220544
0.072139 0.489795 0.118545
0.126617 0.497867 0.126617
0.181095 0.505939 0.134689
0.235574 0.514011 0.142761
0.290052 0.522083 0.150833
0.344531 0.530156 0.158906
0.399009 0.538228 0.166978
0.453487 0.546300 0.175050
0.507966 0.554372 0.183122
0.562444 0.562444 0.191194
0.616923 0.570516 0.199266
0.671401 0.578589 0.207339
0.725879 0.586661 0.215411
0.780358 0.594733 0.223483
0.834836 0.602805 0.231555
0.889315 0.610877 0.239627
0.943793 0.618949 0.247699
0.099294 0.563356 0.145700
0.153772 0.571429 0.153772
0.208251 0.579501 0.161844
0.262729 0.587573 0.169917
0.317207 0.595645 0.177989
0.371686 0.603717 0.186061
0.426164 0.611789 0.194133
0.480643 0.619861 0.202205
0.535121 0.627934 0.210277
0.589600 0.636006 0.218350
0.644078 0.644078 0.226422
0.698556 0.652150 0.234494
0.753035 0.660222 0.242566
0.807513 0.668294 0.250638
0.861992 0.676367 0.258710
0.916470 0.684439 0.266782
0.970948 0.692511 0.274855
0.126449 0.636918 0.172855
0.180927 0.644990 0.180927
0.235406 0.653062 0.189000
0.289884 0.661134 0.197072
0.344363 0.669206 0.205144
0.398841 0.677279 0.213216
0.453320 0.685351 0.221288
0.507798 0.693423 0.229360
0.562276 0.701495 0.237433
0.616755 0.709567 0.245505
0.671233 0.717639 0.253577
0.725712 0.725712 0.261649
0.780190 0.733784 0.269721
0.834668 0.741856 0.277793
0.889147 0.749928 0.285866
0.943625 0.758000 0.293938
0.998104 0.766072 0.302010
0.153604 0.710479 0.200011
0.208083 0.718552 0.208083
0.262561 0.726624 0.216155
0.317040 0.734696 0.224227
0.371518 0.742768 0.232299
0.425996 0.750840 0.240371
0.480475 0.758912 0.248444
0.534953 0.766984 0.256516
0.589432 0.775057 0.264588
0.643910 0.783129 0.272660
0.698388 0.791201 0.280732
0.752867 0.799273 0.288804
0.807345 0.807345 0.296876
0.861824 0.815417 0.304949
0.916302 0.823490 0.313021
0.970780 0.831562 0.321093
1.000000 0.839634 0.329165
0.180760 0.784041 0.227166
0.235238 0.792113 0.235238
0.289716 0.800185 0.243310
0.344195 0.808257 0.251382
0.398673 0.816329 0.259454
0.453152 0.824402 0.267527
0.507630 0.832474 0.275599
0.562108 0.840546 0.283671
0.616587 0.848618 0.291743
0.671065 0.856690 0.299815
0.725544 0.864762 0.307887
0.780022 0.872835 0.315960
0.834500 0.880907 0.324032
0.888979 0.888979 0.332104
0.943457 0.897051 0.340176
0.997936 0.905123 0.348248
1.000000 0.913195 0.356320
0.207915 0.857602 0.254321
0.262393 0.865675 0.262393
0.316872 0.873747 0.270465
0.371350 0.881819 0.278538
0.425828 0.889891 0.286610
0.480307 0.897963 0.294682
0.534785 0.906035 0.302754
0.589264 0.914107 0.310826
0.643742 0.922180 0.318898
0.698221 0.930252 0.326970
0.752699 0.938324 0.335043
0.807177 0.946396 0.343115
0.861656 0.954468 0.351187
0.916134 0.962540 0.359259
0.970613 0.970613 0.367331
1.000000 0.978685 0.375403
1.000000 0.986757 0.383476
0.235070 0.931164 0.281476
0.289548 0.939236 0.289548
0.344027 0.947308 0.297621
0.398505 0.955380 0.305693
0.452984 0.963452 0.313765
0.507462 0.971525 0.321837
0.561941 0.979597 0.329909
0.616419 0.987669 0.337981
0.670897 0.995741 0.346054
0.725376 1.000000 0.354126
0.779854 1.000000 0.362198
0.834333 1.000000 0.370270
0.888811 1.000000 0.378342
0.943289 1.000000 0.386414
0.997768 1.000000 0.394487
1.000000 1.000000 0.402559
1.000000 1.000000 0.410631
0.262225 1.000000 0.308632
0.316704 1.000000 0.316704
0.371182 1.000000 0.324776
0.425661 1.000000 0.332848
0.480139 1.000000 0.340920
0.534617 1.000000 0.348992
0.589096 1.000000 0.357065
0.643574 1.000000 0.365137
0.698053 1.000000 0.373209
0.752531 1.000000 0.381281
0.807009 1.000000 0.389353
0.861488 1.000000 0.397425
0.915966 1.000000 0.405497
0.970445 1.000000 0.413570
1.000000 1.000000 0.421642
1.000000 1.000000 0.429714
1.000000 1.000000 0.437786
0.000000 0.000000 0.000000
0.000000 0.000000 0.000000
0.000000 0.000000 0.000000
0.000000 0.000000 0.000000
0.048396 0.000000 0.000000
0.102875 0.000000 0.000000
0.157353 0.000000 0.000000
0.211832 0.000000 0.000000
0.266310 0.000000 0.000000
0.320788 0.000000 0.000000
0.375267 0.000000 0.004017
0.429745 0.000000 0.012089
0.484224 0.000000 0.020161
0.538702 0.000000 0.028233
0.593180 0.000000 0.036305
0.647659 0.000000 0.044378
0.702137 0.000000 0.052450
0.000000 0.000000 0.000000
0.000000 0.000000 0.000000
0.000000 0.000000 0.000000
0.021073 0.000000 0.000000
0.075552 0.000000 0.000000
0.130030 0.000000 0.000000
0.184508 0.000000 0.000000
0.238987 0.000000 0.006956
0.293465 0.000000 0.015028
0.347944 0.000000 0.023100
0.402422 0.000000 0.031172
0.456900 0.000000 0.039244
0.511379 0.000910 0.047316
0.565857 0.008982 0.055388
0.620336 0.017054 0.063461
0.674814 0.025127 0.071533
0.729292 0.033199 0.079605
0.000000 0.000000 0.000000
0.000000 0.000000 0.000000
0.000000 0.000000 0.000000
0.048228 0.001822 0.001822
0.102707 0.009894 0.009894
0.157185 0.017966 0.017966
0.211664 0.026039 0.026039
0.266142 0.034111 0.034111
0.320620 0.042183 0.042183
0.375099 0.050255 0.050255
0.429577 0.058327 0.058327
0.484056 0.066399 0.066399
0.538534 0.074472 0.074472
0.593012 0.082544 0.082544
0.647491 0.090616 0.090616
0.701969 0.098688 0.098688
0.756448 0.106760 0.106760
0.000000 0.051167 0.004761
0.000000 0.059239 0.012833
0.020905 0.067312 0.020905
0.075384 0.075384 0.028977
0.129862 0.083456 0.037050
0.184340 0.091528 0.045122
0.238819 0.099600 0.053194
0.293297 0.107672 0.061266
0.347776 0.115744 0.069338
0.402254 0.123817 0.077410
0.456733 0.131889 0.085482
0.511211 0.139961 0.093555
0.565689 0.148033 0.101627
0.620168 0.156105 0.109699
0.674646 0.164177 0.117771
0.729125 0.172250 0.125843
0.783603 0.180322 0.133915
0.000000 0.124729 0.031916
0.000000 0.132801 0.039988
0.048060 0.140873 0.048060
0.102539 0.148945 0.056133
0.157017 0.157017 0.064205
0.211496 0.165089 0.072277
0.265974 0.173162 0.080349
0.320453 0.181234 0.088421
0.374931 0.189306 0.096493
0.429409 0.197378 0.104566
0.483888 0.205450 0.112638
0.538366 0.213522 0.120710
0.592845 0.221595 0.128782
0.647323 0.229667 0.136854
0.701801 0.237739 0.144926
0.756280 0.245811 0.152999
0.810758 0.253883 0.161071
0.000000 0.198290 0.059071
0.020737 0.206362 0.067144
0.075216 0.214434 0.075216
0.129694 0.222507 0.083288
0.184173 0.230579 0.091360
0.238651 0.238651 0.099432
0.293129 0.246723 0.107504
0.347608 0.254795 0.115577
0.402086 0.262867 0.123649
0.456565 0.270940 0.131721
0.511043 0.279012 0.139793
0.565521 0.287084 0.147865
0.620000 0.295156 0.155937
0.674478 0.303228 0.164009
0.728957 0.311300 0.172082
0.783435 0.319373 0.180154
0.837913 0.327445 0.188226
0.000000 0.271852 0.086227
0.047893 0.279924 0.094299
0.102371 0.287996 0.102371
0.156849 0.296068 0.110443
0.211328 0.304140 0.118515
0.265806 0.312212 0.126587
0.320285 0.320285 0.134660
0.374763 0.328357 0.142732
0.429241 0.336429 0.150804
0.483720 0.344501 0.158876
0.538198 0.352573 0.166948
0.592677 0.360645 0.175020
0.647155 0.368718 0.183093
0.701633 0.376790 0.191165
0.756112 0.384862 0.199237
0.810590 0.392934 0.207309
0.865069 0.401006 0.215381
0.020569 0.345413 0.113382
0.075048 0.353485 0.121454
0.129526 0.361558 0.129526
0.184005 0.369630 0.137598
0.238483 0.377702 0.145671
0.292961 0.385774 0.153743
0.347440 0.393846 0.161815
0.401918 0.401918 0.169887
0.456397 0.409990 0.177959
0.510875 0.418063 0.186031
0.565354 0.426135 0.194104
0.619832 0.434207 0.202176
0.674310 0.442279 0.210248
0.728789 0.450351 0.218320
0.783267 0.458423 0.226392
0.837746 0.466496 0.234464
0.892224 0.474568 0.242536
0.047725 0.418975 0.140537
0.102203 0.427047 0.148609
0.156682 0.435119 0.156682
0.211160 0.443191 0.164754
0.265638 0.451263 0.172826
0.320117 0.459335 0.180898
0.374595 0.467408 0.188970
0.429074 0.475480 0.197042
0.483552 0.483552 0.205114
0.538030 0.491624 0.213187
0.592509 0.499696 0.221259
0.646987 0.507768 0.229331
0.701466 0.515841 0.237403
0.755944 0.523913 0.245475
0.810422 0.531985 0.253547
0.864901 0.540057 0.261620
0.919379 0.548129 0.269692
0.074880 0.492536 0.167692
0.129358 0.500608 0.175765
0.183837 0.508681 0.183837
0.238315 0.516753 0.191909
0.292794 0.524825 0.199981
0.347272 0.532897 0.208053
0.401750 0.540969 0.216125
0.456229 0.549041 0.224198
0.510707 0.557113 0.232270
0.565186 0.565186 0.240342
0.619664 0.573258 0.248414
0.674142 0.581330 0.256486
0.728621 0.589402 0.264558
0.783099 0.597474 0.272630
0.837578 0.605546 0.280703
0.892056 0.613619 0.288775
0.946534 0.621691 0.296847
0.102035 0.566098 0.194848
0.156514 0.574170 0.202920
0.210992 0.582242 0.210992
0.265470 0.590314 0.219064
0.319949 0.598386 0.227136
0.374427 0.606458 0.235208
0.428906 0.614531 0.243281
0.483384 0.622603 0.251353
0.537862 0.630675 0.259425
0.592341 0.638747 0.267497
0.646819 0.646819 0.275569
0.701298 0.654891 0.283641
0.755776 0.662964 0.291714
0.810254 0.671036 0.299786
0.864733 0.679108 0.307858
0.919211 0.687180 0.315930
0.973690 0.695252 0.324002
0.129190 0.639659 0.222003
0.183669 0.647731 0.230075
0.238147 0.655803 0.238147
0.292626 0.663876 0.246219
0.347104 0.671948 0.254292
0.401582 0.680020 0.262364
0.456061 0.688092 0.270436
0.510539 0.696164 0.278508
0.565018 0.704236 0.286580
0.619496 0.712309 0.294652
0.673975 0.720381 0.302725
0.728453 0.728453 0.310797
0.782931 0.736525 0.318869
0.837410 0.744597 0.326941
0.891888 0.752669 0.335013
0.946367 0.760742 0.343085
1.000000 0.768814 0.351157
0.156346 0.713221 0.249158
0.210824 0.721293 0.257230
0.265302 0.729365 0.265302
0.319781 0.737437 0.273375
0.374259 0.745509 0.281447
0.428738 0.753581 0.289519
0.483216 0.761654 0.297591
0.537695 0.769726 0.305663
0.592173 0.777798 0.313735
0.646651 0.785870 0.321808
0.701130 0.793942 0.329880
0.755608 0.802014 0.337952
0.810087 0.810087 0.346024
0.864565 0.818159 0.354096
0.919043 0.826231 0.362168
0.973522 0.834303 0.370241
1.000000 0.842375 0.378313
0.183501 0.786782 0.276313
0.237979 0.794854 0.284386
0.292458 0.802926 0.292458
0.346936 0.810999 0.300530
0.401415 0.819071 0.308602
0.455893 0.827143 0.316674
0.510371 0.835215 0.324746
0.564850 0.843287 0.332819
0.619328 0.851359 0.340891
0.673807 0.859432 0.348963
0.728285 0.867504 0.357035
0.782763 0.875576 0.365107
0.837242 0.883648 0.373179
0.891720 0.891720 0.381251
0.946199 0.899792 0.389324
1.000000 0.907865 0.397396
1.000000 0.915937 0.405468
0.210656 0.860344 0.303469
0.265135 0.868416 0.311541
0.319613 0.876488 0.319613
0.374091 0.884560 0.327685
0.428570 0.892632 0.335757
0.483048 0.900704 0.343829
0.537527 0.908777 0.351902
0.592005 0.916849 0.359974
0.646483 0.924921 0.368046
0.700962 0.932993 0.376118
0.755440 0.941065 0.384190
0.809919 0.949137 0.392262
0.864397 0.957210 0.400335
0.918875 0.965282 0.408407
0.973354 0.973354 0.416479
1.000000 0.981426 0.424551
1.000000 0.989498 0.432623
0.237811 0.933905 0.330624
0.292290 0.941977 0.338696
0.346768 0.950049 0.346768
0.401247 0.958122 0.354840
0.455725 0.966194 0.362913
0.510203 0.974266 0.370985
0.564682 0.982338 0.379057
0.619160 0.990410 0.387129
0.673639 0.998482 0.395201
0.728117 1.000000 0.403273
0.782595 1.000000 0.411345
0.837074 1.000000 0.419418
0.891552 1.000000 0.427490
0.946031 1.000000 0.435562
1.000000 1.000000 0.443634
1.000000 1.000000 0.451706
1.000000 1.000000 0.459778
0.264967 1.000000 0.357779
0.319445 1.000000 0.365851
0.373924 1.000000 0.373924
0.428402 1.000000 0.381996
0.482880 1.000000 0.390068
0.537359 1.000000 0.398140
0.591837 1.000000 0.406212
0.646316 1.000000 0.414284
0.700794 1.000000 0.422356
0.755272 1.000000 0.430429
0.809751 1.000000 0.438501
0.864229 1.000000 0.446573
0.918708 1.000000 0.454645
0.973186 1.000000 0.462717
1.000000 1.000000 0.470789
1.000000 1.000000 0.478862
1.000000 1.000000 0.486934
0.000000 0.000000 0.000000
0.000000 0.000000 0.000000
0.000000 0.000000 0.000000
0.000000 0.000000 0.000000
0.051138 0.000000 0.004731
0.105616 0.000000 0.012804
0.160094 0.000000 0.020876
0.214573 0.000000 0.028948
0.269051 0.000000 0.037020
0.323530 0.000000 0.045092
0.378008 0.000000 0.053164
0.432487 0.000000 0.061237
0.486965 0.000000 0.069309
0.541443 0.000000 0.077381
0.595922 0.000000 0.085453
0.650400 0.000000 0.093525
0.704879 0.000000 0.101597
0.000000 0.000000 0.000000
0.000000 0.000000 0.007670
