web/src-tauri/luts/cool_noir.cube
TITLE "Cool Noir (desaturated, cold contrast)"
LUT_3D_SIZE 5
0.000000 0.000000 0.000000
0.019863 0.000000 0.000000
0.184725 0.000000 0.000000
0.349588 0.000000 0.033446
0.514450 0.014450 0.072511
0.000000 0.114100 0.047668
0.153963 0.153963 0.086733
0.318825 0.193825 0.125799
0.483687 0.233687 0.164864
0.648550 0.273550 0.203929
0.123200 0.373200 0.179086
0.288062 0.413062 0.218151
0.452925 0.452925 0.257216
0.617788 0.492787 0.296282
0.782650 0.532650 0.335347
0.257300 0.632300 0.310504
0.422162 0.672162 0.349569
0.587025 0.712025 0.388634
0.751888 0.751888 0.427700
0.916750 0.791750 0.466765
0.391400 0.891400 0.441922
0.556262 0.931263 0.480987
0.721125 0.971125 0.520052
0.885988 1.000000 0.559118
1.000000 1.000000 0.598183
0.000000 0.000000 0.052017
0.033400 0.000000 0.091082
0.198263 0.000000 0.130147
0.363125 0.000000 0.169212
0.527988 0.027987 0.208278
0.002637 0.127638 0.183435
0.167500 0.167500 0.222500
0.332363 0.207363 0.261565
0.497225 0.247225 0.300630
0.662087 0.287087 0.339696
0.136737 0.386737 0.314853
0.301600 0.426600 0.353918
0.466463 0.466463 0.392983
0.631325 0.506325 0.432048
0.796188 0.546188 0.471114
0.270837 0.645838 0.446271
0.435700 0.685700 0.485336
0.600562 0.725562 0.524401
0.765425 0.765425 0.563467
0.930288 0.805287 0.602532
0.404937 0.904937 0.577689
0.569800 0.944800 0.616754
0.734662 0.984662 0.655819
0.899525 1.000000 0.694885
1.000000 1.000000 0.733950
0.000000 0.000000 0.187783
0.046937 0.000000 0.226849
0.211800 0.000000 0.265914
0.376663 0.001662 0.304979
0.541525 0.041525 0.344044
0.016175 0.141175 0.319201
0.181037 0.181037 0.358267
0.345900 0.220900 0.397332
0.510763 0.260763 0.436397
0.675625 0.300625 0.475463
0.150275 0.400275 0.450619
0.315137 0.440137 0.489685
0.480000 0.480000 0.528750
0.644863 0.519862 0.567815
0.809725 0.559725 0.606881
0.284375 0.659375 0.582037
0.449237 0.699238 0.621103
0.614100 0.739100 0.660168
0.778963 0.778963 0.699233
0.943825 0.818825 0.738298
0.418475 0.918475 0.713455
0.583338 0.958338 0.752521
0.748200 0.998200 0.791586
0.913062 1.000000 0.830651
1.000000 1.000000 0.869717
0.000000 0.000000 0.323550
0.060475 0.000000 0.362615
0.225338 0.000000 0.401681
0.390200 0.015200 0.440746
0.555063 0.055063 0.479811
0.029712 0.154712 0.454968
0.194575 0.194575 0.494034
0.359438 0.234438 0.533099
0.524300 0.274300 0.572164
0.689162 0.314163 0.611229
0.163812 0.413812 0.586386
0.328675 0.453675 0.625452
0.493537 0.493537 0.664517
0.658400 0.533400 0.703582
0.823263 0.573263 0.742647
0.297912 0.672913 0.717804
0.462775 0.712775 0.756870
0.627638 0.752638 0.795935
0.792500 0.792500 0.835000
0.957363 0.832362 0.874065
0.432012 0.932012 0.849222
0.596875 0.971875 0.888288
0.761737 1.000000 0.927353
0.926600 1.000000 0.966418
1.000000 1.000000 1.000000
0.000000 0.000000 0.459317
0.074013 0.000000 0.498382
0.238875 0.000000 0.537448
0.403738 0.028737 0.576513
0.568600 0.068600 0.615578
0.043250 0.168250 0.590735
0.208113 0.208113 0.629800
0.372975 0.247975 0.668866
0.537837 0.287837 0.707931
0.702700 0.327700 0.746996
0.177350 0.427350 0.722153
0.342212 0.467212 0.761218
0.507075 0.507075 0.800283
0.671938 0.546937 0.839349
0.836800 0.586800 0.878414
0.311450 0.686450 0.853571
0.476312 0.726313 0.892636
0.641175 0.766175 0.931702
0.806037 0.806037 0.970767
0.970900 0.845900 1.000000
0.445550 0.945550 0.984989
0.610412 0.985412 1.000000
0.775275 1.000000 1.000000
0.940138 1.000000 1.000000
1.000000 1.000000 1.000000
