web/src-tauri/luts/cool_noir.cube
TITLE "Cool Noir (desaturated, cold contrast)"
LUT_3D_SIZE 17
0.000000 0.000000 0.000000
0.000000 0.000000 0.000000
0.000000 0.000000 0.000000
0.000000 0.000000 0.000000
0.019863 0.000000 0.000000
0.061078 0.000000 0.000000
0.102294 0.000000 0.000000
0.143509 0.000000 0.000000
0.184725 0.000000 0.000000
0.225941 0.000000 0.004147
0.267156 0.000000 0.013913
0.308372 0.000000 0.023679
0.349588 0.000000 0.033446
0.390803 0.000000 0.043212
0.432019 0.000000 0.052978
0.473234 0.004484 0.062745
0.514450 0.014450 0.072511
0.000000 0.000000 0.000000
0.000000 0.000000 0.000000
0.000000 0.000000 0.000000
0.012172 0.000000 0.000000
0.053388 0.000000 0.000000
0.094603 0.000000 0.000000
0.135819 0.000000 0.007702
0.177034 0.000000 0.017469
0.218250 0.000000 0.027235
0.259466 0.009466 0.037001
0.300681 0.019431 0.046768
0.341897 0.029397 0.056534
0.383113 0.039362 0.066300
0.424328 0.049328 0.076067
0.465544 0.059294 0.085833
0.506759 0.069259 0.095599
0.547975 0.079225 0.105366
0.000000 0.000000 0.000000
0.000000 0.000000 0.000000
0.004481 0.004481 0.001492
0.045697 0.014447 0.011258
0.086913 0.024413 0.021024
0.128128 0.034378 0.030791
0.169344 0.044344 0.040557
0.210559 0.054309 0.050323
0.251775 0.064275 0.060089
0.292991 0.074241 0.069856
0.334206 0.084206 0.079622
0.375422 0.094172 0.089388
0.416638 0.104137 0.099155
0.457853 0.114103 0.108921
0.499069 0.124069 0.118687
0.540284 0.134034 0.128454
0.581500 0.144000 0.138220
0.000000 0.049325 0.014813
0.000000 0.059291 0.024580
0.038006 0.069256 0.034346
0.079222 0.079222 0.044112
0.120437 0.089187 0.053879
0.161653 0.099153 0.063645
0.202869 0.109119 0.073411
0.244084 0.119084 0.083178
0.285300 0.129050 0.092944
0.326516 0.139016 0.102710
0.367731 0.148981 0.112477
0.408947 0.158947 0.122243
0.450163 0.168912 0.132009
0.491378 0.178878 0.141776
0.532594 0.188844 0.151542
0.573809 0.198809 0.161308
0.615025 0.208775 0.171075
0.000000 0.114100 0.047668
0.030316 0.124066 0.057434
0.071531 0.134031 0.067201
0.112747 0.143997 0.076967
0.153963 0.153963 0.086733
0.195178 0.163928 0.096500
0.236394 0.173894 0.106266
0.277609 0.183859 0.116032
0.318825 0.193825 0.125799
0.360041 0.203791 0.135565
0.401256 0.213756 0.145331
0.442472 0.223722 0.155097
0.483687 0.233687 0.164864
0.524903 0.243653 0.174630
0.566119 0.253619 0.184396
0.607334 0.263584 0.194163
0.648550 0.273550 0.203929
0.022625 0.178875 0.080522
0.063841 0.188841 0.090289
0.105056 0.198806 0.100055
0.146272 0.208772 0.109821
0.187487 0.218737 0.119588
0.228703 0.228703 0.129354
0.269919 0.238669 0.139120
0.311134 0.248634 0.148887
0.352350 0.258600 0.158653
0.393566 0.268566 0.168419
0.434781 0.278531 0.178186
0.475997 0.288497 0.187952
0.517213 0.298463 0.197718
0.558428 0.308428 0.207485
0.599644 0.318394 0.217251
0.640859 0.328359 0.227017
0.682075 0.338325 0.236783
0.056150 0.243650 0.113377
0.097366 0.253616 0.123143
0.138581 0.263581 0.132910
0.179797 0.273547 0.142676
0.221013 0.283513 0.152442
0.262228 0.293478 0.162209
0.303444 0.303444 0.171975
0.344659 0.313409 0.181741
0.385875 0.323375 0.191507
0.427091 0.333341 0.201274
0.468306 0.343306 0.211040
0.509522 0.353272 0.220806
0.550737 0.363237 0.230573
0.591953 0.373203 0.240339
0.633169 0.383169 0.250105
0.674384 0.393134 0.259872
0.715600 0.403100 0.269638
0.089675 0.308425 0.146231
0.130891 0.318391 0.155998
0.172106 0.328356 0.165764
0.213322 0.338322 0.175530
0.254537 0.348288 0.185297
0.295753 0.358253 0.195063
0.336969 0.368219 0.204829
0.378184 0.378184 0.214596
0.419400 0.388150 0.224362
0.460616 0.398116 0.234128
0.501831 0.408081 0.243895
0.543047 0.418047 0.253661
0.584262 0.428012 0.263427
0.625478 0.437978 0.273194
0.666694 0.447944 0.282960
0.707909 0.457909 0.292726
0.749125 0.467875 0.302492
0.123200 0.373200 0.179086
0.164416 0.383166 0.188852
0.205631 0.393131 0.198619
0.246847 0.403097 0.208385
0.288062 0.413062 0.218151
0.329278 0.423028 0.227918
0.370494 0.432994 0.237684
0.411709 0.442959 0.247450
0.452925 0.452925 0.257216
0.494141 0.462891 0.266983
0.535356 0.472856 0.276749
0.576572 0.482822 0.286515
0.617788 0.492787 0.296282
0.659003 0.502753 0.306048
0.700219 0.512719 0.315814
0.741434 0.522684 0.325581
0.782650 0.532650 0.335347
0.156725 0.437975 0.211940
0.197941 0.447941 0.221707
0.239156 0.457906 0.231473
0.280372 0.467872 0.241239
0.321587 0.477837 0.251006
0.362803 0.487803 0.260772
0.404019 0.497769 0.270538
0.445234 0.507734 0.280305
0.486450 0.517700 0.290071
0.527666 0.527666 0.299837
0.568881 0.537631 0.309604
0.610097 0.547597 0.319370
0.651312 0.557562 0.329136
0.692528 0.567528 0.338903
0.733744 0.577494 0.348669
0.774959 0.587459 0.358435
0.816175 0.597425 0.368201
0.190250 0.502750 0.244795
0.231466 0.512716 0.254561
0.272681 0.522681 0.264328
0.313897 0.532647 0.274094
0.355112 0.542612 0.283860
0.396328 0.552578 0.293627
0.437544 0.562544 0.303393
0.478759 0.572509 0.313159
0.519975 0.582475 0.322925
0.561191 0.592441 0.332692
0.602406 0.602406 0.342458
0.643622 0.612372 0.352224
0.684837 0.622337 0.361991
0.726053 0.632303 0.371757
0.767269 0.642269 0.381523
0.808484 0.652234 0.391290
0.849700 0.662200 0.401056
0.223775 0.567525 0.277649
0.264991 0.577491 0.287416
0.306206 0.587456 0.297182
0.347422 0.597422 0.306948
0.388637 0.607387 0.316715
0.429853 0.617353 0.326481
0.471069 0.627319 0.336247
0.512284 0.637284 0.346014
0.553500 0.647250 0.355780
0.594716 0.657216 0.365546
0.635931 0.667181 0.375313
0.677147 0.677147 0.385079
0.718363 0.687113 0.394845
0.759578 0.697078 0.404612
0.800794 0.707044 0.414378
0.842009 0.717009 0.424144
0.883225 0.726975 0.433910
0.257300 0.632300 0.310504
0.298516 0.642266 0.320270
0.339731 0.652231 0.330037
0.380947 0.662197 0.339803
0.422162 0.672162 0.349569
0.463378 0.682128 0.359336
0.504594 0.692094 0.369102
0.545809 0.702059 0.378868
0.587025 0.712025 0.388634
0.628241 0.721991 0.398401
0.669456 0.731956 0.408167
0.710672 0.741922 0.417933
0.751888 0.751888 0.427700
0.793103 0.761853 0.437466
0.834319 0.771819 0.447232
0.875534 0.781784 0.456999
0.916750 0.791750 0.466765
0.290825 0.697075 0.343358
0.332041 0.707041 0.353125
0.373256 0.717006 0.362891
0.414472 0.726972 0.372657
0.455688 0.736938 0.382424
0.496903 0.746903 0.392190
0.538119 0.756869 0.401956
0.579334 0.766834 0.411723
0.620550 0.776800 0.421489
0.661766 0.786766 0.431255
0.702981 0.796731 0.441022
0.744197 0.806697 0.450788
0.785412 0.816662 0.460554
0.826628 0.826628 0.470321
0.867844 0.836594 0.480087
0.909059 0.846559 0.489853
0.950275 0.856525 0.499619
0.324350 0.761850 0.376213
0.365566 0.771816 0.385979
0.406781 0.781781 0.395746
0.447997 0.791747 0.405512
0.489212 0.801712 0.415278
0.530428 0.811678 0.425045
0.571644 0.821644 0.434811
0.612859 0.831609 0.444577
0.654075 0.841575 0.454343
0.695291 0.851541 0.464110
0.736506 0.861506 0.473876
0.777722 0.871472 0.483642
0.818937 0.881437 0.493409
0.860153 0.891403 0.503175
0.901369 0.901369 0.512941
0.942584 0.911334 0.522708
0.983800 0.921300 0.532474
0.357875 0.826625 0.409067
0.399091 0.836591 0.418834
0.440306 0.846556 0.428600
0.481522 0.856522 0.438366
0.522738 0.866488 0.448133
0.563953 0.876453 0.457899
0.605169 0.886419 0.467665
0.646384 0.896384 0.477432
0.687600 0.906350 0.487198
0.728816 0.916316 0.496964
0.770031 0.926281 0.506731
0.811247 0.936247 0.516497
0.852463 0.946213 0.526263
0.893678 0.956178 0.536030
0.934894 0.966144 0.545796
0.976109 0.976109 0.555562
1.000000 0.986075 0.565329
0.391400 0.891400 0.441922
0.432616 0.901366 0.451688
0.473831 0.911331 0.461455
0.515047 0.921297 0.471221
0.556262 0.931263 0.480987
0.597478 0.941228 0.490754
0.638694 0.951194 0.500520
0.679909 0.961159 0.510286
0.721125 0.971125 0.520052
0.762341 0.981091 0.529819
0.803556 0.991056 0.539585
0.844772 1.000000 0.549351
0.885988 1.000000 0.559118
0.927203 1.000000 0.568884
0.968419 1.000000 0.578650
1.000000 1.000000 0.588417
1.000000 1.000000 0.598183
0.000000 0.000000 0.000000
0.000000 0.000000 0.000000
0.000000 0.000000 0.000000
0.000000 0.000000 0.000000
0.023247 0.000000 0.000000
0.064462 0.000000 0.000000
0.105678 0.000000 0.008790
0.146894 0.000000 0.018556
0.188109 0.000000 0.028322
0.229325 0.000000 0.038088
0.270541 0.000000 0.047855
0.311756 0.000000 0.057621
0.352972 0.000000 0.067387
0.394188 0.000000 0.077154
0.435403 0.000000 0.086920
0.476619 0.007869 0.096686
0.517834 0.017834 0.106453
0.000000 0.000000 0.000000
0.000000 0.000000 0.000000
0.000000 0.000000 0.002579
0.015556 0.000000 0.012345
0.056772 0.000000 0.022111
0.097988 0.000000 0.031878
0.139203 0.000000 0.041644
0.180419 0.000000 0.051410
0.221634 0.002884 0.061177
0.262850 0.012850 0.070943
0.304066 0.022816 0.080709
0.345281 0.032781 0.090476
0.386497 0.042747 0.100242
0.427712 0.052713 0.110008
0.468928 0.062678 0.119775
0.510144 0.072644 0.129541
0.551359 0.082609 0.139307
0.000000 0.000000 0.015901
0.000000 0.000000 0.025667
0.007866 0.007866 0.035433
0.049081 0.017831 0.045200
0.090297 0.027797 0.054966
0.131513 0.037762 0.064732
0.172728 0.047728 0.074499
0.213944 0.057694 0.084265
0.255159 0.067659 0.094031
0.296375 0.077625 0.103797
0.337591 0.087591 0.113564
0.378806 0.097556 0.123330
0.420022 0.107522 0.133096
0.461238 0.117487 0.142863
0.502453 0.127453 0.152629
0.543669 0.137419 0.162395
0.584884 0.147384 0.172162
0.000000 0.052709 0.048755
0.000175 0.062675 0.058522
0.041391 0.072641 0.068288
0.082606 0.082606 0.078054
0.123822 0.092572 0.087820
0.165037 0.102538 0.097587
0.206253 0.112503 0.107353
0.247469 0.122469 0.117119
0.288684 0.132434 0.126886
0.329900 0.142400 0.136652
0.371116 0.152366 0.146418
0.412331 0.162331 0.156185
0.453547 0.172297 0.165951
0.494762 0.182262 0.175717
0.535978 0.192228 0.185484
0.577194 0.202194 0.195250
0.618409 0.212159 0.205016
0.000000 0.117484 0.081610
0.033700 0.127450 0.091376
0.074916 0.137416 0.101142
0.116131 0.147381 0.110909
0.157347 0.157347 0.120675
0.198562 0.167312 0.130441
0.239778 0.177278 0.140208
0.280994 0.187244 0.149974
0.322209 0.197209 0.159740
0.363425 0.207175 0.169506
0.404641 0.217141 0.179273
0.445856 0.227106 0.189039
0.487072 0.237072 0.198805
0.528287 0.247037 0.208572
0.569503 0.257003 0.218338
0.610719 0.266969 0.228104
0.651934 0.276934 0.237871
0.026009 0.182259 0.114464
0.067225 0.192225 0.124230
0.108441 0.202191 0.133997
0.149656 0.212156 0.143763
0.190872 0.222122 0.153529
0.232087 0.232087 0.163296
0.273303 0.242053 0.173062
0.314519 0.252019 0.182828
0.355734 0.261984 0.192595
0.396950 0.271950 0.202361
0.438166 0.281916 0.212127
0.479381 0.291881 0.221894
0.520597 0.301847 0.231660
0.561813 0.311812 0.241426
0.603028 0.321778 0.251193
0.644244 0.331744 0.260959
0.685459 0.341709 0.270725
0.059534 0.247034 0.147319
0.100750 0.257000 0.157085
0.141966 0.266966 0.166851
0.183181 0.276931 0.176618
0.224397 0.286897 0.186384
0.265612 0.296863 0.196150
0.306828 0.306828 0.205917
0.348044 0.316794 0.215683
0.389259 0.326759 0.225449
0.430475 0.336725 0.235215
0.471691 0.346691 0.244982
0.512906 0.356656 0.254748
0.554122 0.366622 0.264514
0.595337 0.376587 0.274281
0.636553 0.386553 0.284047
0.677769 0.396519 0.293813
0.718984 0.406484 0.303580
0.093059 0.311809 0.180173
0.134275 0.321775 0.189939
0.175491 0.331741 0.199706
0.216706 0.341706 0.209472
0.257922 0.351672 0.219238
0.299137 0.361637 0.229005
0.340353 0.371603 0.238771
0.381569 0.381569 0.248537
0.422784 0.391534 0.258304
0.464000 0.401500 0.268070
0.505216 0.411466 0.277836
0.546431 0.421431 0.287603
0.587647 0.431397 0.297369
0.628862 0.441362 0.307135
0.670078 0.451328 0.316902
0.711294 0.461294 0.326668
0.752509 0.471259 0.336434
0.126584 0.376584 0.213028
0.167800 0.386550 0.222794
0.209016 0.396516 0.232560
0.250231 0.406481 0.242327
0.291447 0.416447 0.252093
0.332662 0.426412 0.261859
0.373878 0.436378 0.271626
0.415094 0.446344 0.281392
0.456309 0.456309 0.291158
0.497525 0.466275 0.300924
0.538741 0.476241 0.310691
0.579956 0.486206 0.320457
0.621172 0.496172 0.330223
0.662387 0.506137 0.339990
0.703603 0.516103 0.349756
0.744819 0.526069 0.359522
0.786034 0.536034 0.369289
0.160109 0.441359 0.245882
0.201325 0.451325 0.255648
0.242541 0.461291 0.265415
0.283756 0.471256 0.275181
0.324972 0.481222 0.284947
0.366187 0.491187 0.294714
0.407403 0.501153 0.304480
0.448619 0.511119 0.314246
0.489834 0.521084 0.324013
0.531050 0.531050 0.333779
0.572266 0.541016 0.343545
0.613481 0.550981 0.353312
0.654697 0.560947 0.363078
0.695913 0.570912 0.372844
0.737128 0.580878 0.382611
0.778344 0.590844 0.392377
0.819559 0.600809 0.402143
0.193634 0.506134 0.278737
0.234850 0.516100 0.288503
0.276066 0.526066 0.298269
0.317281 0.536031 0.308036
0.358497 0.545997 0.317802
0.399712 0.555962 0.327568
0.440928 0.565928 0.337335
0.482144 0.575894 0.347101
0.523359 0.585859 0.356867
0.564575 0.595825 0.366634
0.605791 0.605791 0.376400
0.647006 0.615756 0.386166
0.688222 0.625722 0.395932
0.729437 0.635687 0.405699
0.770653 0.645653 0.415465
0.811869 0.655619 0.425231
0.853084 0.665584 0.434998
0.227159 0.570909 0.311591
0.268375 0.580875 0.321357
0.309591 0.590841 0.331124
0.350806 0.600806 0.340890
0.392022 0.610772 0.350656
0.433237 0.620737 0.360423
0.474453 0.630703 0.370189
0.515669 0.640669 0.379955
0.556884 0.650634 0.389722
0.598100 0.660600 0.399488
0.639316 0.670566 0.409254
0.680531 0.680531 0.419021
0.721747 0.690497 0.428787
0.762962 0.700462 0.438553
0.804178 0.710428 0.448320
0.845394 0.720394 0.458086
0.886609 0.730359 0.467852
0.260684 0.635684 0.344446
0.301900 0.645650 0.354212
0.343116 0.655616 0.363978
0.384331 0.665581 0.373745
0.425547 0.675547 0.383511
0.466762 0.685513 0.393277
0.507978 0.695478 0.403044
0.549194 0.705444 0.412810
0.590409 0.715409 0.422576
0.631625 0.725375 0.432342
0.672841 0.735341 0.442109
0.714056 0.745306 0.451875
0.755272 0.755272 0.461641
0.796488 0.765238 0.471408
0.837703 0.775203 0.481174
0.878919 0.785169 0.490940
0.920134 0.795134 0.500707
0.294209 0.700459 0.377300
0.335425 0.710425 0.387066
0.376641 0.720391 0.396833
0.417856 0.730356 0.406599
0.459072 0.740322 0.416365
0.500287 0.750287 0.426132
0.541503 0.760253 0.435898
0.582719 0.770219 0.445664
0.623934 0.780184 0.455431
0.665150 0.790150 0.465197
0.706366 0.800116 0.474963
0.747581 0.810081 0.484730
0.788797 0.820047 0.494496
0.830012 0.830012 0.504262
0.871228 0.839978 0.514029
0.912444 0.849944 0.523795
0.953659 0.859909 0.533561
0.327734 0.765234 0.410155
0.368950 0.775200 0.419921
0.410166 0.785166 0.429687
0.451381 0.795131 0.439454
0.492597 0.805097 0.449220
0.533813 0.815063 0.458986
0.575028 0.825028 0.468753
0.616244 0.834994 0.478519
0.657459 0.844959 0.488285
0.698675 0.854925 0.498051
0.739891 0.864891 0.507818
0.781106 0.874856 0.517584
0.822322 0.884822 0.527350
0.863537 0.894787 0.537117
0.904753 0.904753 0.546883
0.945969 0.914719 0.556649
0.987184 0.924684 0.566416
0.361259 0.830009 0.443009
0.402475 0.839975 0.452775
0.443691 0.849941 0.462542
0.484906 0.859906 0.472308
0.526122 0.869872 0.482074
0.567338 0.879838 0.491841
0.608553 0.889803 0.501607
0.649769 0.899769 0.511373
0.690984 0.909734 0.521140
0.732200 0.919700 0.530906
0.773416 0.929666 0.540672
0.814631 0.939631 0.550439
0.855847 0.949597 0.560205
0.897062 0.959562 0.569971
0.938278 0.969528 0.579738
0.979494 0.979494 0.589504
1.000000 0.989459 0.599270
0.394784 0.894784 0.475864
0.436000 0.904750 0.485630
0.477216 0.914716 0.495396
0.518431 0.924681 0.505163
0.559647 0.934647 0.514929
0.600862 0.944613 0.524695
0.642078 0.954578 0.534462
0.683294 0.964544 0.544228
0.724509 0.974509 0.553994
0.765725 0.984475 0.563761
0.806941 0.994441 0.573527
0.848156 1.000000 0.583293
0.889372 1.000000 0.593059
0.930588 1.000000 0.602826
0.971803 1.000000 0.612592
1.000000 1.000000 0.622358
1.000000 1.000000 0.632125
0.000000 0.000000 0.000000
0.000000 0.000000 0.000000
0.000000 0.000000 0.003666
0.000000 0.000000 0.013432
0.026631 0.000000 0.023199
0.067847 0.000000 0.032965
0.109063 0.000000 0.042731
0.150278 0.000000 0.052498
0.191494 0.000000 0.062264
0.232709 0.000000 0.072030
0.273925 0.000000 0.081796
0.315141 0.000000 0.091563
0.356356 0.000000 0.101329
0.397572 0.000000 0.111095
0.438788 0.001287 0.120862
0.480003 0.011253 0.130628
0.521219 0.021219 0.140394
0.000000 0.000000 0.016988
0.000000 0.000000 0.026754
0.000000 0.000000 0.036521
0.018941 0.000000 0.046287
0.060156 0.000000 0.056053
0.101372 0.000000 0.065819
0.142587 0.000000 0.075586
0.183803 0.000000 0.085352
0.225019 0.006269 0.095118
0.266234 0.016234 0.104885
0.307450 0.026200 0.114651
0.348666 0.036166 0.124417
0.389881 0.046131 0.134184
0.431097 0.056097 0.143950
0.472313 0.066062 0.153716
0.513528 0.076028 0.163483
0.554744 0.085994 0.173249
0.000000 0.000000 0.049842
0.000000 0.001284 0.059609
0.011250 0.011250 0.069375
0.052466 0.021216 0.079141
0.093681 0.031181 0.088908
0.134897 0.041147 0.098674
0.176113 0.051112 0.108440
0.217328 0.061078 0.118207
0.258544 0.071044 0.127973
0.299759 0.081009 0.137739
0.340975 0.090975 0.147505
0.382191 0.100941 0.157272
0.423406 0.110906 0.167038
0.464622 0.120872 0.176804
0.505837 0.130837 0.186571
0.547053 0.140803 0.196337
0.588269 0.150769 0.206103
0.000000 0.056094 0.082697
0.003559 0.066059 0.092463
0.044775 0.076025 0.102229
0.085991 0.085991 0.111996
0.127206 0.095956 0.121762
0.168422 0.105922 0.131528
0.209638 0.115887 0.141295
0.250853 0.125853 0.151061
0.292069 0.135819 0.160827
0.333284 0.145784 0.170594
0.374500 0.155750 0.180360
0.415716 0.165716 0.190126
0.456931 0.175681 0.199893
0.498147 0.185647 0.209659
0.539362 0.195612 0.219425
0.580578 0.205578 0.229192
0.621794 0.215544 0.238958
0.000000 0.120869 0.115551
0.037084 0.130834 0.125318
0.078300 0.140800 0.135084
0.119516 0.150766 0.144850
0.160731 0.160731 0.154617
0.201947 0.170697 0.164383
0.243163 0.180663 0.174149
0.284378 0.190628 0.183916
0.325594 0.200594 0.193682
0.366809 0.210559 0.203448
0.408025 0.220525 0.213214
0.449241 0.230491 0.222981
0.490456 0.240456 0.232747
0.531672 0.250422 0.242513
0.572887 0.260387 0.252280
0.614103 0.270353 0.262046
0.655319 0.280319 0.271812
0.029394 0.185644 0.148406
0.070609 0.195609 0.158172
0.111825 0.205575 0.167938
0.153041 0.215541 0.177705
0.194256 0.225506 0.187471
0.235472 0.235472 0.197237
0.276688 0.245438 0.207004
0.317903 0.255403 0.216770
0.359119 0.265369 0.226536
0.400334 0.275334 0.236303
0.441550 0.285300 0.246069
0.482766 0.295266 0.255835
0.523981 0.305231 0.265602
0.565197 0.315197 0.275368
0.606412 0.325162 0.285134
0.647628 0.335128 0.294901
0.688844 0.345094 0.304667
0.062919 0.250419 0.181260
0.104134 0.260384 0.191027
0.145350 0.270350 0.200793
0.186566 0.280316 0.210559
0.227781 0.290281 0.220326
0.268997 0.300247 0.230092
0.310213 0.310213 0.239858
0.351428 0.320178 0.249625
0.392644 0.330144 0.259391
0.433859 0.340109 0.269157
0.475075 0.350075 0.278923
0.516291 0.360041 0.288690
0.557506 0.370006 0.298456
0.598722 0.379972 0.308222
0.639938 0.389937 0.317989
0.681153 0.399903 0.327755
0.722369 0.409869 0.337521
0.096444 0.315194 0.214115
0.137659 0.325159 0.223881
0.178875 0.335125 0.233647
0.220091 0.345091 0.243414
0.261306 0.355056 0.253180
0.302522 0.365022 0.262946
0.343737 0.374987 0.272713
0.384953 0.384953 0.282479
0.426169 0.394919 0.292245
0.467384 0.404884 0.302012
0.508600 0.414850 0.311778
0.549816 0.424816 0.321544
0.591031 0.434781 0.331311
0.632247 0.444747 0.341077
0.673462 0.454712 0.350843
0.714678 0.464678 0.360610
0.755894 0.474644 0.370376
0.129969 0.379969 0.246969
0.171184 0.389934 0.256736
0.212400 0.399900 0.266502
0.253616 0.409866 0.276268
0.294831 0.419831 0.286035
0.336047 0.429797 0.295801
0.377263 0.439763 0.305567
0.418478 0.449728 0.315334
0.459694 0.459694 0.325100
0.500909 0.469659 0.334866
0.542125 0.479625 0.344632
0.583341 0.489591 0.354399
0.624556 0.499556 0.364165
0.665772 0.509522 0.373931
0.706987 0.519487 0.383698
0.748203 0.529453 0.393464
0.789419 0.539419 0.403230
0.163494 0.444744 0.279824
0.204709 0.454709 0.289590
0.245925 0.464675 0.299356
0.287141 0.474641 0.309123
0.328356 0.484606 0.318889
0.369572 0.494572 0.328655
0.410788 0.504538 0.338422
0.452003 0.514503 0.348188
0.493219 0.524469 0.357954
0.534434 0.534434 0.367721
0.575650 0.544400 0.377487
0.616866 0.554366 0.387253
0.658081 0.564331 0.397020
0.699297 0.574297 0.406786
0.740512 0.584262 0.416552
0.781728 0.594228 0.426319
0.822944 0.604194 0.436085
0.197019 0.509519 0.312678
0.238234 0.519484 0.322445
0.279450 0.529450 0.332211
0.320666 0.539416 0.341977
0.361881 0.549381 0.351744
0.403097 0.559347 0.361510
0.444312 0.569312 0.371276
0.485528 0.579278 0.381043
0.526744 0.589244 0.390809
0.567959 0.599209 0.400575
0.609175 0.609175 0.410341
0.650391 0.619141 0.420108
0.691606 0.629106 0.429874
0.732822 0.639072 0.439640
0.774037 0.649037 0.449407
0.815253 0.659003 0.459173
0.856469 0.668969 0.468939
0.230544 0.574294 0.345533
0.271759 0.584259 0.355299
0.312975 0.594225 0.365065
0.354191 0.604191 0.374832
0.395406 0.614156 0.384598
0.436622 0.624122 0.394364
0.477837 0.634087 0.404131
0.519053 0.644053 0.413897
0.560269 0.654019 0.423663
0.601484 0.663984 0.433430
0.642700 0.673950 0.443196
0.683916 0.683916 0.452962
0.725131 0.693881 0.462729
0.766347 0.703847 0.472495
0.807562 0.713812 0.482261
0.848778 0.723778 0.492028
0.889994 0.733744 0.501794
0.264069 0.639069 0.378387
0.305284 0.649034 0.388154
0.346500 0.659000 0.397920
0.387716 0.668966 0.407686
0.428931 0.678931 0.417453
0.470147 0.688897 0.427219
0.511363 0.698862 0.436985
0.552578 0.708828 0.446752
0.593794 0.718794 0.456518
0.635009 0.728759 0.466284
0.676225 0.738725 0.476050
0.717441 0.748691 0.485817
0.758656 0.758656 0.495583
0.799872 0.768622 0.505349
0.841087 0.778587 0.515116
0.882303 0.788553 0.524882
0.923519 0.798519 0.534648
0.297594 0.703844 0.411242
0.338809 0.713809 0.421008
0.380025 0.723775 0.430774
0.421241 0.733741 0.440541
0.462456 0.743706 0.450307
0.503672 0.753672 0.460073
0.544887 0.763637 0.469840
0.586103 0.773603 0.479606
0.627319 0.783569 0.489372
0.668534 0.793534 0.499139
0.709750 0.803500 0.508905
0.750966 0.813466 0.518671
0.792181 0.823431 0.528438
0.833397 0.833397 0.538204
0.874613 0.843362 0.547970
0.915828 0.853328 0.557737
0.957044 0.863294 0.567503
0.331119 0.768619 0.444096
0.372334 0.778584 0.453863
0.413550 0.788550 0.463629
0.454766 0.798516 0.473395
0.495981 0.808481 0.483162
0.537197 0.818447 0.492928
0.578412 0.828412 0.502694
0.619628 0.838378 0.512461
0.660844 0.848344 0.522227
0.702059 0.858309 0.531993
0.743275 0.868275 0.541759
0.784491 0.878241 0.551526
0.825706 0.888206 0.561292
0.866922 0.898172 0.571058
0.908137 0.908137 0.580825
0.949353 0.918103 0.590591
0.990569 0.928069 0.600357
0.364644 0.833394 0.476951
0.405859 0.843359 0.486717
0.447075 0.853325 0.496484
0.488291 0.863291 0.506250
0.529506 0.873256 0.516016
0.570722 0.883222 0.525782
0.611938 0.893187 0.535549
0.653153 0.903153 0.545315
0.694369 0.913119 0.555081
0.735584 0.923084 0.564848
0.776800 0.933050 0.574614
0.818016 0.943016 0.584380
0.859231 0.952981 0.594147
0.900447 0.962947 0.603913
0.941662 0.972912 0.613679
0.982878 0.982878 0.623446
1.000000 0.992844 0.633212
0.398169 0.898169 0.509805
0.439384 0.908134 0.519572
0.480600 0.918100 0.529338
0.521816 0.928066 0.539104
0.563031 0.938031 0.548871
0.604247 0.947997 0.558637
0.645462 0.957962 0.568403
0.686678 0.967928 0.578170
0.727894 0.977894 0.587936
0.769109 0.987859 0.597702
0.810325 0.997825 0.607468
0.851541 1.000000 0.617235
0.892756 1.000000 0.627001
0.933972 1.000000 0.636767
0.975187 1.000000 0.646534
1.000000 1.000000 0.656300
1.000000 1.000000 0.666066
0.000000 0.000000 0.018075
0.000000 0.000000 0.027841
0.000000 0.000000 0.037608
0.000000 0.000000 0.047374
0.030016 0.000000 0.057140
0.071231 0.000000 0.066907
0.112447 0.000000 0.076673
0.153663 0.000000 0.086439
0.194878 0.000000 0.096206
0.236094 0.000000 0.105972
0.277309 0.000000 0.115738
0.318525 0.000000 0.125505
0.359741 0.000000 0.135271
0.400956 0.000000 0.145037
0.442172 0.004672 0.154803
0.483387 0.014637 0.164570
0.524603 0.024603 0.174336
0.000000 0.000000 0.050930
0.000000 0.000000 0.060696
