web/src-tauri/luts/cool_noir.cube
TITLE "Cool Noir (desaturated, cold contrast)"
LUT_3D_SIZE 9
0.000000 0.000000 0.000000
0.000000 0.000000 0.000000
0.019863 0.000000 0.000000
0.102294 0.000000 0.000000
0.184725 0.000000 0.000000
0.267156 0.000000 0.013913
0.349588 0.000000 0.033446
0.432019 0.000000 0.052978
0.514450 0.014450 0.072511
0.000000 0.000000 0.000000
0.004481 0.004481 0.001492
0.086913 0.024413 0.021024
0.169344 0.044344 0.040557
0.251775 0.064275 0.060089
0.334206 0.084206 0.079622
0.416638 0.104137 0.099155
0.499069 0.124069 0.118687
0.581500 0.144000 0.138220
0.000000 0.114100 0.047668
0.071531 0.134031 0.067201
0.153963 0.153963 0.086733
0.236394 0.173894 0.106266
0.318825 0.193825 0.125799
0.401256 0.213756 0.145331
0.483687 0.233687 0.164864
0.566119 0.253619 0.184396
0.648550 0.273550 0.203929
0.056150 0.243650 0.113377
0.138581 0.263581 0.132910
0.221013 0.283513 0.152442
0.303444 0.303444 0.171975
0.385875 0.323375 0.191507
0.468306 0.343306 0.211040
0.550737 0.363237 0.230573
0.633169 0.383169 0.250105
0.715600 0.403100 0.269638
0.123200 0.373200 0.179086
0.205631 0.393131 0.198619
0.288062 0.413062 0.218151
0.370494 0.432994 0.237684
0.452925 0.452925 0.257216
0.535356 0.472856 0.276749
0.617788 0.492787 0.296282
0.700219 0.512719 0.315814
0.782650 0.532650 0.335347
0.190250 0.502750 0.244795
0.272681 0.522681 0.264328
0.355112 0.542612 0.283860
0.437544 0.562544 0.303393
0.519975 0.582475 0.322925
0.602406 0.602406 0.342458
0.684837 0.622337 0.361991
0.767269 0.642269 0.381523
0.849700 0.662200 0.401056
0.257300 0.632300 0.310504
0.339731 0.652231 0.330037
0.422162 0.672162 0.349569
0.504594 0.692094 0.369102
0.587025 0.712025 0.388634
0.669456 0.731956 0.408167
0.751888 0.751888 0.427700
0.834319 0.771819 0.447232
0.916750 0.791750 0.466765
0.324350 0.761850 0.376213
0.406781 0.781781 0.395746
0.489212 0.801712 0.415278
0.571644 0.821644 0.434811
0.654075 0.841575 0.454343
0.736506 0.861506 0.473876
0.818937 0.881437 0.493409
0.901369 0.901369 0.512941
0.983800 0.921300 0.532474
0.391400 0.891400 0.441922
0.473831 0.911331 0.461455
0.556262 0.931263 0.480987
0.638694 0.951194 0.500520
0.721125 0.971125 0.520052
0.803556 0.991056 0.539585
0.885988 1.000000 0.559118
0.968419 1.000000 0.578650
1.000000 1.000000 0.598183
0.000000 0.000000 0.000000
0.000000 0.000000 0.003666
0.026631 0.000000 0.023199
0.109063 0.000000 0.042731
0.191494 0.000000 0.062264
0.273925 0.000000 0.081796
0.356356 0.000000 0.101329
0.438788 0.001287 0.120862
0.521219 0.021219 0.140394
0.000000 0.000000 0.049842
0.011250 0.011250 0.069375
0.093681 0.031181 0.088908
0.176113 0.051112 0.108440
0.258544 0.071044 0.127973
0.340975 0.090975 0.147505
0.423406 0.110906 0.167038
0.505837 0.130837 0.186571
0.588269 0.150769 0.206103
0.000000 0.120869 0.115551
0.078300 0.140800 0.135084
0.160731 0.160731 0.154617
0.243163 0.180663 0.174149
0.325594 0.200594 0.193682
0.408025 0.220525 0.213214
0.490456 0.240456 0.232747
0.572887 0.260387 0.252280
0.655319 0.280319 0.271812
0.062919 0.250419 0.181260
0.145350 0.270350 0.200793
0.227781 0.290281 0.220326
0.310213 0.310213 0.239858
0.392644 0.330144 0.259391
0.475075 0.350075 0.278923
0.557506 0.370006 0.298456
0.639938 0.389937 0.317989
0.722369 0.409869 0.337521
0.129969 0.379969 0.246969
0.212400 0.399900 0.266502
0.294831 0.419831 0.286035
0.377263 0.439763 0.305567
0.459694 0.459694 0.325100
0.542125 0.479625 0.344632
0.624556 0.499556 0.364165
0.706987 0.519487 0.383698
0.789419 0.539419 0.403230
0.197019 0.509519 0.312678
0.279450 0.529450 0.332211
0.361881 0.549381 0.351744
0.444312 0.569312 0.371276
0.526744 0.589244 0.390809
0.609175 0.609175 0.410341
0.691606 0.629106 0.429874
0.774037 0.649037 0.449407
0.856469 0.668969 0.468939
0.264069 0.639069 0.378387
0.346500 0.659000 0.397920
0.428931 0.678931 0.417453
0.511363 0.698862 0.436985
0.593794 0.718794 0.456518
0.676225 0.738725 0.476050
0.758656 0.758656 0.495583
0.841087 0.778587 0.515116
0.923519 0.798519 0.534648
0.331119 0.768619 0.444096
0.413550 0.788550 0.463629
0.495981 0.808481 0.483162
0.578412 0.828412 0.502694
0.660844 0.848344 0.522227
0.743275 0.868275 0.541759
0.825706 0.888206 0.561292
0.908137 0.908137 0.580825
0.990569 0.928069 0.600357
0.398169 0.898169 0.509805
0.480600 0.918100 0.529338
0.563031 0.938031 0.548871
0.645462 0.957962 0.568403
0.727894 0.977894 0.587936
0.810325 0.997825 0.607468
0.892756 1.000000 0.627001
0.975187 1.000000 0.646534
1.000000 1.000000 0.666066
0.000000 0.000000 0.052017
0.000000 0.000000 0.071549
0.033400 0.000000 0.091082
0.115831 0.000000 0.110615
0.198263 0.000000 0.130147
0.280694 0.000000 0.149680
0.363125 0.000000 0.169212
0.445556 0.008056 0.188745
0.527988 0.027987 0.208278
0.000000 0.000000 0.117726
0.018019 0.018019 0.137258
0.100450 0.037950 0.156791
0.182881 0.057881 0.176324
0.265313 0.077813 0.195856
0.347744 0.097744 0.215389
0.430175 0.117675 0.234922
0.512606 0.137606 0.254454
0.595038 0.157537 0.273987
0.002637 0.127638 0.183435
0.085069 0.147569 0.202967
0.167500 0.167500 0.222500
0.249931 0.187431 0.242033
0.332363 0.207363 0.261565
0.414794 0.227294 0.281098
0.497225 0.247225 0.300630
0.579656 0.267156 0.320163
0.662087 0.287087 0.339696
0.069687 0.257187 0.249144
0.152119 0.277119 0.268676
0.234550 0.297050 0.288209
0.316981 0.316981 0.307742
0.399412 0.336913 0.327274
0.481844 0.356844 0.346807
0.564275 0.376775 0.366339
0.646706 0.396706 0.385872
0.729138 0.416638 0.405405
0.136737 0.386737 0.314853
0.219169 0.406669 0.334385
0.301600 0.426600 0.353918
0.384031 0.446531 0.373451
0.466463 0.466463 0.392983
0.548894 0.486394 0.412516
0.631325 0.506325 0.432048
0.713756 0.526256 0.451581
0.796188 0.546188 0.471114
0.203787 0.516287 0.380562
0.286219 0.536219 0.400094
0.368650 0.556150 0.419627
0.451081 0.576081 0.439160
0.533513 0.596012 0.458692
0.615944 0.615944 0.478225
0.698375 0.635875 0.497758
0.780806 0.655806 0.517290
0.863237 0.675737 0.536823
0.270837 0.645838 0.446271
0.353269 0.665769 0.465803
0.435700 0.685700 0.485336
0.518131 0.705631 0.504869
0.600562 0.725562 0.524401
0.682994 0.745494 0.543934
0.765425 0.765425 0.563467
0.847856 0.785356 0.582999
0.930288 0.805287 0.602532
0.337887 0.775388 0.511980
0.420319 0.795319 0.531512
0.502750 0.815250 0.551045
0.585181 0.835181 0.570578
0.667613 0.855112 0.590110
0.750044 0.875044 0.609643
0.832475 0.894975 0.629175
0.914906 0.914906 0.648708
0.997337 0.934837 0.668241
0.404937 0.904937 0.577689
0.487369 0.924869 0.597221
0.569800 0.944800 0.616754
0.652231 0.964731 0.636287
0.734662 0.984662 0.655819
0.817094 1.000000 0.675352
0.899525 1.000000 0.694885
0.981956 1.000000 0.714417
1.000000 1.000000 0.733950
0.000000 0.000000 0.119900
0.000000 0.000000 0.139433
0.040169 0.000000 0.158965
0.122600 0.000000 0.178498
0.205031 0.000000 0.198031
0.287462 0.000000 0.217563
0.369894 0.000000 0.237096
0.452325 0.014825 0.256628
0.534756 0.034756 0.276161
0.000000 0.004856 0.185609
0.024787 0.024787 0.205142
0.107219 0.044719 0.224674
0.189650 0.064650 0.244207
0.272081 0.084581 0.263740
0.354513 0.104513 0.283272
0.436944 0.124444 0.302805
0.519375 0.144375 0.322337
0.601806 0.164306 0.341870
0.009406 0.134406 0.251318
0.091837 0.154337 0.270851
0.174269 0.174269 0.290383
0.256700 0.194200 0.309916
0.339131 0.214131 0.329449
0.421563 0.234063 0.348981
0.503994 0.253994 0.368514
0.586425 0.273925 0.388046
0.668856 0.293856 0.407579
0.076456 0.263956 0.317027
0.158887 0.283888 0.336560
0.241319 0.303819 0.356092
0.323750 0.323750 0.375625
0.406181 0.343681 0.395158
0.488613 0.363613 0.414690
0.571044 0.383544 0.434223
0.653475 0.403475 0.453755
0.735906 0.423406 0.473288
0.143506 0.393506 0.382736
0.225938 0.413437 0.402269
0.308369 0.433369 0.421801
0.390800 0.453300 0.441334
0.473231 0.473231 0.460867
0.555662 0.493162 0.480399
0.638094 0.513094 0.499932
0.720525 0.533025 0.519464
0.802956 0.552956 0.538997
0.210556 0.523056 0.448445
0.292987 0.542987 0.467978
0.375419 0.562919 0.487510
0.457850 0.582850 0.507043
0.540281 0.602781 0.526576
0.622712 0.622712 0.546108
0.705144 0.642644 0.565641
0.787575 0.662575 0.585174
0.870006 0.682506 0.604706
0.277606 0.652606 0.514154
0.360037 0.672538 0.533687
0.442469 0.692469 0.553219
0.524900 0.712400 0.572752
0.607331 0.732331 0.592285
0.689763 0.752263 0.611817
0.772194 0.772194 0.631350
0.854625 0.792125 0.650882
0.937056 0.812056 0.670415
0.344656 0.782156 0.579863
0.427087 0.802087 0.599396
0.509519 0.822019 0.618928
0.591950 0.841950 0.638461
0.674381 0.861881 0.657994
0.756812 0.881812 0.677526
0.839244 0.901744 0.697059
0.921675 0.921675 0.716591
1.000000 0.941606 0.736124
0.411706 0.911706 0.645572
0.494137 0.931638 0.665105
0.576569 0.951569 0.684637
0.659000 0.971500 0.704170
0.741431 0.991431 0.723703
0.823862 1.000000 0.743235
0.906294 1.000000 0.762768
0.988725 1.000000 0.782300
1.000000 1.000000 0.801833
0.000000 0.000000 0.187783
0.000000 0.000000 0.207316
0.046937 0.000000 0.226849
0.129369 0.000000 0.246381
0.211800 0.000000 0.265914
0.294231 0.000000 0.285447
0.376663 0.001662 0.304979
0.459094 0.021594 0.324512
0.541525 0.041525 0.344044
0.000000 0.011625 0.253492
0.031556 0.031556 0.273025
0.113987 0.051487 0.292558
0.196419 0.071419 0.312090
0.278850 0.091350 0.331623
0.361281 0.111281 0.351156
0.443713 0.131212 0.370688
0.526144 0.151144 0.390221
0.608575 0.171075 0.409753
0.016175 0.141175 0.319201
0.098606 0.161106 0.338734
0.181037 0.181037 0.358267
0.263469 0.200969 0.377799
0.345900 0.220900 0.397332
0.428331 0.240831 0.416865
0.510763 0.260763 0.436397
0.593194 0.280694 0.455930
0.675625 0.300625 0.475463
0.083225 0.270725 0.384911
0.165656 0.290656 0.404443
0.248088 0.310588 0.423976
0.330519 0.330519 0.443508
0.412950 0.350450 0.463041
0.495381 0.370381 0.482574
0.577813 0.390313 0.502106
0.660244 0.410244 0.521639
0.742675 0.430175 0.541172
0.150275 0.400275 0.450619
0.232706 0.420206 0.470152
0.315137 0.440137 0.489685
0.397569 0.460069 0.509217
0.480000 0.480000 0.528750
0.562431 0.499931 0.548283
0.644863 0.519862 0.567815
0.727294 0.539794 0.587348
0.809725 0.559725 0.606881
0.217325 0.529825 0.516328
0.299756 0.549756 0.535861
0.382187 0.569687 0.555394
0.464619 0.589619 0.574926
0.547050 0.609550 0.594459
0.629481 0.629481 0.613992
0.711912 0.649412 0.633524
0.794344 0.669344 0.653057
0.876775 0.689275 0.672589
0.284375 0.659375 0.582037
0.366806 0.679306 0.601570
0.449237 0.699238 0.621103
0.531669 0.719169 0.640635
0.614100 0.739100 0.660168
0.696531 0.759031 0.679701
0.778963 0.778963 0.699233
0.861394 0.798894 0.718766
0.943825 0.818825 0.738298
0.351425 0.788925 0.647747
0.433856 0.808856 0.667279
0.516288 0.828788 0.686812
0.598719 0.848719 0.706344
0.681150 0.868650 0.725877
0.763581 0.888581 0.745410
0.846013 0.908512 0.764942
0.928444 0.928444 0.784475
1.000000 0.948375 0.804007
0.418475 0.918475 0.713455
0.500906 0.938406 0.732988
0.583338 0.958338 0.752521
0.665769 0.978269 0.772053
0.748200 0.998200 0.791586
0.830631 1.000000 0.811119
0.913062 1.000000 0.830651
0.995494 1.000000 0.850184
1.000000 1.000000 0.869717
0.000000 0.000000 0.255667
0.000000 0.000000 0.275199
0.053706 0.000000 0.294732
0.136138 0.000000 0.314265
0.218569 0.000000 0.333797
0.301000 0.000000 0.353330
0.383431 0.008431 0.372863
0.465863 0.028362 0.392395
0.548294 0.048294 0.411928
0.000000 0.018394 0.321376
0.038325 0.038325 0.340908
0.120756 0.058256 0.360441
0.203188 0.078187 0.379974
0.285619 0.098119 0.399506
0.368050 0.118050 0.419039
0.450481 0.137981 0.438572
0.532912 0.157912 0.458104
0.615344 0.177844 0.477637
0.022944 0.147944 0.387085
0.105375 0.167875 0.406617
0.187806 0.187806 0.426150
0.270237 0.207737 0.445683
0.352669 0.227669 0.465215
0.435100 0.247600 0.484748
0.517531 0.267531 0.504281
0.599962 0.287462 0.523813
0.682394 0.307394 0.543346
0.089994 0.277494 0.452794
0.172425 0.297425 0.472327
0.254856 0.317356 0.491859
0.337287 0.337287 0.511392
0.419719 0.357219 0.530924
0.502150 0.377150 0.550457
0.584581 0.397081 0.569990
0.667013 0.417013 0.589522
0.749444 0.436944 0.609055
0.157044 0.407044 0.518503
0.239475 0.426975 0.538035
0.321906 0.446906 0.557568
0.404337 0.466837 0.577101
0.486769 0.486769 0.596633
0.569200 0.506700 0.616166
0.651631 0.526631 0.635699
0.734063 0.546563 0.655231
0.816494 0.566494 0.674764
0.224094 0.536594 0.584212
0.306525 0.556525 0.603744
0.388956 0.576456 0.623277
0.471387 0.596388 0.642810
0.553819 0.616319 0.662342
0.636250 0.636250 0.681875
0.718681 0.656181 0.701408
0.801112 0.676112 0.720940
0.883544 0.696044 0.740473
0.291144 0.666144 0.649921
0.373575 0.686075 0.669453
0.456006 0.706006 0.688986
0.538438 0.725937 0.708519
0.620869 0.745869 0.728051
0.703300 0.765800 0.747584
0.785731 0.785731 0.767117
0.868162 0.805662 0.786649
0.950594 0.825594 0.806182
0.358194 0.795694 0.715630
0.440625 0.815625 0.735162
0.523056 0.835556 0.754695
0.605487 0.855487 0.774228
0.687919 0.875419 0.793760
0.770350 0.895350 0.813293
0.852781 0.915281 0.832826
0.935212 0.935212 0.852358
1.000000 0.955144 0.871891
0.425244 0.925244 0.781339
0.507675 0.945175 0.800872
0.590106 0.965106 0.820404
0.672538 0.985038 0.839937
0.754969 1.000000 0.859469
0.837400 1.000000 0.879002
0.919831 1.000000 0.898535
1.000000 1.000000 0.918067
1.000000 1.000000 0.937600
0.000000 0.000000 0.323550
0.000000 0.000000 0.343083
0.060475 0.000000 0.362615
0.142906 0.000000 0.382148
0.225338 0.000000 0.401681
0.307769 0.000000 0.421213
0.390200 0.015200 0.440746
0.472631 0.035131 0.460279
0.555063 0.055063 0.479811
0.000000 0.025162 0.389259
0.045094 0.045094 0.408792
0.127525 0.065025 0.428325
0.209956 0.084956 0.447857
0.292387 0.104887 0.467390
0.374819 0.124819 0.486922
0.457250 0.144750 0.506455
0.539681 0.164681 0.525988
0.622112 0.184612 0.545520
0.029712 0.154712 0.454968
0.112144 0.174644 0.474501
0.194575 0.194575 0.494034
0.277006 0.214506 0.513566
0.359438 0.234438 0.533099
0.441869 0.254369 0.552631
0.524300 0.274300 0.572164
0.606731 0.294231 0.591697
0.689162 0.314163 0.611229
0.096762 0.284262 0.520677
0.179194 0.304194 0.540210
0.261625 0.324125 0.559743
0.344056 0.344056 0.579275
0.426487 0.363987 0.598808
0.508919 0.383919 0.618340
0.591350 0.403850 0.637873
0.673781 0.423781 0.657406
0.756213 0.443713 0.676938
0.163812 0.413812 0.586386
0.246244 0.433744 0.605919
0.328675 0.453675 0.625452
0.411106 0.473606 0.644984
0.493537 0.493537 0.664517
0.575969 0.513469 0.684049
0.658400 0.533400 0.703582
0.740831 0.553331 0.723115
0.823263 0.573263 0.742647
0.230862 0.543362 0.652095
0.313294 0.563294 0.671628
0.395725 0.583225 0.691161
0.478156 0.603156 0.710693
0.560588 0.623087 0.730226
0.643019 0.643019 0.749758
0.725450 0.662950 0.769291
0.807881 0.682881 0.788824
0.890312 0.702813 0.808356
0.297912 0.672913 0.717804
0.380344 0.692844 0.737337
0.462775 0.712775 0.756870
0.545206 0.732706 0.776402
0.627638 0.752638 0.795935
0.710069 0.772569 0.815467
0.792500 0.792500 0.835000
0.874931 0.812431 0.854533
0.957363 0.832362 0.874065
0.364962 0.802463 0.783513
0.447394 0.822394 0.803046
0.529825 0.842325 0.822578
0.612256 0.862256 0.842111
0.694688 0.882187 0.861644
0.777119 0.902119 0.881176
0.859550 0.922050 0.900709
0.941981 0.941981 0.920242
1.000000 0.961912 0.939774
0.432012 0.932012 0.849222
0.514444 0.951944 0.868755
0.596875 0.971875 0.888288
0.679306 0.991806 0.907820
0.761737 1.000000 0.927353
0.844169 1.000000 0.946885
0.926600 1.000000 0.966418
1.000000 1.000000 0.985951
1.000000 1.000000 1.000000
0.000000 0.000000 0.391434
0.000000 0.000000 0.410966
0.067244 0.000000 0.430499
0.149675 0.000000 0.450031
0.232106 0.000000 0.469564
0.314538 0.002038 0.489097
0.396969 0.021969 0.508629
0.479400 0.041900 0.528162
0.561831 0.061831 0.547695
0.000000 0.031931 0.457143
0.051863 0.051863 0.476675
0.134294 0.071794 0.496208
0.216725 0.091725 0.515741
0.299156 0.111656 0.535273
0.381587 0.131587 0.554806
0.464019 0.151519 0.574338
0.546450 0.171450 0.593871
0.628881 0.191381 0.613404
0.036481 0.161481 0.522852
0.118912 0.181412 0.542384
0.201344 0.201344 0.561917
0.283775 0.221275 0.581450
0.366206 0.241206 0.600982
0.448637 0.261138 0.620515
0.531069 0.281069 0.640047
0.613500 0.301000 0.659580
0.695931 0.320931 0.679113
0.103531 0.291031 0.588561
0.185962 0.310963 0.608093
0.268394 0.330894 0.627626
0.350825 0.350825 0.647158
0.433256 0.370756 0.666691
0.515687 0.390687 0.686224
0.598119 0.410619 0.705756
0.680550 0.430550 0.725289
0.762981 0.450481 0.744822
0.170581 0.420581 0.654270
0.253012 0.440512 0.673802
0.335444 0.460444 0.693335
0.417875 0.480375 0.712868
0.500306 0.500306 0.732400
0.582737 0.520237 0.751933
0.665169 0.540169 0.771465
0.747600 0.560100 0.790998
0.830031 0.580031 0.810531
0.237631 0.550131 0.719979
0.320062 0.570062 0.739511
0.402494 0.589994 0.759044
0.484925 0.609925 0.778577
0.567356 0.629856 0.798109
0.649787 0.649787 0.817642
0.732219 0.669719 0.837174
0.814650 0.689650 0.856707
0.897081 0.709581 0.876240
0.304681 0.679681 0.785688
0.387112 0.699612 0.805220
0.469544 0.719544 0.824753
0.551975 0.739475 0.844286
0.634406 0.759406 0.863818
0.716838 0.779338 0.883351
0.799269 0.799269 0.902883
0.881700 0.819200 0.922416
0.964131 0.839131 0.941949
0.371731 0.809231 0.851397
0.454162 0.829162 0.870929
0.536594 0.849094 0.890462
0.619025 0.869025 0.909995
0.701456 0.888956 0.929527
0.783887 0.908888 0.949060
0.866319 0.928819 0.968592
0.948750 0.948750 0.988125
1.000000 0.968681 1.000000
0.438781 0.938781 0.917106
0.521212 0.958713 0.936638
0.603644 0.978644 0.956171
0.686075 0.998575 0.975703
0.768506 1.000000 0.995236
0.850937 1.000000 1.000000
0.933369 1.000000 1.000000
1.000000 1.000000 1.000000
1.000000 1.000000 1.000000
0.000000 0.000000 0.459317
0.000000 0.000000 0.478850
0.074013 0.000000 0.498382
0.156444 0.000000 0.517915
0.238875 0.000000 0.537448
0.321306 0.008806 0.556980
0.403738 0.028737 0.576513
0.486169 0.048669 0.596045
0.568600 0.068600 0.615578
0.000000 0.038700 0.525026
0.058631 0.058631 0.544559
0.141062 0.078562 0.564091
0.223494 0.098494 0.583624
0.305925 0.118425 0.603157
0.388356 0.138356 0.622689
0.470788 0.158288 0.642222
0.553219 0.178219 0.661754
0.635650 0.198150 0.681287
0.043250 0.168250 0.590735
0.125681 0.188181 0.610268
0.208113 0.208113 0.629800
0.290544 0.228044 0.649333
0.372975 0.247975 0.668866
0.455406 0.267906 0.688398
0.537837 0.287837 0.707931
0.620269 0.307769 0.727463
0.702700 0.327700 0.746996
0.110300 0.297800 0.656444
0.192731 0.317731 0.675977
0.275163 0.337663 0.695509
0.357594 0.357594 0.715042
0.440025 0.377525 0.734575
0.522456 0.397456 0.754107
0.604887 0.417387 0.773640
0.687319 0.437319 0.793172
0.769750 0.457250 0.812705
0.177350 0.427350 0.722153
0.259781 0.447281 0.741686
0.342212 0.467212 0.761218
0.424644 0.487144 0.780751
0.507075 0.507075 0.800283
0.589506 0.527006 0.819816
0.671938 0.546937 0.839349
0.754369 0.566869 0.858881
0.836800 0.586800 0.878414
0.244400 0.556900 0.787862
0.326831 0.576831 0.807395
0.409262 0.596762 0.826927
0.491694 0.616694 0.846460
0.574125 0.636625 0.865992
0.656556 0.656556 0.885525
0.738987 0.676487 0.905058
0.821419 0.696419 0.924590
0.903850 0.716350 0.944123
0.311450 0.686450 0.853571
0.393881 0.706381 0.873104
0.476312 0.726313 0.892636
0.558744 0.746244 0.912169
0.641175 0.766175 0.931702
0.723606 0.786106 0.951234
0.806037 0.806037 0.970767
0.888469 0.825969 0.990299
0.970900 0.845900 1.000000
0.378500 0.816000 0.919280
0.460931 0.835931 0.938813
0.543362 0.855862 0.958345
0.625794 0.875794 0.977878
0.708225 0.895725 0.997411
0.790656 0.915656 1.000000
0.873088 0.935588 1.000000
0.955519 0.955519 1.000000
1.000000 0.975450 1.000000
0.445550 0.945550 0.984989
0.527981 0.965481 1.000000
0.610412 0.985412 1.000000
0.692844 1.000000 1.000000
0.775275 1.000000 1.000000
0.857706 1.000000 1.000000
0.940138 1.000000 1.000000
1.000000 1.000000 1.000000
1.000000 1.000000 1.000000
