web/src-tauri/luts/teal_orange.cube
TITLE "Teal & Orange (blockbuster grade)"
LUT_3D_SIZE 17
0.000000 0.000000 0.045618
0.000000 0.000000 0.045443
0.000000 0.000000 0.044927
0.054602 0.000000 0.044087
0.125235 0.000000 0.042937
0.198607 0.000000 0.041494
0.274322 0.000000 0.039773
0.351896 0.000000 0.037790
0.430767 0.000000 0.035562
0.510322 0.000000 0.033104
0.589920 0.000000 0.030432
0.668916 0.000000 0.027563
0.746689 0.000000 0.024513
0.822669 0.000000 0.021297
0.896356 0.000000 0.017931
0.967346 0.000000 0.014432
1.000000 0.000000 0.010815
0.000000 0.004861 0.043703
0.000000 0.004656 0.042445
0.000000 0.004405 0.040899
0.057127 0.004109 0.039081
0.128348 0.003771 0.037007
0.202300 0.003393 0.034693
0.278573 0.002978 0.032155
0.356667 0.002529 0.029410
0.436005 0.002048 0.026473
0.515963 0.001537 0.023360
0.595888 0.000999 0.020088
0.675129 0.000436 0.016672
0.753061 0.000000 0.013128
0.829115 0.000000 0.009472
0.902795 0.000000 0.005719
0.973707 0.000000 0.001885
1.000000 0.000000 0.000000
0.000000 0.071925 0.038354
0.000000 0.071557 0.036191
0.000000 0.071148 0.033794
0.061137 0.070702 0.031179
0.132916 0.070221 0.028362
0.207403 0.069707 0.025359
0.284175 0.069163 0.022186
0.362715 0.068592 0.018860
0.442434 0.067996 0.015395
0.522696 0.067378 0.011809
0.602840 0.066740 0.008116
0.682211 0.066085 0.004332
0.760184 0.065416 0.000472
0.836194 0.064734 0.000000
0.909753 0.064043 0.000000
0.980476 0.063346 0.000000
1.000000 0.062644 0.000000
0.000000 0.141178 0.030176
0.000000 0.140666 0.027289
0.000000 0.140121 0.024223
0.066350 0.139546 0.020992
0.138644 0.138943 0.017614
0.213612 0.138316 0.014103
0.290813 0.137666 0.010476
0.369718 0.136997 0.006748
0.449726 0.136311 0.002935
0.530190 0.135611 0.000000
0.610446 0.134900 0.000000
0.689836 0.134179 0.000000
0.767739 0.133453 0.000000
0.843595 0.132723 0.000000
0.916928 0.131992 0.000000
0.987366 0.131263 0.000000
1.000000 0.130538 0.000000
0.000000 0.212376 0.019779
0.000000 0.211745 0.016350
0.002703 0.211089 0.012795
0.072484 0.210411 0.009129
0.145239 0.209714 0.005369
0.220620 0.209000 0.001528
0.298172 0.208273 0.000000
0.377353 0.207535 0.000000
0.457552 0.206789 0.000000
0.538115 0.206037 0.000000
0.618376 0.205283 0.000000
0.697678 0.204529 0.000000
0.775406 0.203778 0.000000
0.851012 0.203032 0.000000
0.924257 0.202344 0.000000
0.994883 0.201743 0.000000
1.000000 0.201228 0.000000
0.000000 0.285212 0.007770
0.000000 0.284491 0.003979
0.009041 0.283755 0.000113
0.079257 0.283005 0.000000
0.152404 0.282245 0.000000
0.228119 0.281478 0.000000
0.305934 0.280706 0.000000
0.385295 0.279932 0.000000
0.465583 0.279159 0.000000
0.546141 0.278391 0.000000
0.626351 0.277638 0.000000
0.705863 0.276964 0.000000
0.784077 0.276380 0.000000
0.860393 0.275885 0.000000
0.934290 0.275476 0.000000
1.000000 0.275153 0.000000
1.000000 0.274915 0.000000
0.000000 0.359331 0.000000
0.000000 0.358555 0.000000
0.015801 0.357772 0.000000
0.086380 0.356985 0.000000
0.159838 0.356198 0.000000
0.235797 0.355412 0.000000
0.313778 0.354631 0.000000
0.393366 0.353888 0.000000
0.474198 0.353236 0.000000
0.555594 0.352674 0.000000
0.636844 0.352201 0.000000
0.717242 0.351817 0.000000
0.796119 0.351520 0.000000
0.872871 0.351308 0.000000
0.946988 0.351181 0.000000
1.000000 0.351137 0.000000
1.000000 0.351175 0.000000
0.000000 0.434341 0.000000
0.000000 0.433546 0.000000
0.022703 0.432753 0.000000
0.093569 0.431969 0.000000
0.167522 0.431251 0.000000
0.244307 0.430625 0.000000
0.323435 0.430090 0.000000
0.404316 0.429645 0.000000
0.486281 0.429288 0.000000
0.568615 0.429019 0.000000
0.650584 0.428837 0.000000
0.731469 0.428739 0.000000
0.810599 0.428725 0.000000
0.887379 0.428793 0.000000
0.961322 0.428943 0.000000
1.000000 0.429173 0.000000
1.000000 0.429482 0.000000
0.000000 0.509837 0.000000
0.000000 0.509150 0.000000
0.030643 0.508556 0.000000
0.102831 0.508053 0.000000
0.178178 0.507639 0.000000
0.256269 0.507313 0.000000
0.336572 0.507075 0.000000
0.418459 0.506923 0.000000
0.501229 0.506856 0.000000
0.584143 0.506872 0.000000
0.666452 0.506970 0.000000
0.747436 0.507150 0.000000
0.826432 0.507409 0.000000
0.902868 0.507747 0.000000
0.976286 0.508163 0.000000
1.000000 0.508655 0.000000
1.000000 0.509222 0.000000
0.000000 0.585965 0.000000
0.000000 0.585586 0.000000
0.041753 0.585293 0.000000
0.115228 0.585088 0.000000
0.191771 0.584967 0.000000
0.270927 0.584930 0.000000
0.352124 0.584976 0.000000
0.434699 0.585104 0.000000
0.517928 0.585312 0.000000
0.601057 0.585599 0.000000
0.683334 0.585964 0.000000
0.764048 0.586405 0.000000
0.842556 0.586922 0.000000
0.918317 0.587513 0.000000
0.990910 0.588177 0.000000
1.000000 0.588912 0.000000
1.000000 0.589718 0.000000
0.000000 0.662460 0.000000
0.000000 0.662371 0.000000
0.055241 0.662364 0.000000
0.129799 0.662439 0.000000
0.207295 0.662594 0.000000
0.287233 0.662828 0.000000
0.369007 0.663140 0.000000
0.451929 0.663528 0.000000
0.535260 0.663991 0.000000
0.618240 0.664528 0.000000
0.700128 0.665138 0.000000
0.780231 0.665820 0.000000
0.857936 0.666572 0.000000
0.932737 0.667393 0.000000
1.000000 0.668269 0.000000
1.000000 0.669149 0.000000
1.000000 0.670023 0.000000
0.000000 0.738686 0.000000
0.000000 0.738866 0.000000
0.070178 0.739123 0.000000
0.145563 0.739456 0.000000
0.223720 0.739864 0.000000
0.304118 0.740344 0.000000
0.386125 0.740897 0.000000
0.469036 0.741521 0.000000
0.552106 0.742214 0.000000
0.634585 0.742976 0.000000
0.715750 0.743805 0.000000
0.795026 0.744669 0.000000
0.871934 0.745529 0.000000
0.945993 0.746383 0.000000
1.000000 0.747225 0.000000
1.000000 0.748052 0.000000
1.000000 0.748861 0.000000
0.000000 0.814019 0.000000
0.012714 0.814441 0.000000
0.085601 0.814935 0.000000
0.161508 0.815498 0.000000
0.239993 0.816130 0.000000
0.320495 0.816829 0.000000
0.402368 0.817594 0.000000
0.484911 0.818421 0.000000
0.567538 0.819261 0.000000
0.649562 0.820096 0.000000
0.730278 0.820923 0.000000
0.809041 0.821737 0.000000
0.885289 0.822536 0.000000
0.958571 0.823314 0.000000
1.000000 0.824069 0.000000
1.000000 0.824796 0.000000
1.000000 0.825492 0.000000
0.000000 0.887870 0.000000
0.027271 0.888505 0.000000
0.100516 0.889204 0.000000
0.176593 0.889967 0.000000
0.255080 0.890777 0.000000
0.335554 0.891587 0.000000
0.417382 0.892392 0.000000
0.499868 0.893187 0.000000
0.582283 0.893969 0.000000
0.663905 0.894734 0.000000
0.744045 0.895478 0.000000
0.822080 0.896198 0.000000
0.897478 0.896890 0.000000
0.969821 0.897550 0.000000
1.000000 0.898175 0.000000
1.000000 0.898761 0.000000
1.000000 0.899304 0.000000
0.000000 0.959719 0.000000
0.040766 0.960500 0.000000
0.114297 0.961277 0.000000
0.190684 0.962048 0.000000
0.269457 0.962808 0.000000
0.350046 0.963553 0.000000
0.431799 0.964281 0.000000
0.514014 0.964988 0.000000
0.595968 0.965670 0.000000
0.676955 0.966324 0.000000
0.756306 0.966946 0.000000
0.833428 0.967533 0.000000
0.907819 0.968081 0.000000
0.979096 0.968587 0.000000
1.000000 0.969047 0.000000
1.000000 0.969457 0.000000
1.000000 0.969815 0.000000
0.000000 1.000000 0.000000
0.053742 1.000000 0.000000
0.127629 1.000000 0.000000
0.204220 1.000000 0.000000
0.283027 1.000000 0.000000
0.363465 1.000000 0.000000
0.444876 1.000000 0.000000
0.526564 1.000000 0.000000
0.607819 1.000000 0.000000
0.687954 1.000000 0.000000
0.766330 1.000000 0.000000
0.842382 1.000000 0.000000
0.915643 1.000000 0.000000
0.985761 1.000000 0.000000
1.000000 1.000000 0.000000
1.000000 1.000000 0.000000
1.000000 1.000000 0.000000
0.000000 1.000000 0.000000
0.065954 1.000000 0.000000
0.139934 1.000000 0.000000
0.216455 1.000000 0.000000
0.295015 1.000000 0.000000
0.375023 1.000000 0.000000
0.455825 1.000000 0.000000
0.536735 1.000000 0.000000
0.617066 1.000000 0.000000
0.696155 1.000000 0.000000
0.773392 1.000000 0.000000
0.848247 1.000000 0.000000
0.920284 1.000000 0.000000
0.989181 1.000000 0.000000
1.000000 1.000000 0.000000
1.000000 1.000000 0.000000
1.000000 1.000000 0.000000
0.000000 0.000000 0.115271
0.000000 0.000000 0.114967
0.000000 0.000000 0.114314
0.054782 0.000000 0.113329
0.125475 0.000000 0.112027
0.198907 0.000000 0.110426
0.274681 0.000000 0.108541
0.352311 0.000000 0.106389
0.431233 0.000000 0.103986
0.510833 0.000000 0.101350
0.590468 0.000000 0.098496
0.669494 0.000000 0.095442
0.747289 0.000000 0.092203
0.823282 0.000000 0.088797
0.896974 0.000000 0.085240
0.967961 0.000000 0.081548
1.000000 0.000000 0.077738
0.000000 0.004797 0.112891
0.000000 0.004576 0.111478
0.000000 0.004309 0.109772
0.057469 0.003998 0.107787
0.128748 0.003647 0.105542
0.202756 0.003256 0.103053
0.279083 0.002830 0.100335
0.357225 0.002369 0.097406
0.436606 0.001878 0.094283
0.516599 0.001357 0.090982
0.596551 0.000811 0.087519
0.675810 0.000240 0.083910
0.753751 0.000000 0.080174
0.829806 0.000000 0.076324
0.903479 0.000000 0.072379
0.974377 0.000000 0.068353
1.000000 0.000000 0.064263
0.000000 0.071805 0.106999
0.000000 0.071423 0.104663
0.000000 0.071001 0.102089
0.061613 0.070543 0.099293
0.133446 0.070050 0.096291
0.207985 0.069526 0.093101
0.284803 0.068972 0.089739
0.363384 0.068392 0.086221
0.443137 0.067789 0.082564
0.523423 0.067163 0.078784
0.603583 0.066519 0.074898
0.682961 0.065859 0.070921
0.760933 0.065185 0.066870
0.836931 0.064500 0.062761
0.910472 0.063807 0.058609
0.981171 0.063108 0.054430
1.000000 0.062405 0.050239
0.000000 0.141008 0.098223
0.000000 0.140485 0.095151
0.000000 0.139929 0.091896
0.066932 0.139344 0.088475
0.139275 0.138733 0.084905
0.214288 0.138097 0.081201
0.291529 0.137441 0.077381
0.370466 0.136766 0.073460
0.450497 0.136075 0.069454
0.530976 0.135371 0.065380
0.611237 0.134656 0.061254
0.690623 0.133933 0.057090
0.768513 0.133205 0.052905
0.844348 0.132475 0.048714
0.917653 0.131744 0.044532
0.988057 0.131016 0.040375
1.000000 0.130294 0.036257
0.000000 0.212165 0.087192
0.000000 0.211524 0.083571
0.003316 0.210861 0.079823
0.073144 0.210176 0.075964
0.145941 0.209473 0.072011
0.221360 0.208755 0.067978
0.298943 0.208023 0.063883
0.378146 0.207282 0.059741
0.458359 0.206534 0.055568
0.538926 0.205781 0.051379
0.619182 0.205027 0.047190
0.698470 0.204273 0.043015
0.776175 0.203523 0.038871
0.851788 0.202788 0.034741
0.925119 0.202130 0.030424
0.995810 0.201558 0.025908
1.000000 0.201073 0.021222
0.000000 0.284969 0.074535
0.000000 0.284243 0.070551
0.009709 0.283501 0.066494
0.079965 0.282748 0.062380
0.153147 0.281985 0.058225
0.228891 0.281216 0.054044
0.306728 0.280443 0.049853
0.386101 0.279669 0.045667
0.466392 0.278898 0.041502
0.546944 0.278131 0.037373
0.627231 0.277399 0.033195
0.706850 0.276756 0.028802
0.785151 0.276202 0.024220
0.861530 0.275736 0.019481
0.935468 0.275357 0.014614
1.000000 0.275063 0.009650
1.000000 0.274853 0.004619
0.000000 0.359069 0.060871
0.000000 0.358290 0.056705
0.016496 0.357505 0.052519
0.087107 0.356718 0.048328
0.160591 0.355930 0.044148
0.236570 0.355146 0.039994
0.314569 0.354369 0.035876
0.394295 0.353656 0.031619
0.475256 0.353035 0.027154
0.556762 0.352503 0.022511
0.638102 0.352061 0.017722
0.718568 0.351706 0.012816
0.797488 0.351438 0.007825
0.874261 0.351255 0.002776
0.948378 0.351157 0.000000
1.000000 0.351141 0.000000
1.000000 0.351206 0.000000
0.000000 0.434071 0.046804
0.000000 0.433276 0.042632
0.023397 0.432485 0.038491
0.094334 0.431714 0.034352
0.168435 0.431028 0.030016
0.245363 0.430433 0.025483
0.324621 0.429929 0.020783
0.405617 0.429514 0.015948
0.487678 0.429187 0.011007
0.570087 0.428948 0.005992
0.652108 0.428794 0.000930
0.733021 0.428725 0.000000
0.812154 0.428739 0.000000
0.888915 0.428835 0.000000
0.962820 0.429012 0.000000
1.000000 0.429269 0.000000
1.000000 0.429604 0.000000
0.000000 0.509593 0.032798
0.000000 0.508938 0.028387
0.031630 0.508375 0.023789
0.103956 0.507902 0.019037
0.179433 0.507518 0.014160
0.257644 0.507223 0.009189
0.338051 0.507014 0.004153
0.420022 0.506891 0.000000
0.502854 0.506852 0.000000
0.585806 0.506896 0.000000
0.668129 0.507022 0.000000
0.749102 0.507229 0.000000
0.828064 0.507515 0.000000
0.904446 0.507880 0.000000
0.977794 0.508322 0.000000
1.000000 0.508839 0.000000
1.000000 0.509431 0.000000
0.000000 0.585826 0.017274
0.000000 0.585477 0.012359
0.043022 0.585214 0.007361
0.116616 0.585037 0.002309
0.193268 0.584945 0.000000
0.272516 0.584937 0.000000
0.353786 0.585011 0.000000
0.436412 0.585166 0.000000
0.519668 0.585400 0.000000
0.602798 0.585714 0.000000
0.685051 0.586105 0.000000
0.765719 0.586572 0.000000
0.844160 0.587114 0.000000
0.919836 0.587730 0.000000
0.992330 0.588419 0.000000
1.000000 0.589178 0.000000
1.000000 0.590008 0.000000
0.000000 0.662420 0.000462
0.000000 0.662359 0.000000
0.056699 0.662381 0.000000
0.131353 0.662483 0.000000
0.208929 0.662665 0.000000
0.288929 0.662926 0.000000
0.370743 0.663263 0.000000
0.453680 0.663677 0.000000
0.537001 0.664165 0.000000
0.619946 0.664728 0.000000
0.701776 0.665362 0.000000
0.781799 0.666068 0.000000
0.859407 0.666843 0.000000
0.934098 0.667687 0.000000
1.000000 0.668569 0.000000
1.000000 0.669447 0.000000
1.000000 0.670318 0.000000
0.000000 0.738738 0.000000
0.000000 0.738945 0.000000
0.071729 0.739228 0.000000
0.147182 0.739586 0.000000
0.225388 0.740019 0.000000
0.305813 0.740524 0.000000
0.387823 0.741101 0.000000
0.470712 0.741749 0.000000
0.553736 0.742465 0.000000
0.636146 0.743250 0.000000
0.717229 0.744098 0.000000
0.796464 0.744961 0.000000
0.873315 0.745820 0.000000
0.947304 0.746670 0.000000
1.000000 0.747508 0.000000
1.000000 0.748329 0.000000
1.000000 0.749130 0.000000
0.000000 0.814154 0.000000
0.014208 0.814601 0.000000
0.087147 0.815118 0.000000
0.163088 0.815705 0.000000
0.241585 0.816360 0.000000
0.322077 0.817082 0.000000
0.403915 0.817869 0.000000
0.486435 0.818706 0.000000
0.569052 0.819545 0.000000
0.651046 0.820378 0.000000
0.731715 0.821201 0.000000
0.810413 0.822011 0.000000
0.886584 0.822803 0.000000
0.959778 0.823573 0.000000
1.000000 0.824319 0.000000
1.000000 0.825036 0.000000
1.000000 0.825720 0.000000
0.000000 0.888078 0.000000
0.028692 0.888735 0.000000
0.101953 0.889456 0.000000
0.178027 0.890240 0.000000
0.256546 0.891052 0.000000
0.337043 0.891861 0.000000
0.418876 0.892663 0.000000
0.501346 0.893455 0.000000
0.583726 0.894231 0.000000
0.665294 0.894989 0.000000
0.745363 0.895726 0.000000
0.823314 0.896437 0.000000
0.898617 0.897118 0.000000
0.970858 0.897767 0.000000
1.000000 0.898379 0.000000
1.000000 0.898950 0.000000
1.000000 0.899478 0.000000
0.000000 0.959985 0.000000
0.042090 0.960765 0.000000
0.115669 0.961540 0.000000
0.192087 0.962307 0.000000
0.270877 0.963063 0.000000
0.351463 0.963803 0.000000
0.433193 0.964524 0.000000
0.515366 0.965223 0.000000
0.597261 0.965896 0.000000
0.678171 0.966539 0.000000
0.757432 0.967150 0.000000
0.834452 0.967724 0.000000
0.908734 0.968258 0.000000
0.979898 0.968748 0.000000
1.000000 0.969192 0.000000
1.000000 0.969585 0.000000
1.000000 0.969924 0.000000
0.000000 1.000000 0.000000
0.055021 1.000000 0.000000
0.128930 1.000000 0.000000
0.205527 1.000000 0.000000
0.284322 1.000000 0.000000
0.364729 1.000000 0.000000
0.446091 1.000000 0.000000
0.527711 1.000000 0.000000
0.608883 1.000000 0.000000
0.688922 1.000000 0.000000
0.767189 1.000000 0.000000
0.843126 1.000000 0.000000
0.916267 1.000000 0.000000
0.986264 1.000000 0.000000
1.000000 1.000000 0.000000
1.000000 1.000000 0.000000
1.000000 1.000000 0.000000
0.000000 1.000000 0.000000
0.067117 1.000000 0.000000
0.141090 1.000000 0.000000
0.217588 1.000000 0.000000
0.296107 1.000000 0.000000
0.376056 1.000000 0.000000
0.456781 1.000000 0.000000
0.537600 1.000000 0.000000
0.617825 1.000000 0.000000
0.696798 1.000000 0.000000
0.773912 1.000000 0.000000
0.848640 1.000000 0.000000
0.920550 1.000000 0.000000
0.989321 1.000000 0.000000
1.000000 1.000000 0.000000
1.000000 1.000000 0.000000
1.000000 1.000000 0.000000
0.000000 0.000000 0.187463
0.000000 0.000000 0.187024
0.000000 0.000000 0.186230
0.054979 0.000000 0.185098
0.125733 0.000000 0.183645
0.199224 0.000000 0.181887
0.275057 0.000000 0.179841
0.352741 0.000000 0.177524
0.431713 0.000000 0.174954
0.511357 0.000000 0.172146
0.591030 0.000000 0.169119
0.670084 0.000000 0.165889
0.747900 0.000000 0.162473
0.823904 0.000000 0.158888
0.897600 0.000000 0.155151
0.968583 0.000000 0.151279
1.000000 0.000000 0.147289
0.000000 0.004727 0.184605
0.000000 0.004490 0.183039
0.000000 0.004208 0.181174
0.057826 0.003884 0.179028
0.129163 0.003518 0.176617
0.203226 0.003115 0.173958
0.279605 0.002677 0.171068
0.357795 0.002206 0.167965
0.437218 0.001704 0.164666
0.517245 0.001174 0.161186
0.597223 0.000619 0.157544
0.676499 0.000041 0.153756
0.754449 0.000000 0.149839
0.830503 0.000000 0.145810
0.904168 0.000000 0.141685
0.975050 0.000000 0.137482
1.000000 0.000000 0.133216
0.000000 0.071679 0.178180
0.000000 0.071284 0.175677
0.000000 0.070849 0.172932
0.062101 0.070379 0.169963
0.133988 0.069875 0.166786
0.208577 0.069341 0.163419
0.285442 0.068778 0.159878
0.364062 0.068190 0.156181
0.443847 0.067579 0.152344
0.524158 0.066947 0.148384
0.604333 0.066297 0.144319
0.683717 0.065632 0.140163
0.761685 0.064954 0.135935
0.837672 0.064266 0.131650
0.911194 0.063570 0.127325
0.981867 0.062869 0.122976
1.000000 0.062166 0.118619
0.000000 0.140834 0.168829
0.000000 0.140299 0.165581
0.000000 0.139734 0.162149
0.067523 0.139139 0.158549
0.139915 0.138520 0.154799
0.214972 0.137877 0.150916
0.292251 0.137214 0.146916
0.371219 0.136533 0.142815
0.451273 0.135837 0.138631
0.531766 0.135129 0.134381
0.612031 0.134411 0.130079
0.691412 0.133686 0.125744
0.769288 0.132957 0.121390
0.845101 0.132226 0.117034
0.918376 0.131496 0.112691
0.988746 0.130770 0.108378
1.000000 0.130057 0.104082
0.000000 0.211950 0.157201
0.000000 0.211302 0.153400
0.003935 0.210630 0.149472
0.073810 0.209939 0.145434
0.146649 0.209231 0.141301
0.222104 0.208508 0.137091
0.299717 0.207773 0.132820
0.378943 0.207029 0.128504
0.459167 0.206279 0.124160
0.539738 0.205525 0.119803
0.619987 0.204771 0.115450
0.699259 0.204018 0.111117
0.776940 0.203270 0.106818
0.852605 0.202555 0.102474
0.926018 0.201926 0.097905
0.996769 0.201384 0.093137
1.000000 0.200927 0.088201
0.000000 0.284724 0.143939
0.000000 0.283992 0.139776
0.010381 0.283247 0.135542
0.080676 0.282490 0.131253
0.153893 0.281724 0.126925
0.229665 0.280954 0.122574
0.307522 0.280180 0.118217
0.386907 0.279407 0.113870
0.467200 0.278637 0.109547
0.547750 0.277873 0.105261
0.628154 0.277171 0.100835
0.707877 0.276558 0.096190
0.786259 0.276034 0.091358
0.862697 0.275598 0.086370
0.936672 0.275247 0.081258
1.000000 0.274982 0.076053
1.000000 0.274801 0.070787
0.000000 0.358805 0.129681
0.000000 0.358024 0.125343
0.017192 0.357238 0.120988
0.087834 0.356450 0.116633
0.161344 0.355664 0.112292
0.237341 0.354881 0.107983
0.315400 0.354117 0.103677
0.395267 0.353435 0.099168
0.476353 0.352844 0.094451
0.557966 0.352343 0.089558
0.639392 0.351931 0.084521
0.719921 0.351606 0.079372
0.798881 0.351367 0.074142
0.875671 0.351212 0.068861
0.949783 0.351142 0.063560
1.000000 0.351154 0.058270
1.000000 0.351247 0.053020
0.000000 0.433801 0.115050
0.000000 0.433007 0.110719
0.024089 0.432218 0.106424
0.095140 0.431471 0.102062
0.169388 0.430815 0.097473
0.246455 0.430251 0.092688
0.325841 0.429778 0.087739
0.406949 0.429393 0.082658
0.489104 0.429096 0.077476
0.571584 0.428886 0.072223
0.653652 0.428761 0.066932
0.734588 0.428720 0.061632
0.813721 0.428762 0.056352
0.890461 0.428886 0.051124
0.964324 0.429090 0.045976
1.000000 0.429374 0.040936
1.000000 0.429736 0.036034
0.000000 0.509361 0.100416
0.000000 0.508737 0.095752
0.032650 0.508204 0.090904
0.105112 0.507762 0.085903
0.180718 0.507408 0.080781
0.259045 0.507142 0.075570
0.339552 0.506962 0.070300
0.421604 0.506868 0.065002
0.504496 0.506857 0.059706
0.587482 0.506930 0.054441
0.669815 0.507083 0.049239
0.750773 0.507317 0.044127
0.829698 0.507630 0.039134
0.906023 0.508021 0.034289
0.979297 0.508489 0.029620
1.000000 0.509032 0.025154
1.000000 0.509649 0.020920
0.000000 0.585698 0.084051
0.000000 0.585378 0.078893
0.044314 0.585144 0.073656
0.118026 0.584996 0.068373
0.194783 0.584933 0.063072
0.274120 0.584953 0.057784
0.355460 0.585054 0.052539
0.438134 0.585236 0.047366
0.521412 0.585498 0.042294
0.604540 0.585838 0.037352
0.686767 0.586255 0.032568
0.767384 0.586748 0.027969
0.845754 0.587315 0.023585
0.921343 0.587956 0.019441
0.993737 0.588669 0.015565
1.000000 0.589452 0.011984
1.000000 0.590305 0.008724
0.000000 0.662390 0.066443
0.000000 0.662358 0.061143
0.058171 0.662407 0.055868
0.132918 0.662536 0.050646
0.210572 0.662745 0.045506
0.290630 0.663032 0.040478
0.372480 0.663395 0.035590
0.455429 0.663834 0.030870
0.538736 0.664348 0.026347
0.621643 0.664935 0.022047
0.703411 0.665594 0.017997
0.783352 0.666323 0.014225
0.860860 0.667122 0.010758
0.935445 0.667987 0.007609
1.000000 0.668867 0.004555
1.000000 0.669744 0.001522
1.000000 0.670612 0.000000
0.000000 0.738800 0.048763
0.000917 0.739033 0.043661
0.073285 0.739341 0.038681
0.148801 0.739725 0.033851
0.227053 0.740182 0.029199
0.307501 0.740712 0.024754
0.389511 0.741313 0.020542
0.472375 0.741984 0.016590
0.555349 0.742724 0.012926
0.637686 0.743532 0.009577
0.718708 0.744392 0.006495
0.797899 0.745254 0.003447
0.874691 0.746110 0.000426
0.948607 0.746956 0.000000
1.000000 0.747789 0.000000
1.000000 0.748604 0.000000
1.000000 0.749397 0.000000
0.000000 0.814298 0.032135
0.015699 0.814769 0.027556
0.088686 0.815310 0.023192
0.164657 0.815920 0.019072
0.243164 0.816598 0.015222
0.323642 0.817342 0.011669
0.405442 0.818151 0.008441
0.487958 0.818992 0.005383
0.570563 0.819829 0.002344
0.652525 0.820659 0.000000
0.733143 0.821478 0.000000
0.811775 0.822282 0.000000
0.887866 0.823067 0.000000
0.960970 0.823830 0.000000
1.000000 0.824566 0.000000
1.000000 0.825272 0.000000
1.000000 0.825944 0.000000
0.000000 0.888294 0.017637
0.030101 0.888973 0.013893
0.103374 0.889715 0.010455
0.179453 0.890516 0.007327
0.258011 0.891328 0.004274
0.338529 0.892135 0.001244
0.420363 0.892933 0.000000
0.502815 0.893720 0.000000
0.585157 0.894491 0.000000
0.666668 0.895242 0.000000
0.746665 0.895970 0.000000
0.824530 0.896672 0.000000
0.899736 0.897342 0.000000
0.971873 0.897979 0.000000
1.000000 0.898578 0.000000
1.000000 0.899135 0.000000
1.000000 0.899647 0.000000
0.000000 0.960250 0.006213
0.043413 0.961029 0.003168
0.117036 0.961802 0.000149
0.193485 0.962565 0.000000
0.272287 0.963316 0.000000
0.352867 0.964050 0.000000
0.434573 0.964764 0.000000
0.516701 0.965454 0.000000
0.598534 0.966118 0.000000
0.679365 0.966750 0.000000
0.758534 0.967349 0.000000
0.835451 0.967910 0.000000
0.909623 0.968430 0.000000
0.980673 0.968904 0.000000
1.000000 0.969331 0.000000
1.000000 0.969706 0.000000
1.000000 0.970026 0.000000
0.000000 1.000000 0.000000
0.056292 1.000000 0.000000
0.130219 1.000000 0.000000
0.206820 1.000000 0.000000
0.285600 1.000000 0.000000
0.365974 1.000000 0.000000
0.447284 1.000000 0.000000
0.528834 1.000000 0.000000
0.609921 1.000000 0.000000
0.689860 1.000000 0.000000
0.768018 1.000000 0.000000
0.843837 1.000000 0.000000
0.916858 1.000000 0.000000
0.986734 1.000000 0.000000
1.000000 1.000000 0.000000
1.000000 1.000000 0.000000
1.000000 1.000000 0.000000
0.000000 1.000000 0.000000
0.068264 1.000000 0.000000
0.142227 1.000000 0.000000
0.218699 1.000000 0.000000
0.297174 1.000000 0.000000
0.377061 1.000000 0.000000
0.457707 1.000000 0.000000
0.538431 1.000000 0.000000
0.618549 1.000000 0.000000
0.697404 1.000000 0.000000
0.774394 1.000000 0.000000
0.848994 1.000000 0.000000
0.920776 1.000000 0.000000
0.989421 1.000000 0.000000
1.000000 1.000000 0.000000
1.000000 1.000000 0.000000
1.000000 1.000000 0.000000
0.000000 0.000000 0.261814
0.000000 0.000000 0.261238
0.000000 0.000000 0.260303
0.055194 0.000000 0.259026
0.126007 0.000000 0.257424
0.199558 0.000000 0.255515
0.275448 0.000000 0.253316
0.353187 0.000000 0.250844
0.432208 0.000000 0.248116
0.511896 0.000000 0.245149
0.591604 0.000000 0.241962
0.670686 0.000000 0.238570
0.748520 0.000000 0.234993
0.824535 0.000000 0.231246
0.898233 0.000000 0.227347
0.969212 0.000000 0.223314
1.000000 0.000000 0.219163
0.000000 0.004652 0.258479
0.000000 0.004400 0.256764
