web/src-tauri/luts/teal_orange.cube
TITLE "Teal & Orange (blockbuster grade)"
LUT_3D_SIZE 5
0.000000 0.000000 0.045618
0.125235 0.000000 0.042937
0.430767 0.000000 0.035562
0.746689 0.000000 0.024513
1.000000 0.000000 0.010815
0.000000 0.212376 0.019779
0.145239 0.209714 0.005369
0.457552 0.206789 0.000000
0.775406 0.203778 0.000000
1.000000 0.201228 0.000000
0.000000 0.509837 0.000000
0.178178 0.507639 0.000000
0.501229 0.506856 0.000000
0.826432 0.507409 0.000000
1.000000 0.509222 0.000000
0.000000 0.814019 0.000000
0.239993 0.816130 0.000000
0.567538 0.819261 0.000000
0.885289 0.822536 0.000000
1.000000 0.825492 0.000000
0.000000 1.000000 0.000000
0.295015 1.000000 0.000000
0.617066 1.000000 0.000000
0.920284 1.000000 0.000000
1.000000 1.000000 0.000000
0.000000 0.000000 0.337866
0.126299 0.000000 0.332918
0.432718 0.000000 0.323041
0.749151 0.000000 0.309352
1.000000 0.000000 0.292969
0.000000 0.211512 0.303640
0.148081 0.208741 0.286553
0.460789 0.205767 0.268287
0.778509 0.202775 0.249895
1.000000 0.200666 0.229510
0.000000 0.508927 0.242843
0.183370 0.507218 0.221472
0.507824 0.506898 0.198839
0.832967 0.507888 0.177010
1.000000 0.510110 0.157983
0.000000 0.814610 0.169656
0.246275 0.817096 0.152131
0.573570 0.820394 0.138623
0.890390 0.823588 0.126110
1.000000 0.826380 0.115222
0.000000 1.000000 0.121909
0.299231 1.000000 0.111843
0.619888 1.000000 0.104662
0.921104 1.000000 0.101283
1.000000 1.000000 0.101141
0.000000 0.000000 0.648025
0.127627 0.000000 0.641249
0.434895 0.000000 0.629862
0.751767 0.000000 0.614937
1.000000 0.000000 0.597556
0.000000 0.210605 0.608836
0.150995 0.207745 0.590832
0.464037 0.204742 0.571867
0.782132 0.201904 0.552490
1.000000 0.200258 0.530200
0.000000 0.508186 0.544696
0.188974 0.506957 0.521577
0.514632 0.507091 0.497664
0.839481 0.508508 0.475133
1.000000 0.511130 0.456154
0.000000 0.815332 0.467698
0.252286 0.818183 0.450548
0.579505 0.821508 0.436366
0.895255 0.824593 0.423206
1.000000 0.827193 0.412115
0.003739 1.000000 0.418874
0.303009 1.000000 0.408794
0.622111 1.000000 0.402201
0.921281 1.000000 0.400105
1.000000 1.000000 0.400105
0.000000 0.000000 0.940618
0.129203 0.000000 0.933054
0.437276 0.000000 0.921653
0.754515 0.000000 0.907336
1.000000 0.000000 0.891040
0.000000 0.209660 0.901582
0.153963 0.206732 0.884804
0.467276 0.203721 0.867376
0.786365 0.201193 0.848780
1.000000 0.200001 0.827339
0.000000 0.507611 0.841214
0.194926 0.506854 0.819182
0.521577 0.507432 0.796901
0.845904 0.509267 0.776439
1.000000 0.512281 0.759920
0.000000 0.816180 0.769856
0.258149 0.819324 0.754912
0.585291 0.822595 0.741468
0.899841 0.825543 0.729289
1.000000 0.827923 0.719413
0.007745 1.000000 0.725372
0.306299 1.000000 0.716593
0.623683 1.000000 0.711539
0.921281 1.000000 0.710723
1.000000 1.000000 0.710723
0.000000 0.000000 1.000000
0.131005 0.000000 1.000000
0.439840 0.000000 1.000000
0.757375 0.000000 1.000000
1.000000 0.000000 1.000000
0.000000 0.208686 1.000000
0.156965 0.205710 1.000000
0.470547 0.202723 1.000000
0.791137 0.200639 1.000000
1.000000 0.199893 1.000000
0.000000 0.507199 1.000000
0.201158 0.506904 1.000000
0.528587 0.507918 1.000000
0.852171 0.510163 1.000000
1.000000 0.513500 1.000000
0.000000 0.817153 1.000000
0.263979 0.820456 1.000000
0.590877 0.823645 1.000000
0.904102 0.826427 1.000000
1.000000 0.828558 1.000000
0.011416 1.000000 1.000000
0.309048 1.000000 1.000000
0.624554 1.000000 0.997601
0.921281 1.000000 0.997487
1.000000 1.000000 0.997487
