web/src-tauri/luts/teal_orange.cube
TITLE "Teal & Orange (blockbuster grade)"
LUT_3D_SIZE 9
0.000000 0.000000 0.045618
0.000000 0.000000 0.044927
0.125235 0.000000 0.042937
0.274322 0.000000 0.039773
0.430767 0.000000 0.035562
0.589920 0.000000 0.030432
0.746689 0.000000 0.024513
0.896356 0.000000 0.017931
1.000000 0.000000 0.010815
0.000000 0.071925 0.038354
0.000000 0.071148 0.033794
0.132916 0.070221 0.028362
0.284175 0.069163 0.022186
0.442434 0.067996 0.015395
0.602840 0.066740 0.008116
0.760184 0.065416 0.000472
0.909753 0.064043 0.000000
1.000000 0.062644 0.000000
0.000000 0.212376 0.019779
0.002703 0.211089 0.012795
0.145239 0.209714 0.005369
0.298172 0.208273 0.000000
0.457552 0.206789 0.000000
0.618376 0.205283 0.000000
0.775406 0.203778 0.000000
0.924257 0.202344 0.000000
1.000000 0.201228 0.000000
0.000000 0.359331 0.000000
0.015801 0.357772 0.000000
0.159838 0.356198 0.000000
0.313778 0.354631 0.000000
0.474198 0.353236 0.000000
0.636844 0.352201 0.000000
0.796119 0.351520 0.000000
0.946988 0.351181 0.000000
1.000000 0.351175 0.000000
0.000000 0.509837 0.000000
0.030643 0.508556 0.000000
0.178178 0.507639 0.000000
0.336572 0.507075 0.000000
0.501229 0.506856 0.000000
0.666452 0.506970 0.000000
0.826432 0.507409 0.000000
0.976286 0.508163 0.000000
1.000000 0.509222 0.000000
0.000000 0.662460 0.000000
0.055241 0.662364 0.000000
0.207295 0.662594 0.000000
0.369007 0.663140 0.000000
0.535260 0.663991 0.000000
0.700128 0.665138 0.000000
0.857936 0.666572 0.000000
1.000000 0.668269 0.000000
1.000000 0.670023 0.000000
0.000000 0.814019 0.000000
0.085601 0.814935 0.000000
0.239993 0.816130 0.000000
0.402368 0.817594 0.000000
0.567538 0.819261 0.000000
0.730278 0.820923 0.000000
0.885289 0.822536 0.000000
1.000000 0.824069 0.000000
1.000000 0.825492 0.000000
0.000000 0.959719 0.000000
0.114297 0.961277 0.000000
0.269457 0.962808 0.000000
0.431799 0.964281 0.000000
0.595968 0.965670 0.000000
0.756306 0.966946 0.000000
0.907819 0.968081 0.000000
1.000000 0.969047 0.000000
1.000000 0.969815 0.000000
0.000000 1.000000 0.000000
0.139934 1.000000 0.000000
0.295015 1.000000 0.000000
0.455825 1.000000 0.000000
0.617066 1.000000 0.000000
0.773392 1.000000 0.000000
0.920284 1.000000 0.000000
1.000000 1.000000 0.000000
1.000000 1.000000 0.000000
0.000000 0.000000 0.187463
0.000000 0.000000 0.186230
0.125733 0.000000 0.183645
0.275057 0.000000 0.179841
0.431713 0.000000 0.174954
0.591030 0.000000 0.169119
0.747900 0.000000 0.162473
0.897600 0.000000 0.155151
1.000000 0.000000 0.147289
0.000000 0.071679 0.178180
0.000000 0.070849 0.172932
0.133988 0.069875 0.166786
0.285442 0.068778 0.159878
0.443847 0.067579 0.152344
0.604333 0.066297 0.144319
0.761685 0.064954 0.135935
0.911194 0.063570 0.127325
1.000000 0.062166 0.118619
0.000000 0.211950 0.157201
0.003935 0.210630 0.149472
0.146649 0.209231 0.141301
0.299717 0.207773 0.132820
0.459167 0.206279 0.124160
0.619987 0.204771 0.115450
0.776940 0.203270 0.106818
0.926018 0.201926 0.097905
1.000000 0.200927 0.088201
0.000000 0.358805 0.129681
0.017192 0.357238 0.120988
0.161344 0.355664 0.112292
0.315400 0.354117 0.103677
0.476353 0.352844 0.094451
0.639392 0.351931 0.084521
0.798881 0.351367 0.074142
0.949783 0.351142 0.063560
1.000000 0.351247 0.053020
0.000000 0.509361 0.100416
0.032650 0.508204 0.090904
0.180718 0.507408 0.080781
0.339552 0.506962 0.070300
0.504496 0.506857 0.059706
0.669815 0.507083 0.049239
0.829698 0.507630 0.039134
0.979297 0.508489 0.029620
1.000000 0.509649 0.020920
0.000000 0.662390 0.066443
0.058171 0.662407 0.055868
0.210572 0.662745 0.045506
0.372480 0.663395 0.035590
0.538736 0.664348 0.026347
0.703411 0.665594 0.017997
0.860860 0.667122 0.010758
1.000000 0.668867 0.004555
1.000000 0.670612 0.000000
0.000000 0.814298 0.032135
0.088686 0.815310 0.023192
0.243164 0.816598 0.015222
0.405442 0.818151 0.008441
0.570563 0.819829 0.002344
0.733143 0.821478 0.000000
0.887866 0.823067 0.000000
1.000000 0.824566 0.000000
1.000000 0.825944 0.000000
0.000000 0.960250 0.006213
0.117036 0.961802 0.000149
0.272287 0.963316 0.000000
0.434573 0.964764 0.000000
0.598534 0.966118 0.000000
0.758534 0.967349 0.000000
0.909623 0.968430 0.000000
1.000000 0.969331 0.000000
1.000000 0.970026 0.000000
0.000000 1.000000 0.000000
0.142227 1.000000 0.000000
0.297174 1.000000 0.000000
0.457707 1.000000 0.000000
0.618549 1.000000 0.000000
0.774394 1.000000 0.000000
0.920776 1.000000 0.000000
1.000000 1.000000 0.000000
1.000000 1.000000 0.000000
0.000000 0.000000 0.337866
0.000000 0.000000 0.336078
0.126299 0.000000 0.332918
0.275856 0.000000 0.328526
0.432718 0.000000 0.323041
0.592190 0.000000 0.316603
0.749151 0.000000 0.309352
0.898874 0.000000 0.301427
1.000000 0.000000 0.292969
0.000000 0.071415 0.326649
0.000000 0.070534 0.320800
0.135105 0.069516 0.314050
0.286748 0.068381 0.306537
0.445293 0.067151 0.298402
0.605851 0.065847 0.289784
0.763201 0.064487 0.280820
0.912641 0.063094 0.271650
1.000000 0.061688 0.262409
0.000000 0.211512 0.303640
0.005194 0.210163 0.295313
0.148081 0.208741 0.286553
0.301276 0.207268 0.277499
0.460789 0.205767 0.268287
0.621596 0.204259 0.259053
0.778509 0.202775 0.249895
0.927921 0.201548 0.240089
1.000000 0.200666 0.229510
0.000000 0.358275 0.274156
0.018587 0.356703 0.264920
0.162847 0.355131 0.255712
0.317193 0.353644 0.246432
0.478661 0.352494 0.236313
0.642064 0.351701 0.225518
0.801734 0.351253 0.214313
0.952636 0.351141 0.202959
1.000000 0.351356 0.191714
0.000000 0.508927 0.242843
0.034784 0.507894 0.232447
0.183370 0.507218 0.221472
0.342622 0.506889 0.210183
0.507824 0.506898 0.198839
0.673209 0.507234 0.187697
0.832967 0.507888 0.177010
0.982286 0.508849 0.167025
1.000000 0.510110 0.157983
0.000000 0.662359 0.206045
0.061152 0.662486 0.194746
0.213878 0.662931 0.183741
0.375953 0.663685 0.173281
0.542183 0.664739 0.163611
0.706638 0.666081 0.154973
0.863705 0.667704 0.147605
1.000000 0.669463 0.141002
1.000000 0.671194 0.134525
0.000000 0.814610 0.169656
0.091742 0.815717 0.160334
0.246275 0.817096 0.152131
0.408474 0.818722 0.145194
0.573570 0.820394 0.138623
0.735971 0.822026 0.132222
0.890390 0.823588 0.126110
1.000000 0.825049 0.120405
1.000000 0.826380 0.115222
0.000000 0.960779 0.142789
0.119757 0.962321 0.136267
0.275077 0.963816 0.129957
0.437285 0.965236 0.123980
0.601018 0.966551 0.118451
0.760664 0.967734 0.113488
0.911319 0.968757 0.109203
1.000000 0.969592 0.105714
1.000000 0.970210 0.103132
0.000000 1.000000 0.121909
0.144443 1.000000 0.116573
0.299231 1.000000 0.111843
0.459464 1.000000 0.107835
0.619888 1.000000 0.104662
0.775240 1.000000 0.102440
0.921104 1.000000 0.101283
1.000000 1.000000 0.101141
1.000000 1.000000 0.101141
0.000000 0.000000 0.492922
0.000000 0.000000 0.490614
0.126931 0.000000 0.486957
0.276718 0.000000 0.482089
0.433780 0.000000 0.476150
0.593399 0.000000 0.469279
0.750441 0.000000 0.461616
0.900178 0.000000 0.453299
1.000000 0.000000 0.444470
0.000000 0.071132 0.480044
0.000000 0.070202 0.473749
0.136265 0.069142 0.466574
0.288092 0.067973 0.458656
0.446769 0.066716 0.450137
0.607390 0.065390 0.441155
0.764729 0.064017 0.431851
0.914092 0.062617 0.422365
1.000000 0.061211 0.412836
0.000000 0.211063 0.455617
0.006476 0.209687 0.446913
0.149530 0.208245 0.437798
0.302846 0.206761 0.428412
0.462413 0.205255 0.418894
0.623199 0.203749 0.409383
0.780239 0.202319 0.399796
0.929958 0.201210 0.389330
1.000000 0.200443 0.378132
0.000000 0.357742 0.424954
0.019983 0.356168 0.415423
0.164342 0.354602 0.405950
0.319154 0.353213 0.396088
0.481113 0.352185 0.385324
0.644850 0.351510 0.373928
0.804668 0.351178 0.362173
0.955540 0.351178 0.350328
1.000000 0.351502 0.338664
0.000000 0.508535 0.392259
0.037037 0.507625 0.381233
0.186124 0.507068 0.369675
0.345772 0.506855 0.357857
0.511206 0.506976 0.346047
0.676627 0.507421 0.334513
0.836231 0.508180 0.323521
0.985245 0.509244 0.313332
1.000000 0.510604 0.304206
0.000000 0.662366 0.353542
0.064176 0.662602 0.341802
0.217203 0.663153 0.330435
0.379418 0.664010 0.319705
0.545593 0.665163 0.309873
0.709799 0.666602 0.301197
0.866501 0.668303 0.293851
1.000000 0.670056 0.286906
1.000000 0.671770 0.280128
0.000000 0.814955 0.316008
0.094761 0.816155 0.306567
0.249319 0.817624 0.298376
0.411502 0.819292 0.291311
0.576553 0.820954 0.284412
0.738755 0.822565 0.277727
0.892855 0.824097 0.271383
1.000000 0.825517 0.265505
1.000000 0.826796 0.260219
0.000000 0.961306 0.288783
0.122454 0.962836 0.281947
0.277822 0.964308 0.275371
0.439930 0.965695 0.269183
0.603415 0.966969 0.263506
0.762691 0.968101 0.258465
0.912901 0.969063 0.254184
1.000000 0.969827 0.250786
1.000000 0.970365 0.248395
0.001625 1.000000 0.267050
0.146574 1.000000 0.261590
0.301178 1.000000 0.256812
0.461089 1.000000 0.252838
0.621077 1.000000 0.249792
0.775924 1.000000 0.247798
0.921265 1.000000 0.246980
1.000000 1.000000 0.246966
1.000000 1.000000 0.246966
0.000000 0.000000 0.648025
0.000000 0.000000 0.645281
0.127627 0.000000 0.641249
0.277641 0.000000 0.636065
0.434895 0.000000 0.629862
0.594653 0.000000 0.622774
0.751767 0.000000 0.614937
0.901507 0.000000 0.606486
1.000000 0.000000 0.597556
0.000000 0.070832 0.633918
0.000000 0.069856 0.627377
0.137465 0.068757 0.620001
0.289470 0.067555 0.611924
0.448271 0.066272 0.603283
0.608947 0.064928 0.594213
0.766267 0.063544 0.584853
0.915544 0.062139 0.575341
1.000000 0.060735 0.565814
0.000000 0.210605 0.608836
0.007780 0.209204 0.600023
0.150995 0.207745 0.590832
0.304425 0.206251 0.581400
0.464037 0.204742 0.571867
0.624793 0.203242 0.562370
0.782132 0.201904 0.552490
0.932121 0.200912 0.541679
1.000000 0.200258 0.530200
0.000000 0.357208 0.577934
0.021377 0.355634 0.568398
0.165892 0.354089 0.558896
0.321275 0.352824 0.548649
0.483699 0.351917 0.537563
0.647741 0.351359 0.525908
0.807675 0.351141 0.513956
0.958484 0.351252 0.501978
1.000000 0.351683 0.490246
0.000000 0.508186 0.544696
0.039402 0.507397 0.533371
0.188974 0.506957 0.521577
0.348994 0.506859 0.509584
0.514632 0.507091 0.497664
0.680059 0.507644 0.486090
0.839481 0.508508 0.475133
0.988167 0.509673 0.465064
1.000000 0.511130 0.456154
0.000000 0.662410 0.505221
0.067236 0.662754 0.493396
0.220539 0.663410 0.482015
0.382865 0.664369 0.471350
0.548955 0.665620 0.461672
0.712885 0.667153 0.453250
0.869290 0.668901 0.445991
1.000000 0.670644 0.438902
1.000000 0.672337 0.432021
0.000000 0.815332 0.467698
0.097734 0.816624 0.458446
0.252286 0.818183 0.450548
0.414521 0.819860 0.443395
0.579505 0.821508 0.436366
0.741490 0.823096 0.429593
0.895255 0.824593 0.423206
1.000000 0.825969 0.417337
1.000000 0.827193 0.412115
0.000000 0.961830 0.440814
0.125121 0.963344 0.433863
0.280515 0.964790 0.427216
0.442501 0.966142 0.421003
0.605718 0.967371 0.415354
0.764609 0.968448 0.410400
0.914365 0.969346 0.406270
1.000000 0.970037 0.403095
1.000000 0.970492 0.401003
0.003739 1.000000 0.418874
0.148614 1.000000 0.413463
0.303009 1.000000 0.408794
0.462576 1.000000 0.404997
0.622111 1.000000 0.402201
0.776440 1.000000 0.400535
0.921281 1.000000 0.400105
1.000000 1.000000 0.400105
1.000000 1.000000 0.400105
0.000000 0.000000 0.798563
0.000000 0.000000 0.795503
0.128385 0.000000 0.791250
0.278621 0.000000 0.785931
0.436061 0.000000 0.779672
0.595950 0.000000 0.772598
0.753126 0.000000 0.764836
0.902859 0.000000 0.756514
1.000000 0.000000 0.747761
0.000000 0.070516 0.783755
0.000000 0.069495 0.777184
0.138703 0.068359 0.769845
0.290880 0.067127 0.761864
0.449798 0.065821 0.753370
0.610520 0.064462 0.744493
0.767812 0.063068 0.735364
0.916996 0.061662 0.726116
1.000000 0.060262 0.716883
0.000000 0.210137 0.758825
0.009104 0.208714 0.750176
0.152474 0.207240 0.741192
0.306009 0.205739 0.732004
0.465659 0.204231 0.722746
0.626432 0.202749 0.713509
0.784177 0.201529 0.703548
0.934400 0.200652 0.692741
1.000000 0.200111 0.681346
0.000000 0.356673 0.728634
0.022769 0.355102 0.719384
0.167606 0.353619 0.709997
0.323546 0.352476 0.699698
0.486411 0.351689 0.688646
0.650727 0.351248 0.677103
0.810745 0.351142 0.665332
0.961463 0.351363 0.653598
1.000000 0.351901 0.642172
0.000000 0.507878 0.695748
0.041871 0.507209 0.684487
0.191911 0.506886 0.672830
0.352280 0.506901 0.661041
0.518092 0.507243 0.649389
0.683496 0.507903 0.638141
0.842708 0.508870 0.627571
0.991044 0.510136 0.617951
1.000000 0.511690 0.609555
0.000000 0.662491 0.656769
0.070324 0.662943 0.645233
0.223877 0.663702 0.634200
0.386285 0.664761 0.623944
0.552260 0.666109 0.614738
0.715889 0.667737 0.606855
0.872065 0.669496 0.599736
1.000000 0.671226 0.592728
1.000000 0.672895 0.585963
0.000000 0.815740 0.620457
0.100652 0.817124 0.611701
0.255218 0.818754 0.604259
0.417523 0.820425 0.597165
0.582419 0.822056 0.590230
0.744169 0.823616 0.583585
0.897586 0.825076 0.577363
1.000000 0.826403 0.571695
1.000000 0.827569 0.566713
0.000000 0.962350 0.594615
0.127752 0.963844 0.587771
0.283150 0.965261 0.581264
0.444991 0.966575 0.575228
0.607920 0.967755 0.569795
0.766412 0.968775 0.565096
0.915703 0.969605 0.561265
1.000000 0.970219 0.558432
1.000000 0.970587 0.556731
0.005780 1.000000 0.573173
0.150557 1.000000 0.567992
0.304718 1.000000 0.563594
0.463918 1.000000 0.560111
0.622981 1.000000 0.557675
0.776782 1.000000 0.556418
0.921281 1.000000 0.556272
1.000000 1.000000 0.556272
1.000000 1.000000 0.556272
0.000000 0.000000 0.940618
0.000000 0.000000 0.937373
0.129203 0.000000 0.933054
0.279655 0.000000 0.927776
0.437276 0.000000 0.921653
0.597287 0.000000 0.914801
0.754515 0.000000 0.907336
0.904233 0.000000 0.899376
1.000000 0.000000 0.891040
0.000000 0.070183 0.925639
0.000000 0.069121 0.919237
0.139976 0.067950 0.912148
0.292320 0.066691 0.904489
0.451347 0.065365 0.896378
0.612106 0.063991 0.887936
0.769361 0.062591 0.879286
0.918444 0.061185 0.870552
1.000000 0.059800 0.861829
0.000000 0.209660 0.901582
0.010444 0.208218 0.893336
0.153963 0.206732 0.884804
0.307596 0.205226 0.876109
0.467276 0.203721 0.867376
0.628243 0.202295 0.858515
0.786365 0.201193 0.848780
0.936787 0.200431 0.838307
1.000000 0.200001 0.827339
0.000000 0.356138 0.872927
0.024154 0.354573 0.864213
0.169480 0.353190 0.855071
0.325958 0.352169 0.845040
0.489240 0.351501 0.834358
0.653799 0.351175 0.823271
0.813869 0.351181 0.812028
0.964466 0.351511 0.800883
1.000000 0.352154 0.790098
0.000000 0.507611 0.841214
0.044437 0.507061 0.830356
0.194926 0.506854 0.819182
0.355619 0.506981 0.807945
0.521577 0.507432 0.796901
0.686928 0.508197 0.786311
0.845904 0.509267 0.776439
0.993869 0.510632 0.767553
1.000000 0.512281 0.759920
0.000000 0.662609 0.803889
0.073431 0.663166 0.792979
0.227209 0.664029 0.782620
0.389669 0.665187 0.773076
0.555500 0.666631 0.764614
0.718847 0.668336 0.757415
0.874820 0.670089 0.750563
1.000000 0.671802 0.743851
1.000000 0.673442 0.737409
0.000000 0.816180 0.769856
0.103507 0.817655 0.761856
0.258149 0.819324 0.754912
0.420503 0.820985 0.748096
0.585291 0.822595 0.741468
0.746787 0.824125 0.735156
0.899841 0.825543 0.729289
1.000000 0.826819 0.723998
1.000000 0.827923 0.719413
0.000000 0.962864 0.745655
0.130340 0.964335 0.739127
0.285720 0.965721 0.732962
0.447395 0.966992 0.727289
0.610017 0.968121 0.722240
0.768094 0.969079 0.717944
0.916912 0.969840 0.714532
1.000000 0.970373 0.712134
1.000000 0.970652 0.710881
0.007745 1.000000 0.725372
0.152397 1.000000 0.720582
0.306299 1.000000 0.716593
0.465109 1.000000 0.713535
0.623683 1.000000 0.711539
0.776943 1.000000 0.710734
0.921281 1.000000 0.710723
1.000000 1.000000 0.710723
1.000000 1.000000 0.710723
0.000000 0.000000 1.000000
0.000000 0.000000 1.000000
0.130076 0.000000 1.000000
0.280743 0.000000 1.000000
0.438537 0.000000 1.000000
0.598661 0.000000 1.000000
0.755932 0.000000 1.000000
0.905625 0.000000 1.000000
1.000000 0.000000 1.000000
0.000000 0.069836 1.000000
0.000000 0.068735 1.000000
0.141282 0.067532 1.000000
0.293786 0.066247 1.000000
0.452914 0.064902 1.000000
0.613703 0.063517 1.000000
0.770912 0.062113 1.000000
0.919887 0.060709 1.000000
1.000000 0.059375 0.997271
0.000000 0.209177 1.000000
0.011800 0.207717 1.000000
0.155461 0.206222 1.000000
0.309185 0.204714 1.000000
0.468885 0.203214 1.000000
0.630222 0.201882 0.994099
0.788689 0.200897 0.984844
0.939274 0.200248 0.974966
1.000000 0.199928 0.964690
0.000000 0.355604 1.000000
0.025597 0.354062 0.999561
0.171506 0.352803 0.990816
0.328503 0.351903 0.981308
0.492175 0.351352 0.971259
0.656948 0.351140 0.960894
0.817040 0.351257 0.950446
0.967487 0.351694 0.940153
1.000000 0.352442 0.930259
0.000000 0.507385 0.977701
0.047092 0.506952 0.967510
0.198011 0.506860 0.957088
0.359002 0.507098 0.946668
0.525079 0.507657 0.936492
0.690348 0.508527 0.926805
0.849061 0.509698 0.917857
0.996633 0.511161 0.909905
1.000000 0.512891 0.903131
0.000000 0.662764 0.942922
0.076550 0.663426 0.932895
0.230525 0.664390 0.923448
0.393008 0.665646 0.914834
0.558666 0.667185 0.907307
0.721798 0.668934 0.900781
0.877551 0.670677 0.894375
1.000000 0.672368 0.888136
1.000000 0.673976 0.882184
0.000000 0.816651 0.911954
0.106292 0.818214 0.904886
0.261071 0.819892 0.898437
0.423453 0.821539 0.892078
0.588112 0.823125 0.885929
0.749337 0.824620 0.880112
0.902015 0.825994 0.874751
1.000000 0.827215 0.869970
1.000000 0.828253 0.865893
0.000000 0.963372 0.889809
0.132881 0.964817 0.883767
0.288218 0.966166 0.878101
0.449704 0.967393 0.872937
0.612000 0.968467 0.868397
0.769649 0.969361 0.864608
0.917985 0.970048 0.861694
1.000000 0.970498 0.859780
1.000000 0.970684 0.858989
0.009625 1.000000 0.871205
0.154128 1.000000 0.866924
0.307744 1.000000 0.863439
0.466142 1.000000 0.860875
0.624209 1.000000 0.859355
0.776956 1.000000 0.858975
0.921281 1.000000 0.858975
1.000000 1.000000 0.858975
1.000000 1.000000 0.858975
0.000000 0.000000 1.000000
0.000000 0.000000 1.000000
0.131005 0.000000 1.000000
0.281880 0.000000 1.000000
0.439840 0.000000 1.000000
0.600069 0.000000 1.000000
0.757375 0.000000 1.000000
0.907034 0.000000 1.000000
1.000000 0.000000 1.000000
0.000000 0.069475 1.000000
0.000434 0.068337 1.000000
0.142618 0.067104 1.000000
0.295276 0.065796 1.000000
0.454498 0.064436 1.000000
0.615307 0.063042 1.000000
0.772463 0.061635 1.000000
0.921321 0.060236 1.000000
1.000000 0.058987 1.000000
0.000000 0.208686 1.000000
0.013168 0.207212 1.000000
0.156965 0.205710 1.000000
0.310771 0.204203 1.000000
0.470547 0.202723 1.000000
0.632361 0.201509 1.000000
0.791137 0.200639 1.000000
0.941852 0.200103 1.000000
1.000000 0.199893 1.000000
0.000000 0.355073 1.000000
0.027194 0.353594 1.000000
0.173675 0.352458 1.000000
0.331173 0.351677 1.000000
0.495209 0.351242 1.000000
0.660166 0.351143 1.000000
0.820248 0.351370 1.000000
0.970516 0.351914 1.000000
1.000000 0.352765 1.000000
0.000000 0.507199 1.000000
0.049828 0.506883 1.000000
0.201158 0.506904 1.000000
0.362422 0.507253 1.000000
0.528587 0.507918 1.000000
0.693746 0.508892 1.000000
0.852171 0.510163 1.000000
0.999330 0.511722 1.000000
1.000000 0.513500 1.000000
0.000000 0.662954 1.000000
0.079672 0.663720 1.000000
0.233818 0.664784 1.000000
0.396292 0.666138 1.000000
0.561747 0.667770 1.000000
0.724737 0.669529 1.000000
0.880250 0.671259 1.000000
1.000000 0.672925 1.000000
1.000000 0.674498 1.000000
0.000000 0.817153 1.000000
0.109049 0.818786 1.000000
0.263979 0.820456 1.000000
0.426367 0.822086 1.000000
0.590877 0.823645 1.000000
0.751813 0.825102 1.000000
0.904102 0.826427 1.000000
1.000000 0.827589 1.000000
1.000000 0.828558 1.000000
0.000000 0.963871 1.000000
0.135367 0.965287 1.000000
0.290639 0.966598 1.000000
0.451914 0.967776 1.000000
0.613865 0.968792 1.000000
0.771071 0.969619 1.000000
0.918918 0.970228 0.999287
1.000000 0.970592 0.997860
1.000000 0.970687 0.997487
0.011416 1.000000 1.000000
0.155743 1.000000 1.000000
0.309048 1.000000 1.000000
0.467011 1.000000 0.998650
0.624554 1.000000 0.997601
0.776956 1.000000 0.997487
0.921281 1.000000 0.997487
1.000000 1.000000 0.997487
1.000000 1.000000 0.997487
