web/src-tauri/luts/vaporwave_pink.cube
TITLE "Vaporwave (pink/purple lift)"
LUT_3D_SIZE 17
0.068000 0.030000 0.077500
0.133313 0.030000 0.077500
0.198625 0.030000 0.077500
0.263938 0.030000 0.077500
0.329250 0.030000 0.077500
0.394562 0.030000 0.077500
0.459875 0.030000 0.077500
0.525188 0.030000 0.077500
0.590500 0.030000 0.077500
0.655813 0.030000 0.077500
0.721125 0.030000 0.077500
0.786438 0.030000 0.077500
0.851750 0.030000 0.077500
0.917063 0.030000 0.077500
0.982375 0.030000 0.077500
1.000000 0.030000 0.077500
1.000000 0.030000 0.077500
0.068000 0.084625 0.077500
0.133313 0.084625 0.077500
0.198625 0.084625 0.077500
0.263938 0.084625 0.077500
0.329250 0.084625 0.077500
0.394562 0.084625 0.077500
0.459875 0.084625 0.077500
0.525188 0.084625 0.077500
0.590500 0.084625 0.077500
0.655813 0.084625 0.077500
0.721125 0.084625 0.077500
0.786438 0.084625 0.077500
0.851750 0.084625 0.077500
0.917063 0.084625 0.077500
0.982375 0.084625 0.077500
1.000000 0.084625 0.077500
1.000000 0.084625 0.077500
0.068000 0.139250 0.077500
0.133313 0.139250 0.077500
0.198625 0.139250 0.077500
0.263938 0.139250 0.077500
0.329250 0.139250 0.077500
0.394562 0.139250 0.077500
0.459875 0.139250 0.077500
0.525188 0.139250 0.077500
0.590500 0.139250 0.077500
0.655813 0.139250 0.077500
0.721125 0.139250 0.077500
0.786438 0.139250 0.077500
0.851750 0.139250 0.077500
0.917063 0.139250 0.077500
0.982375 0.139250 0.077500
1.000000 0.139250 0.077500
1.000000 0.139250 0.077500
0.068000 0.193875 0.077500
0.133313 0.193875 0.077500
0.198625 0.193875 0.077500
0.263938 0.193875 0.077500
0.329250 0.193875 0.077500
0.394562 0.193875 0.077500
0.459875 0.193875 0.077500
0.525188 0.193875 0.077500
0.590500 0.193875 0.077500
0.655813 0.193875 0.077500
0.721125 0.193875 0.077500
0.786438 0.193875 0.077500
0.851750 0.193875 0.077500
0.917063 0.193875 0.077500
0.982375 0.193875 0.077500
1.000000 0.193875 0.077500
1.000000 0.193875 0.077500
0.068000 0.248500 0.077500
0.133313 0.248500 0.077500
0.198625 0.248500 0.077500
0.263938 0.248500 0.077500
0.329250 0.248500 0.077500
0.394562 0.248500 0.077500
0.459875 0.248500 0.077500
0.525188 0.248500 0.077500
0.590500 0.248500 0.077500
0.655813 0.248500 0.077500
0.721125 0.248500 0.077500
0.786438 0.248500 0.077500
0.851750 0.248500 0.077500
0.917063 0.248500 0.077500
0.982375 0.248500 0.077500
1.000000 0.248500 0.077500
1.000000 0.248500 0.077500
0.068000 0.303125 0.077500
0.133313 0.303125 0.077500
0.198625 0.303125 0.077500
0.263938 0.303125 0.077500
0.329250 0.303125 0.077500
0.394562 0.303125 0.077500
0.459875 0.303125 0.077500
0.525188 0.303125 0.077500
0.590500 0.303125 0.077500
0.655813 0.303125 0.077500
0.721125 0.303125 0.077500
0.786438 0.303125 0.077500
0.851750 0.303125 0.077500
0.917063 0.303125 0.077500
0.982375 0.303125 0.077500
1.000000 0.303125 0.077500
1.000000 0.303125 0.077500
0.068000 0.357750 0.077500
0.133313 0.357750 0.077500
0.198625 0.357750 0.077500
0.263938 0.357750 0.077500
0.329250 0.357750 0.077500
0.394562 0.357750 0.077500
0.459875 0.357750 0.077500
0.525188 0.357750 0.077500
0.590500 0.357750 0.077500
0.655813 0.357750 0.077500
0.721125 0.357750 0.077500
0.786438 0.357750 0.077500
0.851750 0.357750 0.077500
0.917063 0.357750 0.077500
0.982375 0.357750 0.077500
1.000000 0.357750 0.077500
1.000000 0.357750 0.077500
0.068000 0.412375 0.077500
0.133313 0.412375 0.077500
0.198625 0.412375 0.077500
0.263938 0.412375 0.077500
0.329250 0.412375 0.077500
0.394562 0.412375 0.077500
0.459875 0.412375 0.077500
0.525188 0.412375 0.077500
0.590500 0.412375 0.077500
0.655813 0.412375 0.077500
0.721125 0.412375 0.077500
0.786438 0.412375 0.077500
0.851750 0.412375 0.077500
0.917063 0.412375 0.077500
0.982375 0.412375 0.077500
1.000000 0.412375 0.077500
1.000000 0.412375 0.077500
0.068000 0.467000 0.077500
0.133313 0.467000 0.077500
0.198625 0.467000 0.077500
0.263938 0.467000 0.077500
0.329250 0.467000 0.077500
0.394562 0.467000 0.077500
0.459875 0.467000 0.077500
0.525188 0.467000 0.077500
0.590500 0.467000 0.077500
0.655813 0.467000 0.077500
0.721125 0.467000 0.077500
0.786438 0.467000 0.077500
0.851750 0.467000 0.077500
0.917063 0.467000 0.077500
0.982375 0.467000 0.077500
1.000000 0.467000 0.077500
1.000000 0.467000 0.077500
0.068000 0.521625 0.077500
0.133313 0.521625 0.077500
0.198625 0.521625 0.077500
0.263938 0.521625 0.077500
0.329250 0.521625 0.077500
0.394562 0.521625 0.077500
0.459875 0.521625 0.077500
0.525188 0.521625 0.077500
0.590500 0.521625 0.077500
0.655813 0.521625 0.077500
0.721125 0.521625 0.077500
0.786438 0.521625 0.077500
0.851750 0.521625 0.077500
0.917063 0.521625 0.077500
0.982375 0.521625 0.077500
1.000000 0.521625 0.077500
1.000000 0.521625 0.077500
0.068000 0.576250 0.077500
0.133313 0.576250 0.077500
0.198625 0.576250 0.077500
0.263938 0.576250 0.077500
0.329250 0.576250 0.077500
0.394562 0.576250 0.077500
0.459875 0.576250 0.077500
0.525188 0.576250 0.077500
0.590500 0.576250 0.077500
0.655813 0.576250 0.077500
0.721125 0.576250 0.077500
0.786438 0.576250 0.077500
0.851750 0.576250 0.077500
0.917063 0.576250 0.077500
0.982375 0.576250 0.077500
1.000000 0.576250 0.077500
1.000000 0.576250 0.077500
0.068000 0.630875 0.077500
0.133313 0.630875 0.077500
0.198625 0.630875 0.077500
0.263938 0.630875 0.077500
0.329250 0.630875 0.077500
0.394562 0.630875 0.077500
0.459875 0.630875 0.077500
0.525188 0.630875 0.077500
0.590500 0.630875 0.077500
0.655813 0.630875 0.077500
0.721125 0.630875 0.077500
0.786438 0.630875 0.077500
0.851750 0.630875 0.077500
0.917063 0.630875 0.077500
0.982375 0.630875 0.077500
1.000000 0.630875 0.077500
1.000000 0.630875 0.077500
0.068000 0.685500 0.077500
0.133313 0.685500 0.077500
0.198625 0.685500 0.077500
0.263938 0.685500 0.077500
0.329250 0.685500 0.077500
0.394562 0.685500 0.077500
0.459875 0.685500 0.077500
0.525188 0.685500 0.077500
0.590500 0.685500 0.077500
0.655813 0.685500 0.077500
0.721125 0.685500 0.077500
0.786438 0.685500 0.077500
0.851750 0.685500 0.077500
0.917063 0.685500 0.077500
0.982375 0.685500 0.077500
1.000000 0.685500 0.077500
1.000000 0.685500 0.077500
0.068000 0.740125 0.077500
0.133313 0.740125 0.077500
0.198625 0.740125 0.077500
0.263938 0.740125 0.077500
0.329250 0.740125 0.077500
0.394562 0.740125 0.077500
0.459875 0.740125 0.077500
0.525188 0.740125 0.077500
0.590500 0.740125 0.077500
0.655813 0.740125 0.077500
0.721125 0.740125 0.077500
0.786438 0.740125 0.077500
0.851750 0.740125 0.077500
0.917063 0.740125 0.077500
0.982375 0.740125 0.077500
1.000000 0.740125 0.077500
1.000000 0.740125 0.077500
0.068000 0.794750 0.077500
0.133313 0.794750 0.077500
0.198625 0.794750 0.077500
0.263938 0.794750 0.077500
0.329250 0.794750 0.077500
0.394562 0.794750 0.077500
0.459875 0.794750 0.077500
0.525188 0.794750 0.077500
0.590500 0.794750 0.077500
0.655813 0.794750 0.077500
0.721125 0.794750 0.077500
0.786438 0.794750 0.077500
0.851750 0.794750 0.077500
0.917063 0.794750 0.077500
0.982375 0.794750 0.077500
1.000000 0.794750 0.077500
1.000000 0.794750 0.077500
0.068000 0.849375 0.077500
0.133313 0.849375 0.077500
0.198625 0.849375 0.077500
0.263938 0.849375 0.077500
0.329250 0.849375 0.077500
0.394562 0.849375 0.077500
0.459875 0.849375 0.077500
0.525188 0.849375 0.077500
0.590500 0.849375 0.077500
0.655813 0.849375 0.077500
0.721125 0.849375 0.077500
0.786438 0.849375 0.077500
0.851750 0.849375 0.077500
0.917063 0.849375 0.077500
0.982375 0.849375 0.077500
1.000000 0.849375 0.077500
1.000000 0.849375 0.077500
0.068000 0.904000 0.077500
0.133313 0.904000 0.077500
0.198625 0.904000 0.077500
0.263938 0.904000 0.077500
0.329250 0.904000 0.077500
0.394562 0.904000 0.077500
0.459875 0.904000 0.077500
0.525188 0.904000 0.077500
0.590500 0.904000 0.077500
0.655813 0.904000 0.077500
0.721125 0.904000 0.077500
0.786438 0.904000 0.077500
0.851750 0.904000 0.077500
0.917063 0.904000 0.077500
0.982375 0.904000 0.077500
1.000000 0.904000 0.077500
1.000000 0.904000 0.077500
0.068000 0.030000 0.144000
0.133313 0.030000 0.144000
0.198625 0.030000 0.144000
0.263938 0.030000 0.144000
0.329250 0.030000 0.144000
0.394562 0.030000 0.144000
0.459875 0.030000 0.144000
0.525188 0.030000 0.144000
0.590500 0.030000 0.144000
0.655813 0.030000 0.144000
0.721125 0.030000 0.144000
0.786438 0.030000 0.144000
0.851750 0.030000 0.144000
0.917063 0.030000 0.144000
0.982375 0.030000 0.144000
1.000000 0.030000 0.144000
1.000000 0.030000 0.144000
0.068000 0.084625 0.144000
0.133313 0.084625 0.144000
0.198625 0.084625 0.144000
0.263938 0.084625 0.144000
0.329250 0.084625 0.144000
0.394562 0.084625 0.144000
0.459875 0.084625 0.144000
0.525188 0.084625 0.144000
0.590500 0.084625 0.144000
0.655813 0.084625 0.144000
0.721125 0.084625 0.144000
0.786438 0.084625 0.144000
0.851750 0.084625 0.144000
0.917063 0.084625 0.144000
0.982375 0.084625 0.144000
1.000000 0.084625 0.144000
1.000000 0.084625 0.144000
0.068000 0.139250 0.144000
0.133313 0.139250 0.144000
0.198625 0.139250 0.144000
0.263938 0.139250 0.144000
0.329250 0.139250 0.144000
0.394562 0.139250 0.144000
0.459875 0.139250 0.144000
0.525188 0.139250 0.144000
0.590500 0.139250 0.144000
0.655813 0.139250 0.144000
0.721125 0.139250 0.144000
0.786438 0.139250 0.144000
0.851750 0.139250 0.144000
0.917063 0.139250 0.144000
0.982375 0.139250 0.144000
1.000000 0.139250 0.144000
1.000000 0.139250 0.144000
0.068000 0.193875 0.144000
0.133313 0.193875 0.144000
0.198625 0.193875 0.144000
0.263938 0.193875 0.144000
0.329250 0.193875 0.144000
0.394562 0.193875 0.144000
0.459875 0.193875 0.144000
0.525188 0.193875 0.144000
0.590500 0.193875 0.144000
0.655813 0.193875 0.144000
0.721125 0.193875 0.144000
0.786438 0.193875 0.144000
0.851750 0.193875 0.144000
0.917063 0.193875 0.144000
0.982375 0.193875 0.144000
1.000000 0.193875 0.144000
1.000000 0.193875 0.144000
0.068000 0.248500 0.144000
0.133313 0.248500 0.144000
0.198625 0.248500 0.144000
0.263938 0.248500 0.144000
0.329250 0.248500 0.144000
0.394562 0.248500 0.144000
0.459875 0.248500 0.144000
0.525188 0.248500 0.144000
0.590500 0.248500 0.144000
0.655813 0.248500 0.144000
0.721125 0.248500 0.144000
0.786438 0.248500 0.144000
0.851750 0.248500 0.144000
0.917063 0.248500 0.144000
0.982375 0.248500 0.144000
1.000000 0.248500 0.144000
1.000000 0.248500 0.144000
0.068000 0.303125 0.144000
0.133313 0.303125 0.144000
0.198625 0.303125 0.144000
0.263938 0.303125 0.144000
0.329250 0.303125 0.144000
0.394562 0.303125 0.144000
0.459875 0.303125 0.144000
0.525188 0.303125 0.144000
0.590500 0.303125 0.144000
0.655813 0.303125 0.144000
0.721125 0.303125 0.144000
0.786438 0.303125 0.144000
0.851750 0.303125 0.144000
0.917063 0.303125 0.144000
0.982375 0.303125 0.144000
1.000000 0.303125 0.144000
1.000000 0.303125 0.144000
0.068000 0.357750 0.144000
0.133313 0.357750 0.144000
0.198625 0.357750 0.144000
0.263938 0.357750 0.144000
0.329250 0.357750 0.144000
0.394562 0.357750 0.144000
0.459875 0.357750 0.144000
0.525188 0.357750 0.144000
0.590500 0.357750 0.144000
0.655813 0.357750 0.144000
0.721125 0.357750 0.144000
0.786438 0.357750 0.144000
0.851750 0.357750 0.144000
0.917063 0.357750 0.144000
0.982375 0.357750 0.144000
1.000000 0.357750 0.144000
1.000000 0.357750 0.144000
0.068000 0.412375 0.144000
0.133313 0.412375 0.144000
0.198625 0.412375 0.144000
0.263938 0.412375 0.144000
0.329250 0.412375 0.144000
0.394562 0.412375 0.144000
0.459875 0.412375 0.144000
0.525188 0.412375 0.144000
0.590500 0.412375 0.144000
0.655813 0.412375 0.144000
0.721125 0.412375 0.144000
0.786438 0.412375 0.144000
0.851750 0.412375 0.144000
0.917063 0.412375 0.144000
0.982375 0.412375 0.144000
1.000000 0.412375 0.144000
1.000000 0.412375 0.144000
0.068000 0.467000 0.144000
0.133313 0.467000 0.144000
0.198625 0.467000 0.144000
0.263938 0.467000 0.144000
0.329250 0.467000 0.144000
0.394562 0.467000 0.144000
0.459875 0.467000 0.144000
0.525188 0.467000 0.144000
0.590500 0.467000 0.144000
0.655813 0.467000 0.144000
0.721125 0.467000 0.144000
0.786438 0.467000 0.144000
0.851750 0.467000 0.144000
0.917063 0.467000 0.144000
0.982375 0.467000 0.144000
1.000000 0.467000 0.144000
1.000000 0.467000 0.144000
0.068000 0.521625 0.144000
0.133313 0.521625 0.144000
0.198625 0.521625 0.144000
0.263938 0.521625 0.144000
0.329250 0.521625 0.144000
0.394562 0.521625 0.144000
0.459875 0.521625 0.144000
0.525188 0.521625 0.144000
0.590500 0.521625 0.144000
0.655813 0.521625 0.144000
0.721125 0.521625 0.144000
0.786438 0.521625 0.144000
0.851750 0.521625 0.144000
0.917063 0.521625 0.144000
0.982375 0.521625 0.144000
1.000000 0.521625 0.144000
1.000000 0.521625 0.144000
0.068000 0.576250 0.144000
0.133313 0.576250 0.144000
0.198625 0.576250 0.144000
0.263938 0.576250 0.144000
0.329250 0.576250 0.144000
0.394562 0.576250 0.144000
0.459875 0.576250 0.144000
0.525188 0.576250 0.144000
0.590500 0.576250 0.144000
0.655813 0.576250 0.144000
0.721125 0.576250 0.144000
0.786438 0.576250 0.144000
0.851750 0.576250 0.144000
0.917063 0.576250 0.144000
0.982375 0.576250 0.144000
1.000000 0.576250 0.144000
1.000000 0.576250 0.144000
0.068000 0.630875 0.144000
0.133313 0.630875 0.144000
0.198625 0.630875 0.144000
0.263938 0.630875 0.144000
0.329250 0.630875 0.144000
0.394562 0.630875 0.144000
0.459875 0.630875 0.144000
0.525188 0.630875 0.144000
0.590500 0.630875 0.144000
0.655813 0.630875 0.144000
0.721125 0.630875 0.144000
0.786438 0.630875 0.144000
0.851750 0.630875 0.144000
0.917063 0.630875 0.144000
0.982375 0.630875 0.144000
1.000000 0.630875 0.144000
1.000000 0.630875 0.144000
0.068000 0.685500 0.144000
0.133313 0.685500 0.144000
0.198625 0.685500 0.144000
0.263938 0.685500 0.144000
0.329250 0.685500 0.144000
0.394562 0.685500 0.144000
0.459875 0.685500 0.144000
0.525188 0.685500 0.144000
0.590500 0.685500 0.144000
0.655813 0.685500 0.144000
0.721125 0.685500 0.144000
0.786438 0.685500 0.144000
0.851750 0.685500 0.144000
0.917063 0.685500 0.144000
0.982375 0.685500 0.144000
1.000000 0.685500 0.144000
1.000000 0.685500 0.144000
0.068000 0.740125 0.144000
0.133313 0.740125 0.144000
0.198625 0.740125 0.144000
0.263938 0.740125 0.144000
0.329250 0.740125 0.144000
0.394562 0.740125 0.144000
0.459875 0.740125 0.144000
0.525188 0.740125 0.144000
0.590500 0.740125 0.144000
0.655813 0.740125 0.144000
0.721125 0.740125 0.144000
0.786438 0.740125 0.144000
0.851750 0.740125 0.144000
0.917063 0.740125 0.144000
0.982375 0.740125 0.144000
1.000000 0.740125 0.144000
1.000000 0.740125 0.144000
0.068000 0.794750 0.144000
0.133313 0.794750 0.144000
0.198625 0.794750 0.144000
0.263938 0.794750 0.144000
0.329250 0.794750 0.144000
0.394562 0.794750 0.144000
0.459875 0.794750 0.144000
0.525188 0.794750 0.144000
0.590500 0.794750 0.144000
0.655813 0.794750 0.144000
0.721125 0.794750 0.144000
0.786438 0.794750 0.144000
0.851750 0.794750 0.144000
0.917063 0.794750 0.144000
0.982375 0.794750 0.144000
1.000000 0.794750 0.144000
1.000000 0.794750 0.144000
0.068000 0.849375 0.144000
0.133313 0.849375 0.144000
0.198625 0.849375 0.144000
0.263938 0.849375 0.144000
0.329250 0.849375 0.144000
0.394562 0.849375 0.144000
0.459875 0.849375 0.144000
0.525188 0.849375 0.144000
0.590500 0.849375 0.144000
0.655813 0.849375 0.144000
0.721125 0.849375 0.144000
0.786438 0.849375 0.144000
0.851750 0.849375 0.144000
0.917063 0.849375 0.144000
0.982375 0.849375 0.144000
1.000000 0.849375 0.144000
1.000000 0.849375 0.144000
0.068000 0.904000 0.144000
0.133313 0.904000 0.144000
0.198625 0.904000 0.144000
0.263938 0.904000 0.144000
0.329250 0.904000 0.144000
0.394562 0.904000 0.144000
0.459875 0.904000 0.144000
0.525188 0.904000 0.144000
0.590500 0.904000 0.144000
0.655813 0.904000 0.144000
0.721125 0.904000 0.144000
0.786438 0.904000 0.144000
0.851750 0.904000 0.144000
0.917063 0.904000 0.144000
0.982375 0.904000 0.144000
1.000000 0.904000 0.144000
1.000000 0.904000 0.144000
0.068000 0.030000 0.210500
0.133313 0.030000 0.210500
0.198625 0.030000 0.210500
0.263938 0.030000 0.210500
0.329250 0.030000 0.210500
0.394562 0.030000 0.210500
0.459875 0.030000 0.210500
0.525188 0.030000 0.210500
0.590500 0.030000 0.210500
0.655813 0.030000 0.210500
0.721125 0.030000 0.210500
0.786438 0.030000 0.210500
0.851750 0.030000 0.210500
0.917063 0.030000 0.210500
0.982375 0.030000 0.210500
1.000000 0.030000 0.210500
1.000000 0.030000 0.210500
0.068000 0.084625 0.210500
0.133313 0.084625 0.210500
0.198625 0.084625 0.210500
0.263938 0.084625 0.210500
0.329250 0.084625 0.210500
0.394562 0.084625 0.210500
0.459875 0.084625 0.210500
0.525188 0.084625 0.210500
0.590500 0.084625 0.210500
0.655813 0.084625 0.210500
0.721125 0.084625 0.210500
0.786438 0.084625 0.210500
0.851750 0.084625 0.210500
0.917063 0.084625 0.210500
0.982375 0.084625 0.210500
1.000000 0.084625 0.210500
1.000000 0.084625 0.210500
0.068000 0.139250 0.210500
0.133313 0.139250 0.210500
0.198625 0.139250 0.210500
0.263938 0.139250 0.210500
0.329250 0.139250 0.210500
0.394562 0.139250 0.210500
0.459875 0.139250 0.210500
0.525188 0.139250 0.210500
0.590500 0.139250 0.210500
0.655813 0.139250 0.210500
0.721125 0.139250 0.210500
0.786438 0.139250 0.210500
0.851750 0.139250 0.210500
0.917063 0.139250 0.210500
0.982375 0.139250 0.210500
1.000000 0.139250 0.210500
1.000000 0.139250 0.210500
0.068000 0.193875 0.210500
0.133313 0.193875 0.210500
0.198625 0.193875 0.210500
0.263938 0.193875 0.210500
0.329250 0.193875 0.210500
0.394562 0.193875 0.210500
0.459875 0.193875 0.210500
0.525188 0.193875 0.210500
0.590500 0.193875 0.210500
0.655813 0.193875 0.210500
0.721125 0.193875 0.210500
0.786438 0.193875 0.210500
0.851750 0.193875 0.210500
0.917063 0.193875 0.210500
0.982375 0.193875 0.210500
1.000000 0.193875 0.210500
1.000000 0.193875 0.210500
0.068000 0.248500 0.210500
0.133313 0.248500 0.210500
0.198625 0.248500 0.210500
0.263938 0.248500 0.210500
0.329250 0.248500 0.210500
0.394562 0.248500 0.210500
0.459875 0.248500 0.210500
0.525188 0.248500 0.210500
0.590500 0.248500 0.210500
0.655813 0.248500 0.210500
0.721125 0.248500 0.210500
0.786438 0.248500 0.210500
0.851750 0.248500 0.210500
0.917063 0.248500 0.210500
0.982375 0.248500 0.210500
1.000000 0.248500 0.210500
1.000000 0.248500 0.210500
0.068000 0.303125 0.210500
0.133313 0.303125 0.210500
0.198625 0.303125 0.210500
0.263938 0.303125 0.210500
0.329250 0.303125 0.210500
0.394562 0.303125 0.210500
0.459875 0.303125 0.210500
0.525188 0.303125 0.210500
0.590500 0.303125 0.210500
0.655813 0.303125 0.210500
0.721125 0.303125 0.210500
0.786438 0.303125 0.210500
0.851750 0.303125 0.210500
0.917063 0.303125 0.210500
0.982375 0.303125 0.210500
1.000000 0.303125 0.210500
1.000000 0.303125 0.210500
0.068000 0.357750 0.210500
0.133313 0.357750 0.210500
0.198625 0.357750 0.210500
0.263938 0.357750 0.210500
0.329250 0.357750 0.210500
0.394562 0.357750 0.210500
0.459875 0.357750 0.210500
0.525188 0.357750 0.210500
0.590500 0.357750 0.210500
0.655813 0.357750 0.210500
0.721125 0.357750 0.210500
0.786438 0.357750 0.210500
0.851750 0.357750 0.210500
0.917063 0.357750 0.210500
0.982375 0.357750 0.210500
1.000000 0.357750 0.210500
1.000000 0.357750 0.210500
0.068000 0.412375 0.210500
0.133313 0.412375 0.210500
0.198625 0.412375 0.210500
0.263938 0.412375 0.210500
0.329250 0.412375 0.210500
0.394562 0.412375 0.210500
0.459875 0.412375 0.210500
0.525188 0.412375 0.210500
0.590500 0.412375 0.210500
0.655813 0.412375 0.210500
0.721125 0.412375 0.210500
0.786438 0.412375 0.210500
0.851750 0.412375 0.210500
0.917063 0.412375 0.210500
0.982375 0.412375 0.210500
1.000000 0.412375 0.210500
1.000000 0.412375 0.210500
0.068000 0.467000 0.210500
0.133313 0.467000 0.210500
0.198625 0.467000 0.210500
0.263938 0.467000 0.210500
0.329250 0.467000 0.210500
0.394562 0.467000 0.210500
0.459875 0.467000 0.210500
0.525188 0.467000 0.210500
0.590500 0.467000 0.210500
0.655813 0.467000 0.210500
0.721125 0.467000 0.210500
0.786438 0.467000 0.210500
0.851750 0.467000 0.210500
0.917063 0.467000 0.210500
0.982375 0.467000 0.210500
1.000000 0.467000 0.210500
1.000000 0.467000 0.210500
0.068000 0.521625 0.210500
0.133313 0.521625 0.210500
0.198625 0.521625 0.210500
0.263938 0.521625 0.210500
0.329250 0.521625 0.210500
0.394562 0.521625 0.210500
0.459875 0.521625 0.210500
0.525188 0.521625 0.210500
0.590500 0.521625 0.210500
0.655813 0.521625 0.210500
0.721125 0.521625 0.210500
0.786438 0.521625 0.210500
0.851750 0.521625 0.210500
0.917063 0.521625 0.210500
0.982375 0.521625 0.210500
1.000000 0.521625 0.210500
1.000000 0.521625 0.210500
0.068000 0.576250 0.210500
0.133313 0.576250 0.210500
0.198625 0.576250 0.210500
0.263938 0.576250 0.210500
0.329250 0.576250 0.210500
0.394562 0.576250 0.210500
0.459875 0.576250 0.210500
0.525188 0.576250 0.210500
0.590500 0.576250 0.210500
0.655813 0.576250 0.210500
0.721125 0.576250 0.210500
0.786438 0.576250 0.210500
0.851750 0.576250 0.210500
0.917063 0.576250 0.210500
0.982375 0.576250 0.210500
1.000000 0.576250 0.210500
1.000000 0.576250 0.210500
0.068000 0.630875 0.210500
0.133313 0.630875 0.210500
0.198625 0.630875 0.210500
0.263938 0.630875 0.210500
0.329250 0.630875 0.210500
0.394562 0.630875 0.210500
0.459875 0.630875 0.210500
0.525188 0.630875 0.210500
0.590500 0.630875 0.210500
0.655813 0.630875 0.210500
0.721125 0.630875 0.210500
0.786438 0.630875 0.210500
0.851750 0.630875 0.210500
0.917063 0.630875 0.210500
0.982375 0.630875 0.210500
1.000000 0.630875 0.210500
1.000000 0.630875 0.210500
0.068000 0.685500 0.210500
0.133313 0.685500 0.210500
0.198625 0.685500 0.210500
0.263938 0.685500 0.210500
0.329250 0.685500 0.210500
0.394562 0.685500 0.210500
0.459875 0.685500 0.210500
0.525188 0.685500 0.210500
0.590500 0.685500 0.210500
0.655813 0.685500 0.210500
0.721125 0.685500 0.210500
0.786438 0.685500 0.210500
0.851750 0.685500 0.210500
0.917063 0.685500 0.210500
0.982375 0.685500 0.210500
1.000000 0.685500 0.210500
1.000000 0.685500 0.210500
0.068000 0.740125 0.210500
0.133313 0.740125 0.210500
0.198625 0.740125 0.210500
0.263938 0.740125 0.210500
0.329250 0.740125 0.210500
0.394562 0.740125 0.210500
0.459875 0.740125 0.210500
0.525188 0.740125 0.210500
0.590500 0.740125 0.210500
0.655813 0.740125 0.210500
0.721125 0.740125 0.210500
0.786438 0.740125 0.210500
0.851750 0.740125 0.210500
0.917063 0.740125 0.210500
0.982375 0.740125 0.210500
1.000000 0.740125 0.210500
1.000000 0.740125 0.210500
0.068000 0.794750 0.210500
0.133313 0.794750 0.210500
0.198625 0.794750 0.210500
0.263938 0.794750 0.210500
0.329250 0.794750 0.210500
0.394562 0.794750 0.210500
0.459875 0.794750 0.210500
0.525188 0.794750 0.210500
0.590500 0.794750 0.210500
0.655813 0.794750 0.210500
0.721125 0.794750 0.210500
0.786438 0.794750 0.210500
0.851750 0.794750 0.210500
0.917063 0.794750 0.210500
0.982375 0.794750 0.210500
1.000000 0.794750 0.210500
1.000000 0.794750 0.210500
0.068000 0.849375 0.210500
0.133313 0.849375 0.210500
0.198625 0.849375 0.210500
0.263938 0.849375 0.210500
0.329250 0.849375 0.210500
0.394562 0.849375 0.210500
0.459875 0.849375 0.210500
0.525188 0.849375 0.210500
0.590500 0.849375 0.210500
0.655813 0.849375 0.210500
0.721125 0.849375 0.210500
0.786438 0.849375 0.210500
0.851750 0.849375 0.210500
0.917063 0.849375 0.210500
0.982375 0.849375 0.210500
1.000000 0.849375 0.210500
1.000000 0.849375 0.210500
0.068000 0.904000 0.210500
0.133313 0.904000 0.210500
0.198625 0.904000 0.210500
0.263938 0.904000 0.210500
0.329250 0.904000 0.210500
0.394562 0.904000 0.210500
0.459875 0.904000 0.210500
0.525188 0.904000 0.210500
0.590500 0.904000 0.210500
0.655813 0.904000 0.210500
0.721125 0.904000 0.210500
0.786438 0.904000 0.210500
0.851750 0.904000 0.210500
0.917063 0.904000 0.210500
0.982375 0.904000 0.210500
1.000000 0.904000 0.210500
1.000000 0.904000 0.210500
0.068000 0.030000 0.277000
0.133313 0.030000 0.277000
0.198625 0.030000 0.277000
0.263938 0.030000 0.277000
0.329250 0.030000 0.277000
0.394562 0.030000 0.277000
0.459875 0.030000 0.277000
0.525188 0.030000 0.277000
0.590500 0.030000 0.277000
0.655813 0.030000 0.277000
0.721125 0.030000 0.277000
0.786438 0.030000 0.277000
0.851750 0.030000 0.277000
0.917063 0.030000 0.277000
0.982375 0.030000 0.277000
1.000000 0.030000 0.277000
1.000000 0.030000 0.277000
0.068000 0.084625 0.277000
0.133313 0.084625 0.277000
