web/src-tauri/luts/vaporwave_pink.cube
TITLE "Vaporwave (pink/purple lift)"
LUT_3D_SIZE 9
0.068000 0.030000 0.077500
0.198625 0.030000 0.077500
0.329250 0.030000 0.077500
0.459875 0.030000 0.077500
0.590500 0.030000 0.077500
0.721125 0.030000 0.077500
0.851750 0.030000 0.077500
0.982375 0.030000 0.077500
1.000000 0.030000 0.077500
0.068000 0.139250 0.077500
0.198625 0.139250 0.077500
0.329250 0.139250 0.077500
0.459875 0.139250 0.077500
0.590500 0.139250 0.077500
0.721125 0.139250 0.077500
0.851750 0.139250 0.077500
0.982375 0.139250 0.077500
1.000000 0.139250 0.077500
0.068000 0.248500 0.077500
0.198625 0.248500 0.077500
0.329250 0.248500 0.077500
0.459875 0.248500 0.077500
0.590500 0.248500 0.077500
0.721125 0.248500 0.077500
0.851750 0.248500 0.077500
0.982375 0.248500 0.077500
1.000000 0.248500 0.077500
0.068000 0.357750 0.077500
0.198625 0.357750 0.077500
0.329250 0.357750 0.077500
0.459875 0.357750 0.077500
0.590500 0.357750 0.077500
0.721125 0.357750 0.077500
0.851750 0.357750 0.077500
0.982375 0.357750 0.077500
1.000000 0.357750 0.077500
0.068000 0.467000 0.077500
0.198625 0.467000 0.077500
0.329250 0.467000 0.077500
0.459875 0.467000 0.077500
0.590500 0.467000 0.077500
0.721125 0.467000 0.077500
0.851750 0.467000 0.077500
0.982375 0.467000 0.077500
1.000000 0.467000 0.077500
0.068000 0.576250 0.077500
0.198625 0.576250 0.077500
0.329250 0.576250 0.077500
0.459875 0.576250 0.077500
0.590500 0.576250 0.077500
0.721125 0.576250 0.077500
0.851750 0.576250 0.077500
0.982375 0.576250 0.077500
1.000000 0.576250 0.077500
0.068000 0.685500 0.077500
0.198625 0.685500 0.077500
0.329250 0.685500 0.077500
0.459875 0.685500 0.077500
0.590500 0.685500 0.077500
0.721125 0.685500 0.077500
0.851750 0.685500 0.077500
0.982375 0.685500 0.077500
1.000000 0.685500 0.077500
0.068000 0.794750 0.077500
0.198625 0.794750 0.077500
0.329250 0.794750 0.077500
0.459875 0.794750 0.077500
0.590500 0.794750 0.077500
0.721125 0.794750 0.077500
0.851750 0.794750 0.077500
0.982375 0.794750 0.077500
1.000000 0.794750 0.077500
0.068000 0.904000 0.077500
0.198625 0.904000 0.077500
0.329250 0.904000 0.077500
0.459875 0.904000 0.077500
0.590500 0.904000 0.077500
0.721125 0.904000 0.077500
0.851750 0.904000 0.077500
0.982375 0.904000 0.077500
1.000000 0.904000 0.077500
0.068000 0.030000 0.210500
0.198625 0.030000 0.210500
0.329250 0.030000 0.210500
0.459875 0.030000 0.210500
0.590500 0.030000 0.210500
0.721125 0.030000 0.210500
0.851750 0.030000 0.210500
0.982375 0.030000 0.210500
1.000000 0.030000 0.210500
0.068000 0.139250 0.210500
0.198625 0.139250 0.210500
0.329250 0.139250 0.210500
0.459875 0.139250 0.210500
0.590500 0.139250 0.210500
0.721125 0.139250 0.210500
0.851750 0.139250 0.210500
0.982375 0.139250 0.210500
1.000000 0.139250 0.210500
0.068000 0.248500 0.210500
0.198625 0.248500 0.210500
0.329250 0.248500 0.210500
0.459875 0.248500 0.210500
0.590500 0.248500 0.210500
0.721125 0.248500 0.210500
0.851750 0.248500 0.210500
0.982375 0.248500 0.210500
1.000000 0.248500 0.210500
0.068000 0.357750 0.210500
0.198625 0.357750 0.210500
0.329250 0.357750 0.210500
0.459875 0.357750 0.210500
0.590500 0.357750 0.210500
0.721125 0.357750 0.210500
0.851750 0.357750 0.210500
0.982375 0.357750 0.210500
1.000000 0.357750 0.210500
0.068000 0.467000 0.210500
0.198625 0.467000 0.210500
0.329250 0.467000 0.210500
0.459875 0.467000 0.210500
0.590500 0.467000 0.210500
0.721125 0.467000 0.210500
0.851750 0.467000 0.210500
0.982375 0.467000 0.210500
1.000000 0.467000 0.210500
0.068000 0.576250 0.210500
0.198625 0.576250 0.210500
0.329250 0.576250 0.210500
0.459875 0.576250 0.210500
0.590500 0.576250 0.210500
0.721125 0.576250 0.210500
0.851750 0.576250 0.210500
0.982375 0.576250 0.210500
1.000000 0.576250 0.210500
0.068000 0.685500 0.210500
0.198625 0.685500 0.210500
0.329250 0.685500 0.210500
0.459875 0.685500 0.210500
0.590500 0.685500 0.210500
0.721125 0.685500 0.210500
0.851750 0.685500 0.210500
0.982375 0.685500 0.210500
1.000000 0.685500 0.210500
0.068000 0.794750 0.210500
0.198625 0.794750 0.210500
0.329250 0.794750 0.210500
0.459875 0.794750 0.210500
0.590500 0.794750 0.210500
0.721125 0.794750 0.210500
0.851750 0.794750 0.210500
0.982375 0.794750 0.210500
1.000000 0.794750 0.210500
0.068000 0.904000 0.210500
0.198625 0.904000 0.210500
0.329250 0.904000 0.210500
0.459875 0.904000 0.210500
0.590500 0.904000 0.210500
0.721125 0.904000 0.210500
0.851750 0.904000 0.210500
0.982375 0.904000 0.210500
1.000000 0.904000 0.210500
0.068000 0.030000 0.343500
0.198625 0.030000 0.343500
0.329250 0.030000 0.343500
0.459875 0.030000 0.343500
0.590500 0.030000 0.343500
0.721125 0.030000 0.343500
0.851750 0.030000 0.343500
0.982375 0.030000 0.343500
1.000000 0.030000 0.343500
0.068000 0.139250 0.343500
0.198625 0.139250 0.343500
0.329250 0.139250 0.343500
0.459875 0.139250 0.343500
0.590500 0.139250 0.343500
0.721125 0.139250 0.343500
0.851750 0.139250 0.343500
0.982375 0.139250 0.343500
1.000000 0.139250 0.343500
0.068000 0.248500 0.343500
0.198625 0.248500 0.343500
0.329250 0.248500 0.343500
0.459875 0.248500 0.343500
0.590500 0.248500 0.343500
0.721125 0.248500 0.343500
0.851750 0.248500 0.343500
0.982375 0.248500 0.343500
1.000000 0.248500 0.343500
0.068000 0.357750 0.343500
0.198625 0.357750 0.343500
0.329250 0.357750 0.343500
0.459875 0.357750 0.343500
0.590500 0.357750 0.343500
0.721125 0.357750 0.343500
0.851750 0.357750 0.343500
0.982375 0.357750 0.343500
1.000000 0.357750 0.343500
0.068000 0.467000 0.343500
0.198625 0.467000 0.343500
0.329250 0.467000 0.343500
0.459875 0.467000 0.343500
0.590500 0.467000 0.343500
0.721125 0.467000 0.343500
0.851750 0.467000 0.343500
0.982375 0.467000 0.343500
1.000000 0.467000 0.343500
0.068000 0.576250 0.343500
0.198625 0.576250 0.343500
0.329250 0.576250 0.343500
0.459875 0.576250 0.343500
0.590500 0.576250 0.343500
0.721125 0.576250 0.343500
0.851750 0.576250 0.343500
0.982375 0.576250 0.343500
1.000000 0.576250 0.343500
0.068000 0.685500 0.343500
0.198625 0.685500 0.343500
0.329250 0.685500 0.343500
0.459875 0.685500 0.343500
0.590500 0.685500 0.343500
0.721125 0.685500 0.343500
0.851750 0.685500 0.343500
0.982375 0.685500 0.343500
1.000000 0.685500 0.343500
0.068000 0.794750 0.343500
0.198625 0.794750 0.343500
0.329250 0.794750 0.343500
0.459875 0.794750 0.343500
0.590500 0.794750 0.343500
0.721125 0.794750 0.343500
0.851750 0.794750 0.343500
0.982375 0.794750 0.343500
1.000000 0.794750 0.343500
0.068000 0.904000 0.343500
0.198625 0.904000 0.343500
0.329250 0.904000 0.343500
0.459875 0.904000 0.343500
0.590500 0.904000 0.343500
0.721125 0.904000 0.343500
0.851750 0.904000 0.343500
0.982375 0.904000 0.343500
1.000000 0.904000 0.343500
0.068000 0.030000 0.476500
0.198625 0.030000 0.476500
0.329250 0.030000 0.476500
0.459875 0.030000 0.476500
0.590500 0.030000 0.476500
0.721125 0.030000 0.476500
0.851750 0.030000 0.476500
0.982375 0.030000 0.476500
1.000000 0.030000 0.476500
0.068000 0.139250 0.476500
0.198625 0.139250 0.476500
0.329250 0.139250 0.476500
0.459875 0.139250 0.476500
0.590500 0.139250 0.476500
0.721125 0.139250 0.476500
0.851750 0.139250 0.476500
0.982375 0.139250 0.476500
1.000000 0.139250 0.476500
0.068000 0.248500 0.476500
0.198625 0.248500 0.476500
0.329250 0.248500 0.476500
0.459875 0.248500 0.476500
0.590500 0.248500 0.476500
0.721125 0.248500 0.476500
0.851750 0.248500 0.476500
0.982375 0.248500 0.476500
1.000000 0.248500 0.476500
0.068000 0.357750 0.476500
0.198625 0.357750 0.476500
0.329250 0.357750 0.476500
0.459875 0.357750 0.476500
0.590500 0.357750 0.476500
0.721125 0.357750 0.476500
0.851750 0.357750 0.476500
0.982375 0.357750 0.476500
1.000000 0.357750 0.476500
0.068000 0.467000 0.476500
0.198625 0.467000 0.476500
0.329250 0.467000 0.476500
0.459875 0.467000 0.476500
0.590500 0.467000 0.476500
0.721125 0.467000 0.476500
0.851750 0.467000 0.476500
0.982375 0.467000 0.476500
1.000000 0.467000 0.476500
0.068000 0.576250 0.476500
0.198625 0.576250 0.476500
0.329250 0.576250 0.476500
0.459875 0.576250 0.476500
0.590500 0.576250 0.476500
0.721125 0.576250 0.476500
0.851750 0.576250 0.476500
0.982375 0.576250 0.476500
1.000000 0.576250 0.476500
0.068000 0.685500 0.476500
0.198625 0.685500 0.476500
0.329250 0.685500 0.476500
0.459875 0.685500 0.476500
0.590500 0.685500 0.476500
0.721125 0.685500 0.476500
0.851750 0.685500 0.476500
0.982375 0.685500 0.476500
1.000000 0.685500 0.476500
0.068000 0.794750 0.476500
0.198625 0.794750 0.476500
0.329250 0.794750 0.476500
0.459875 0.794750 0.476500
0.590500 0.794750 0.476500
0.721125 0.794750 0.476500
0.851750 0.794750 0.476500
0.982375 0.794750 0.476500
1.000000 0.794750 0.476500
0.068000 0.904000 0.476500
0.198625 0.904000 0.476500
0.329250 0.904000 0.476500
0.459875 0.904000 0.476500
0.590500 0.904000 0.476500
0.721125 0.904000 0.476500
0.851750 0.904000 0.476500
0.982375 0.904000 0.476500
1.000000 0.904000 0.476500
0.068000 0.030000 0.609500
0.198625 0.030000 0.609500
0.329250 0.030000 0.609500
0.459875 0.030000 0.609500
0.590500 0.030000 0.609500
0.721125 0.030000 0.609500
0.851750 0.030000 0.609500
0.982375 0.030000 0.609500
1.000000 0.030000 0.609500
0.068000 0.139250 0.609500
0.198625 0.139250 0.609500
0.329250 0.139250 0.609500
0.459875 0.139250 0.609500
0.590500 0.139250 0.609500
0.721125 0.139250 0.609500
0.851750 0.139250 0.609500
0.982375 0.139250 0.609500
1.000000 0.139250 0.609500
0.068000 0.248500 0.609500
0.198625 0.248500 0.609500
0.329250 0.248500 0.609500
0.459875 0.248500 0.609500
0.590500 0.248500 0.609500
0.721125 0.248500 0.609500
0.851750 0.248500 0.609500
0.982375 0.248500 0.609500
1.000000 0.248500 0.609500
0.068000 0.357750 0.609500
0.198625 0.357750 0.609500
0.329250 0.357750 0.609500
0.459875 0.357750 0.609500
0.590500 0.357750 0.609500
0.721125 0.357750 0.609500
0.851750 0.357750 0.609500
0.982375 0.357750 0.609500
1.000000 0.357750 0.609500
0.068000 0.467000 0.609500
0.198625 0.467000 0.609500
0.329250 0.467000 0.609500
0.459875 0.467000 0.609500
0.590500 0.467000 0.609500
0.721125 0.467000 0.609500
0.851750 0.467000 0.609500
0.982375 0.467000 0.609500
1.000000 0.467000 0.609500
0.068000 0.576250 0.609500
0.198625 0.576250 0.609500
0.329250 0.576250 0.609500
0.459875 0.576250 0.609500
0.590500 0.576250 0.609500
0.721125 0.576250 0.609500
0.851750 0.576250 0.609500
0.982375 0.576250 0.609500
1.000000 0.576250 0.609500
0.068000 0.685500 0.609500
0.198625 0.685500 0.609500
0.329250 0.685500 0.609500
0.459875 0.685500 0.609500
0.590500 0.685500 0.609500
0.721125 0.685500 0.609500
0.851750 0.685500 0.609500
0.982375 0.685500 0.609500
1.000000 0.685500 0.609500
0.068000 0.794750 0.609500
0.198625 0.794750 0.609500
0.329250 0.794750 0.609500
0.459875 0.794750 0.609500
0.590500 0.794750 0.609500
0.721125 0.794750 0.609500
0.851750 0.794750 0.609500
0.982375 0.794750 0.609500
1.000000 0.794750 0.609500
0.068000 0.904000 0.609500
0.198625 0.904000 0.609500
0.329250 0.904000 0.609500
0.459875 0.904000 0.609500
0.590500 0.904000 0.609500
0.721125 0.904000 0.609500
0.851750 0.904000 0.609500
0.982375 0.904000 0.609500
1.000000 0.904000 0.609500
0.068000 0.030000 0.742500
0.198625 0.030000 0.742500
0.329250 0.030000 0.742500
0.459875 0.030000 0.742500
0.590500 0.030000 0.742500
0.721125 0.030000 0.742500
0.851750 0.030000 0.742500
0.982375 0.030000 0.742500
1.000000 0.030000 0.742500
0.068000 0.139250 0.742500
0.198625 0.139250 0.742500
0.329250 0.139250 0.742500
0.459875 0.139250 0.742500
0.590500 0.139250 0.742500
0.721125 0.139250 0.742500
0.851750 0.139250 0.742500
0.982375 0.139250 0.742500
1.000000 0.139250 0.742500
0.068000 0.248500 0.742500
0.198625 0.248500 0.742500
0.329250 0.248500 0.742500
0.459875 0.248500 0.742500
0.590500 0.248500 0.742500
0.721125 0.248500 0.742500
0.851750 0.248500 0.742500
0.982375 0.248500 0.742500
1.000000 0.248500 0.742500
0.068000 0.357750 0.742500
0.198625 0.357750 0.742500
0.329250 0.357750 0.742500
0.459875 0.357750 0.742500
0.590500 0.357750 0.742500
0.721125 0.357750 0.742500
0.851750 0.357750 0.742500
0.982375 0.357750 0.742500
1.000000 0.357750 0.742500
0.068000 0.467000 0.742500
0.198625 0.467000 0.742500
0.329250 0.467000 0.742500
0.459875 0.467000 0.742500
0.590500 0.467000 0.742500
0.721125 0.467000 0.742500
0.851750 0.467000 0.742500
0.982375 0.467000 0.742500
1.000000 0.467000 0.742500
0.068000 0.576250 0.742500
0.198625 0.576250 0.742500
0.329250 0.576250 0.742500
0.459875 0.576250 0.742500
0.590500 0.576250 0.742500
0.721125 0.576250 0.742500
0.851750 0.576250 0.742500
0.982375 0.576250 0.742500
1.000000 0.576250 0.742500
0.068000 0.685500 0.742500
0.198625 0.685500 0.742500
0.329250 0.685500 0.742500
0.459875 0.685500 0.742500
0.590500 0.685500 0.742500
0.721125 0.685500 0.742500
0.851750 0.685500 0.742500
0.982375 0.685500 0.742500
1.000000 0.685500 0.742500
0.068000 0.794750 0.742500
0.198625 0.794750 0.742500
0.329250 0.794750 0.742500
0.459875 0.794750 0.742500
0.590500 0.794750 0.742500
0.721125 0.794750 0.742500
0.851750 0.794750 0.742500
0.982375 0.794750 0.742500
1.000000 0.794750 0.742500
0.068000 0.904000 0.742500
0.198625 0.904000 0.742500
0.329250 0.904000 0.742500
0.459875 0.904000 0.742500
0.590500 0.904000 0.742500
0.721125 0.904000 0.742500
0.851750 0.904000 0.742500
0.982375 0.904000 0.742500
1.000000 0.904000 0.742500
0.068000 0.030000 0.875500
0.198625 0.030000 0.875500
0.329250 0.030000 0.875500
0.459875 0.030000 0.875500
0.590500 0.030000 0.875500
0.721125 0.030000 0.875500
0.851750 0.030000 0.875500
0.982375 0.030000 0.875500
1.000000 0.030000 0.875500
0.068000 0.139250 0.875500
0.198625 0.139250 0.875500
0.329250 0.139250 0.875500
0.459875 0.139250 0.875500
0.590500 0.139250 0.875500
0.721125 0.139250 0.875500
0.851750 0.139250 0.875500
0.982375 0.139250 0.875500
1.000000 0.139250 0.875500
0.068000 0.248500 0.875500
0.198625 0.248500 0.875500
0.329250 0.248500 0.875500
0.459875 0.248500 0.875500
0.590500 0.248500 0.875500
0.721125 0.248500 0.875500
0.851750 0.248500 0.875500
0.982375 0.248500 0.875500
1.000000 0.248500 0.875500
0.068000 0.357750 0.875500
0.198625 0.357750 0.875500
0.329250 0.357750 0.875500
0.459875 0.357750 0.875500
0.590500 0.357750 0.875500
0.721125 0.357750 0.875500
0.851750 0.357750 0.875500
0.982375 0.357750 0.875500
1.000000 0.357750 0.875500
0.068000 0.467000 0.875500
0.198625 0.467000 0.875500
0.329250 0.467000 0.875500
0.459875 0.467000 0.875500
0.590500 0.467000 0.875500
0.721125 0.467000 0.875500
0.851750 0.467000 0.875500
0.982375 0.467000 0.875500
1.000000 0.467000 0.875500
0.068000 0.576250 0.875500
0.198625 0.576250 0.875500
0.329250 0.576250 0.875500
0.459875 0.576250 0.875500
0.590500 0.576250 0.875500
0.721125 0.576250 0.875500
0.851750 0.576250 0.875500
0.982375 0.576250 0.875500
1.000000 0.576250 0.875500
0.068000 0.685500 0.875500
0.198625 0.685500 0.875500
0.329250 0.685500 0.875500
0.459875 0.685500 0.875500
0.590500 0.685500 0.875500
0.721125 0.685500 0.875500
0.851750 0.685500 0.875500
0.982375 0.685500 0.875500
1.000000 0.685500 0.875500
0.068000 0.794750 0.875500
0.198625 0.794750 0.875500
0.329250 0.794750 0.875500
0.459875 0.794750 0.875500
0.590500 0.794750 0.875500
0.721125 0.794750 0.875500
0.851750 0.794750 0.875500
0.982375 0.794750 0.875500
1.000000 0.794750 0.875500
0.068000 0.904000 0.875500
0.198625 0.904000 0.875500
0.329250 0.904000 0.875500
0.459875 0.904000 0.875500
0.590500 0.904000 0.875500
0.721125 0.904000 0.875500
0.851750 0.904000 0.875500
0.982375 0.904000 0.875500
1.000000 0.904000 0.875500
0.068000 0.030000 1.000000
0.198625 0.030000 1.000000
0.329250 0.030000 1.000000
0.459875 0.030000 1.000000
0.590500 0.030000 1.000000
0.721125 0.030000 1.000000
0.851750 0.030000 1.000000
0.982375 0.030000 1.000000
1.000000 0.030000 1.000000
0.068000 0.139250 1.000000
0.198625 0.139250 1.000000
0.329250 0.139250 1.000000
0.459875 0.139250 1.000000
0.590500 0.139250 1.000000
0.721125 0.139250 1.000000
0.851750 0.139250 1.000000
0.982375 0.139250 1.000000
1.000000 0.139250 1.000000
0.068000 0.248500 1.000000
0.198625 0.248500 1.000000
0.329250 0.248500 1.000000
0.459875 0.248500 1.000000
0.590500 0.248500 1.000000
0.721125 0.248500 1.000000
0.851750 0.248500 1.000000
0.982375 0.248500 1.000000
1.000000 0.248500 1.000000
0.068000 0.357750 1.000000
0.198625 0.357750 1.000000
0.329250 0.357750 1.000000
0.459875 0.357750 1.000000
0.590500 0.357750 1.000000
0.721125 0.357750 1.000000
0.851750 0.357750 1.000000
0.982375 0.357750 1.000000
1.000000 0.357750 1.000000
0.068000 0.467000 1.000000
0.198625 0.467000 1.000000
0.329250 0.467000 1.000000
0.459875 0.467000 1.000000
0.590500 0.467000 1.000000
0.721125 0.467000 1.000000
0.851750 0.467000 1.000000
0.982375 0.467000 1.000000
1.000000 0.467000 1.000000
0.068000 0.576250 1.000000
0.198625 0.576250 1.000000
0.329250 0.576250 1.000000
0.459875 0.576250 1.000000
0.590500 0.576250 1.000000
0.721125 0.576250 1.000000
0.851750 0.576250 1.000000
0.982375 0.576250 1.000000
1.000000 0.576250 1.000000
0.068000 0.685500 1.000000
0.198625 0.685500 1.000000
0.329250 0.685500 1.000000
0.459875 0.685500 1.000000
0.590500 0.685500 1.000000
0.721125 0.685500 1.000000
0.851750 0.685500 1.000000
0.982375 0.685500 1.000000
1.000000 0.685500 1.000000
0.068000 0.794750 1.000000
0.198625 0.794750 1.000000
0.329250 0.794750 1.000000
0.459875 0.794750 1.000000
0.590500 0.794750 1.000000
0.721125 0.794750 1.000000
0.851750 0.794750 1.000000
0.982375 0.794750 1.000000
1.000000 0.794750 1.000000
0.068000 0.904000 1.000000
0.198625 0.904000 1.000000
0.329250 0.904000 1.000000
0.459875 0.904000 1.000000
0.590500 0.904000 1.000000
0.721125 0.904000 1.000000
0.851750 0.904000 1.000000
0.982375 0.904000 1.000000
1.000000 0.904000 1.000000
0.068000 0.030000 1.000000
0.198625 0.030000 1.000000
0.329250 0.030000 1.000000
0.459875 0.030000 1.000000
0.590500 0.030000 1.000000
0.721125 0.030000 1.000000
0.851750 0.030000 1.000000
0.982375 0.030000 1.000000
1.000000 0.030000 1.000000
0.068000 0.139250 1.000000
0.198625 0.139250 1.000000
0.329250 0.139250 1.000000
0.459875 0.139250 1.000000
0.590500 0.139250 1.000000
0.721125 0.139250 1.000000
0.851750 0.139250 1.000000
0.982375 0.139250 1.000000
1.000000 0.139250 1.000000
0.068000 0.248500 1.000000
0.198625 0.248500 1.000000
0.329250 0.248500 1.000000
0.459875 0.248500 1.000000
0.590500 0.248500 1.000000
0.721125 0.248500 1.000000
0.851750 0.248500 1.000000
0.982375 0.248500 1.000000
1.000000 0.248500 1.000000
0.068000 0.357750 1.000000
0.198625 0.357750 1.000000
0.329250 0.357750 1.000000
0.459875 0.357750 1.000000
0.590500 0.357750 1.000000
0.721125 0.357750 1.000000
0.851750 0.357750 1.000000
0.982375 0.357750 1.000000
1.000000 0.357750 1.000000
0.068000 0.467000 1.000000
0.198625 0.467000 1.000000
0.329250 0.467000 1.000000
0.459875 0.467000 1.000000
0.590500 0.467000 1.000000
0.721125 0.467000 1.000000
0.851750 0.467000 1.000000
0.982375 0.467000 1.000000
1.000000 0.467000 1.000000
0.068000 0.576250 1.000000
0.198625 0.576250 1.000000
0.329250 0.576250 1.000000
0.459875 0.576250 1.000000
0.590500 0.576250 1.000000
0.721125 0.576250 1.000000
0.851750 0.576250 1.000000
0.982375 0.576250 1.000000
1.000000 0.576250 1.000000
0.068000 0.685500 1.000000
0.198625 0.685500 1.000000
0.329250 0.685500 1.000000
0.459875 0.685500 1.000000
0.590500 0.685500 1.000000
0.721125 0.685500 1.000000
0.851750 0.685500 1.000000
0.982375 0.685500 1.000000
1.000000 0.685500 1.000000
0.068000 0.794750 1.000000
0.198625 0.794750 1.000000
0.329250 0.794750 1.000000
0.459875 0.794750 1.000000
0.590500 0.794750 1.000000
0.721125 0.794750 1.000000
0.851750 0.794750 1.000000
0.982375 0.794750 1.000000
1.000000 0.794750 1.000000
0.068000 0.904000 1.000000
0.198625 0.904000 1.000000
0.329250 0.904000 1.000000
0.459875 0.904000 1.000000
0.590500 0.904000 1.000000
0.721125 0.904000 1.000000
0.851750 0.904000 1.000000
0.982375 0.904000 1.000000
1.000000 0.904000 1.000000
