web/src-tauri/luts/vaporwave_pink.cube
TITLE "Vaporwave (pink/purple lift)"
LUT_3D_SIZE 5
0.068000 0.030000 0.077500
0.329250 0.030000 0.077500
0.590500 0.030000 0.077500
0.851750 0.030000 0.077500
1.000000 0.030000 0.077500
0.068000 0.248500 0.077500
0.329250 0.248500 0.077500
0.590500 0.248500 0.077500
0.851750 0.248500 0.077500
1.000000 0.248500 0.077500
0.068000 0.467000 0.077500
0.329250 0.467000 0.077500
0.590500 0.467000 0.077500
0.851750 0.467000 0.077500
1.000000 0.467000 0.077500
0.068000 0.685500 0.077500
0.329250 0.685500 0.077500
0.590500 0.685500 0.077500
0.851750 0.685500 0.077500
1.000000 0.685500 0.077500
0.068000 0.904000 0.077500
0.329250 0.904000 0.077500
0.590500 0.904000 0.077500
0.851750 0.904000 0.077500
1.000000 0.904000 0.077500
0.068000 0.030000 0.343500
0.329250 0.030000 0.343500
0.590500 0.030000 0.343500
0.851750 0.030000 0.343500
1.000000 0.030000 0.343500
0.068000 0.248500 0.343500
0.329250 0.248500 0.343500
0.590500 0.248500 0.343500
0.851750 0.248500 0.343500
1.000000 0.248500 0.343500
0.068000 0.467000 0.343500
0.329250 0.467000 0.343500
0.590500 0.467000 0.343500
0.851750 0.467000 0.343500
1.000000 0.467000 0.343500
0.068000 0.685500 0.343500
0.329250 0.685500 0.343500
0.590500 0.685500 0.343500
0.851750 0.685500 0.343500
1.000000 0.685500 0.343500
0.068000 0.904000 0.343500
0.329250 0.904000 0.343500
0.590500 0.904000 0.343500
0.851750 0.904000 0.343500
1.000000 0.904000 0.343500
0.068000 0.030000 0.609500
0.329250 0.030000 0.609500
0.590500 0.030000 0.609500
0.851750 0.030000 0.609500
1.000000 0.030000 0.609500
0.068000 0.248500 0.609500
0.329250 0.248500 0.609500
0.590500 0.248500 0.609500
0.851750 0.248500 0.609500
1.000000 0.248500 0.609500
0.068000 0.467000 0.609500
0.329250 0.467000 0.609500
0.590500 0.467000 0.609500
0.851750 0.467000 0.609500
1.000000 0.467000 0.609500
0.068000 0.685500 0.609500
0.329250 0.685500 0.609500
0.590500 0.685500 0.609500
0.851750 0.685500 0.609500
1.000000 0.685500 0.609500
0.068000 0.904000 0.609500
0.329250 0.904000 0.609500
0.590500 0.904000 0.609500
0.851750 0.904000 0.609500
1.000000 0.904000 0.609500
0.068000 0.030000 0.875500
0.329250 0.030000 0.875500
0.590500 0.030000 0.875500
0.851750 0.030000 0.875500
1.000000 0.030000 0.875500
0.068000 0.248500 0.875500
0.329250 0.248500 0.875500
0.590500 0.248500 0.875500
0.851750 0.248500 0.875500
1.000000 0.248500 0.875500
0.068000 0.467000 0.875500
0.329250 0.467000 0.875500
0.590500 0.467000 0.875500
0.851750 0.467000 0.875500
1.000000 0.467000 0.875500
0.068000 0.685500 0.875500
0.329250 0.685500 0.875500
0.590500 0.685500 0.875500
0.851750 0.685500 0.875500
1.000000 0.685500 0.875500
0.068000 0.904000 0.875500
0.329250 0.904000 0.875500
0.590500 0.904000 0.875500
0.851750 0.904000 0.875500
1.000000 0.904000 0.875500
0.068000 0.030000 1.000000
0.329250 0.030000 1.000000
0.590500 0.030000 1.000000
0.851750 0.030000 1.000000
1.000000 0.030000 1.000000
0.068000 0.248500 1.000000
0.329250 0.248500 1.000000
0.590500 0.248500 1.000000
0.851750 0.248500 1.000000
1.000000 0.248500 1.000000
0.068000 0.467000 1.000000
0.329250 0.467000 1.000000
0.590500 0.467000 1.000000
0.851750 0.467000 1.000000
1.000000 0.467000 1.000000
0.068000 0.685500 1.000000
0.329250 0.685500 1.000000
0.590500 0.685500 1.000000
0.851750 0.685500 1.000000
1.000000 0.685500 1.000000
0.068000 0.904000 1.000000
0.329250 0.904000 1.000000
0.590500 0.904000 1.000000
0.851750 0.904000 1.000000
1.000000 0.904000 1.000000
