web/src-tauri/luts/warm_film.cube
TITLE "Warm Film (golden, lifted blacks)"
LUT_3D_SIZE 5
0.047100 0.035350 0.031500
0.297525 0.035350 0.031500
0.547950 0.035350 0.031500
0.798375 0.035350 0.031500
1.000000 0.035350 0.031500
0.047100 0.273962 0.031500
0.297525 0.273962 0.031500
0.547950 0.273962 0.031500
0.798375 0.273962 0.031500
1.000000 0.273962 0.031500
0.047100 0.512575 0.031500
0.297525 0.512575 0.031500
0.547950 0.512575 0.031500
0.798375 0.512575 0.031500
1.000000 0.512575 0.031500
0.047100 0.751188 0.031500
0.297525 0.751188 0.031500
0.547950 0.751188 0.031500
0.798375 0.751188 0.031500
1.000000 0.751188 0.031500
0.047100 0.989800 0.031500
0.297525 0.989800 0.031500
0.547950 0.989800 0.031500
0.798375 0.989800 0.031500
1.000000 0.989800 0.031500
0.047100 0.035350 0.244125
0.297525 0.035350 0.244125
0.547950 0.035350 0.244125
0.798375 0.035350 0.244125
1.000000 0.035350 0.244125
0.047100 0.273962 0.244125
0.297525 0.273962 0.244125
0.547950 0.273962 0.244125
0.798375 0.273962 0.244125
1.000000 0.273962 0.244125
0.047100 0.512575 0.244125
0.297525 0.512575 0.244125
0.547950 0.512575 0.244125
0.798375 0.512575 0.244125
1.000000 0.512575 0.244125
0.047100 0.751188 0.244125
0.297525 0.751188 0.244125
0.547950 0.751188 0.244125
0.798375 0.751188 0.244125
1.000000 0.751188 0.244125
0.047100 0.989800 0.244125
0.297525 0.989800 0.244125
0.547950 0.989800 0.244125
0.798375 0.989800 0.244125
1.000000 0.989800 0.244125
0.047100 0.035350 0.456750
0.297525 0.035350 0.456750
0.547950 0.035350 0.456750
0.798375 0.035350 0.456750
1.000000 0.035350 0.456750
0.047100 0.273962 0.456750
0.297525 0.273962 0.456750
0.547950 0.273962 0.456750
0.798375 0.273962 0.456750
1.000000 0.273962 0.456750
0.047100 0.512575 0.456750
0.297525 0.512575 0.456750
0.547950 0.512575 0.456750
0.798375 0.512575 0.456750
1.000000 0.512575 0.456750
0.047100 0.751188 0.456750
0.297525 0.751188 0.456750
0.547950 0.751188 0.456750
0.798375 0.751188 0.456750
1.000000 0.751188 0.456750
0.047100 0.989800 0.456750
0.297525 0.989800 0.456750
0.547950 0.989800 0.456750
0.798375 0.989800 0.456750
1.000000 0.989800 0.456750
0.047100 0.035350 0.669375
0.297525 0.035350 0.669375
0.547950 0.035350 0.669375
0.798375 0.035350 0.669375
1.000000 0.035350 0.669375
0.047100 0.273962 0.669375
0.297525 0.273962 0.669375
0.547950 0.273962 0.669375
0.798375 0.273962 0.669375
1.000000 0.273962 0.669375
0.047100 0.512575 0.669375
0.297525 0.512575 0.669375
0.547950 0.512575 0.669375
0.798375 0.512575 0.669375
1.000000 0.512575 0.669375
0.047100 0.751188 0.669375
0.297525 0.751188 0.669375
0.547950 0.751188 0.669375
0.798375 0.751188 0.669375
1.000000 0.751188 0.669375
0.047100 0.989800 0.669375
0.297525 0.989800 0.669375
0.547950 0.989800 0.669375
0.798375 0.989800 0.669375
1.000000 0.989800 0.669375
0.047100 0.035350 0.882000
0.297525 0.035350 0.882000
0.547950 0.035350 0.882000
0.798375 0.035350 0.882000
1.000000 0.035350 0.882000
0.047100 0.273962 0.882000
0.297525 0.273962 0.882000
0.547950 0.273962 0.882000
0.798375 0.273962 0.882000
1.000000 0.273962 0.882000
0.047100 0.512575 0.882000
0.297525 0.512575 0.882000
0.547950 0.512575 0.882000
0.798375 0.512575 0.882000
1.000000 0.512575 0.882000
0.047100 0.751188 0.882000
0.297525 0.751188 0.882000
0.547950 0.751188 0.882000
0.798375 0.751188 0.882000
1.000000 0.751188 0.882000
0.047100 0.989800 0.882000
0.297525 0.989800 0.882000
0.547950 0.989800 0.882000
0.798375 0.989800 0.882000
1.000000 0.989800 0.882000
