web/src-tauri/luts/warm_film.cube
TITLE "Warm Film (golden, lifted blacks)"
LUT_3D_SIZE 17
0.047100 0.035350 0.031500
0.109706 0.035350 0.031500
0.172313 0.035350 0.031500
0.234919 0.035350 0.031500
0.297525 0.035350 0.031500
0.360131 0.035350 0.031500
0.422738 0.035350 0.031500
0.485344 0.035350 0.031500
0.547950 0.035350 0.031500
0.610556 0.035350 0.031500
0.673162 0.035350 0.031500
0.735769 0.035350 0.031500
0.798375 0.035350 0.031500
0.860981 0.035350 0.031500
0.923588 0.035350 0.031500
0.986194 0.035350 0.031500
1.000000 0.035350 0.031500
0.047100 0.095003 0.031500
0.109706 0.095003 0.031500
0.172313 0.095003 0.031500
0.234919 0.095003 0.031500
0.297525 0.095003 0.031500
0.360131 0.095003 0.031500
0.422738 0.095003 0.031500
0.485344 0.095003 0.031500
0.547950 0.095003 0.031500
0.610556 0.095003 0.031500
0.673162 0.095003 0.031500
0.735769 0.095003 0.031500
0.798375 0.095003 0.031500
0.860981 0.095003 0.031500
0.923588 0.095003 0.031500
0.986194 0.095003 0.031500
1.000000 0.095003 0.031500
0.047100 0.154656 0.031500
0.109706 0.154656 0.031500
0.172313 0.154656 0.031500
0.234919 0.154656 0.031500
0.297525 0.154656 0.031500
0.360131 0.154656 0.031500
0.422738 0.154656 0.031500
0.485344 0.154656 0.031500
0.547950 0.154656 0.031500
0.610556 0.154656 0.031500
0.673162 0.154656 0.031500
0.735769 0.154656 0.031500
0.798375 0.154656 0.031500
0.860981 0.154656 0.031500
0.923588 0.154656 0.031500
0.986194 0.154656 0.031500
1.000000 0.154656 0.031500
0.047100 0.214309 0.031500
0.109706 0.214309 0.031500
0.172313 0.214309 0.031500
0.234919 0.214309 0.031500
0.297525 0.214309 0.031500
0.360131 0.214309 0.031500
0.422738 0.214309 0.031500
0.485344 0.214309 0.031500
0.547950 0.214309 0.031500
0.610556 0.214309 0.031500
0.673162 0.214309 0.031500
0.735769 0.214309 0.031500
0.798375 0.214309 0.031500
0.860981 0.214309 0.031500
0.923588 0.214309 0.031500
0.986194 0.214309 0.031500
1.000000 0.214309 0.031500
0.047100 0.273962 0.031500
0.109706 0.273962 0.031500
0.172313 0.273962 0.031500
0.234919 0.273962 0.031500
0.297525 0.273962 0.031500
0.360131 0.273962 0.031500
0.422738 0.273962 0.031500
0.485344 0.273962 0.031500
0.547950 0.273962 0.031500
0.610556 0.273962 0.031500
0.673162 0.273962 0.031500
0.735769 0.273962 0.031500
0.798375 0.273962 0.031500
0.860981 0.273962 0.031500
0.923588 0.273962 0.031500
0.986194 0.273962 0.031500
1.000000 0.273962 0.031500
0.047100 0.333616 0.031500
0.109706 0.333616 0.031500
0.172313 0.333616 0.031500
0.234919 0.333616 0.031500
0.297525 0.333616 0.031500
0.360131 0.333616 0.031500
0.422738 0.333616 0.031500
0.485344 0.333616 0.031500
0.547950 0.333616 0.031500
0.610556 0.333616 0.031500
0.673162 0.333616 0.031500
0.735769 0.333616 0.031500
0.798375 0.333616 0.031500
0.860981 0.333616 0.031500
0.923588 0.333616 0.031500
0.986194 0.333616 0.031500
1.000000 0.333616 0.031500
0.047100 0.393269 0.031500
0.109706 0.393269 0.031500
0.172313 0.393269 0.031500
0.234919 0.393269 0.031500
0.297525 0.393269 0.031500
0.360131 0.393269 0.031500
0.422738 0.393269 0.031500
0.485344 0.393269 0.031500
0.547950 0.393269 0.031500
0.610556 0.393269 0.031500
0.673162 0.393269 0.031500
0.735769 0.393269 0.031500
0.798375 0.393269 0.031500
0.860981 0.393269 0.031500
0.923588 0.393269 0.031500
0.986194 0.393269 0.031500
1.000000 0.393269 0.031500
0.047100 0.452922 0.031500
0.109706 0.452922 0.031500
0.172313 0.452922 0.031500
0.234919 0.452922 0.031500
0.297525 0.452922 0.031500
0.360131 0.452922 0.031500
0.422738 0.452922 0.031500
0.485344 0.452922 0.031500
0.547950 0.452922 0.031500
0.610556 0.452922 0.031500
0.673162 0.452922 0.031500
0.735769 0.452922 0.031500
0.798375 0.452922 0.031500
0.860981 0.452922 0.031500
0.923588 0.452922 0.031500
0.986194 0.452922 0.031500
1.000000 0.452922 0.031500
0.047100 0.512575 0.031500
0.109706 0.512575 0.031500
0.172313 0.512575 0.031500
0.234919 0.512575 0.031500
0.297525 0.512575 0.031500
0.360131 0.512575 0.031500
0.422738 0.512575 0.031500
0.485344 0.512575 0.031500
0.547950 0.512575 0.031500
0.610556 0.512575 0.031500
0.673162 0.512575 0.031500
0.735769 0.512575 0.031500
0.798375 0.512575 0.031500
0.860981 0.512575 0.031500
0.923588 0.512575 0.031500
0.986194 0.512575 0.031500
1.000000 0.512575 0.031500
0.047100 0.572228 0.031500
0.109706 0.572228 0.031500
0.172313 0.572228 0.031500
0.234919 0.572228 0.031500
0.297525 0.572228 0.031500
0.360131 0.572228 0.031500
0.422738 0.572228 0.031500
0.485344 0.572228 0.031500
0.547950 0.572228 0.031500
0.610556 0.572228 0.031500
0.673162 0.572228 0.031500
0.735769 0.572228 0.031500
0.798375 0.572228 0.031500
0.860981 0.572228 0.031500
0.923588 0.572228 0.031500
0.986194 0.572228 0.031500
1.000000 0.572228 0.031500
0.047100 0.631881 0.031500
0.109706 0.631881 0.031500
0.172313 0.631881 0.031500
0.234919 0.631881 0.031500
0.297525 0.631881 0.031500
0.360131 0.631881 0.031500
0.422738 0.631881 0.031500
0.485344 0.631881 0.031500
0.547950 0.631881 0.031500
0.610556 0.631881 0.031500
0.673162 0.631881 0.031500
0.735769 0.631881 0.031500
0.798375 0.631881 0.031500
0.860981 0.631881 0.031500
0.923588 0.631881 0.031500
0.986194 0.631881 0.031500
1.000000 0.631881 0.031500
0.047100 0.691534 0.031500
0.109706 0.691534 0.031500
0.172313 0.691534 0.031500
0.234919 0.691534 0.031500
0.297525 0.691534 0.031500
0.360131 0.691534 0.031500
0.422738 0.691534 0.031500
0.485344 0.691534 0.031500
0.547950 0.691534 0.031500
0.610556 0.691534 0.031500
0.673162 0.691534 0.031500
0.735769 0.691534 0.031500
0.798375 0.691534 0.031500
0.860981 0.691534 0.031500
0.923588 0.691534 0.031500
0.986194 0.691534 0.031500
1.000000 0.691534 0.031500
0.047100 0.751188 0.031500
0.109706 0.751188 0.031500
0.172313 0.751188 0.031500
0.234919 0.751188 0.031500
0.297525 0.751188 0.031500
0.360131 0.751188 0.031500
0.422738 0.751188 0.031500
0.485344 0.751188 0.031500
0.547950 0.751188 0.031500
0.610556 0.751188 0.031500
0.673162 0.751188 0.031500
0.735769 0.751188 0.031500
0.798375 0.751188 0.031500
0.860981 0.751188 0.031500
0.923588 0.751188 0.031500
0.986194 0.751188 0.031500
1.000000 0.751188 0.031500
0.047100 0.810841 0.031500
0.109706 0.810841 0.031500
0.172313 0.810841 0.031500
0.234919 0.810841 0.031500
0.297525 0.810841 0.031500
0.360131 0.810841 0.031500
0.422738 0.810841 0.031500
0.485344 0.810841 0.031500
0.547950 0.810841 0.031500
0.610556 0.810841 0.031500
0.673162 0.810841 0.031500
0.735769 0.810841 0.031500
0.798375 0.810841 0.031500
0.860981 0.810841 0.031500
0.923588 0.810841 0.031500
0.986194 0.810841 0.031500
1.000000 0.810841 0.031500
0.047100 0.870494 0.031500
0.109706 0.870494 0.031500
0.172313 0.870494 0.031500
0.234919 0.870494 0.031500
0.297525 0.870494 0.031500
0.360131 0.870494 0.031500
0.422738 0.870494 0.031500
0.485344 0.870494 0.031500
0.547950 0.870494 0.031500
0.610556 0.870494 0.031500
0.673162 0.870494 0.031500
0.735769 0.870494 0.031500
0.798375 0.870494 0.031500
0.860981 0.870494 0.031500
0.923588 0.870494 0.031500
0.986194 0.870494 0.031500
1.000000 0.870494 0.031500
0.047100 0.930147 0.031500
0.109706 0.930147 0.031500
0.172313 0.930147 0.031500
0.234919 0.930147 0.031500
0.297525 0.930147 0.031500
0.360131 0.930147 0.031500
0.422738 0.930147 0.031500
0.485344 0.930147 0.031500
0.547950 0.930147 0.031500
0.610556 0.930147 0.031500
0.673162 0.930147 0.031500
0.735769 0.930147 0.031500
0.798375 0.930147 0.031500
0.860981 0.930147 0.031500
0.923588 0.930147 0.031500
0.986194 0.930147 0.031500
1.000000 0.930147 0.031500
0.047100 0.989800 0.031500
0.109706 0.989800 0.031500
0.172313 0.989800 0.031500
0.234919 0.989800 0.031500
0.297525 0.989800 0.031500
0.360131 0.989800 0.031500
0.422738 0.989800 0.031500
0.485344 0.989800 0.031500
0.547950 0.989800 0.031500
0.610556 0.989800 0.031500
0.673162 0.989800 0.031500
0.735769 0.989800 0.031500
0.798375 0.989800 0.031500
0.860981 0.989800 0.031500
0.923588 0.989800 0.031500
0.986194 0.989800 0.031500
1.000000 0.989800 0.031500
0.047100 0.035350 0.084656
0.109706 0.035350 0.084656
0.172313 0.035350 0.084656
0.234919 0.035350 0.084656
0.297525 0.035350 0.084656
0.360131 0.035350 0.084656
0.422738 0.035350 0.084656
0.485344 0.035350 0.084656
0.547950 0.035350 0.084656
0.610556 0.035350 0.084656
0.673162 0.035350 0.084656
0.735769 0.035350 0.084656
0.798375 0.035350 0.084656
0.860981 0.035350 0.084656
0.923588 0.035350 0.084656
0.986194 0.035350 0.084656
1.000000 0.035350 0.084656
0.047100 0.095003 0.084656
0.109706 0.095003 0.084656
0.172313 0.095003 0.084656
0.234919 0.095003 0.084656
0.297525 0.095003 0.084656
0.360131 0.095003 0.084656
0.422738 0.095003 0.084656
0.485344 0.095003 0.084656
0.547950 0.095003 0.084656
0.610556 0.095003 0.084656
0.673162 0.095003 0.084656
0.735769 0.095003 0.084656
0.798375 0.095003 0.084656
0.860981 0.095003 0.084656
0.923588 0.095003 0.084656
0.986194 0.095003 0.084656
1.000000 0.095003 0.084656
0.047100 0.154656 0.084656
0.109706 0.154656 0.084656
0.172313 0.154656 0.084656
0.234919 0.154656 0.084656
0.297525 0.154656 0.084656
0.360131 0.154656 0.084656
0.422738 0.154656 0.084656
0.485344 0.154656 0.084656
0.547950 0.154656 0.084656
0.610556 0.154656 0.084656
0.673162 0.154656 0.084656
0.735769 0.154656 0.084656
0.798375 0.154656 0.084656
0.860981 0.154656 0.084656
0.923588 0.154656 0.084656
0.986194 0.154656 0.084656
1.000000 0.154656 0.084656
0.047100 0.214309 0.084656
0.109706 0.214309 0.084656
0.172313 0.214309 0.084656
0.234919 0.214309 0.084656
0.297525 0.214309 0.084656
0.360131 0.214309 0.084656
0.422738 0.214309 0.084656
0.485344 0.214309 0.084656
0.547950 0.214309 0.084656
0.610556 0.214309 0.084656
0.673162 0.214309 0.084656
0.735769 0.214309 0.084656
0.798375 0.214309 0.084656
0.860981 0.214309 0.084656
0.923588 0.214309 0.084656
0.986194 0.214309 0.084656
1.000000 0.214309 0.084656
0.047100 0.273962 0.084656
0.109706 0.273962 0.084656
0.172313 0.273962 0.084656
0.234919 0.273962 0.084656
0.297525 0.273962 0.084656
0.360131 0.273962 0.084656
0.422738 0.273962 0.084656
0.485344 0.273962 0.084656
0.547950 0.273962 0.084656
0.610556 0.273962 0.084656
0.673162 0.273962 0.084656
0.735769 0.273962 0.084656
0.798375 0.273962 0.084656
0.860981 0.273962 0.084656
0.923588 0.273962 0.084656
0.986194 0.273962 0.084656
1.000000 0.273962 0.084656
0.047100 0.333616 0.084656
0.109706 0.333616 0.084656
0.172313 0.333616 0.084656
0.234919 0.333616 0.084656
0.297525 0.333616 0.084656
0.360131 0.333616 0.084656
0.422738 0.333616 0.084656
0.485344 0.333616 0.084656
0.547950 0.333616 0.084656
0.610556 0.333616 0.084656
0.673162 0.333616 0.084656
0.735769 0.333616 0.084656
0.798375 0.333616 0.084656
0.860981 0.333616 0.084656
0.923588 0.333616 0.084656
0.986194 0.333616 0.084656
1.000000 0.333616 0.084656
0.047100 0.393269 0.084656
0.109706 0.393269 0.084656
0.172313 0.393269 0.084656
0.234919 0.393269 0.084656
0.297525 0.393269 0.084656
0.360131 0.393269 0.084656
0.422738 0.393269 0.084656
0.485344 0.393269 0.084656
0.547950 0.393269 0.084656
0.610556 0.393269 0.084656
0.673162 0.393269 0.084656
0.735769 0.393269 0.084656
0.798375 0.393269 0.084656
0.860981 0.393269 0.084656
0.923588 0.393269 0.084656
0.986194 0.393269 0.084656
1.000000 0.393269 0.084656
0.047100 0.452922 0.084656
0.109706 0.452922 0.084656
0.172313 0.452922 0.084656
0.234919 0.452922 0.084656
0.297525 0.452922 0.084656
0.360131 0.452922 0.084656
0.422738 0.452922 0.084656
0.485344 0.452922 0.084656
0.547950 0.452922 0.084656
0.610556 0.452922 0.084656
0.673162 0.452922 0.084656
0.735769 0.452922 0.084656
0.798375 0.452922 0.084656
0.860981 0.452922 0.084656
0.923588 0.452922 0.084656
0.986194 0.452922 0.084656
1.000000 0.452922 0.084656
0.047100 0.512575 0.084656
0.109706 0.512575 0.084656
0.172313 0.512575 0.084656
0.234919 0.512575 0.084656
0.297525 0.512575 0.084656
0.360131 0.512575 0.084656
0.422738 0.512575 0.084656
0.485344 0.512575 0.084656
0.547950 0.512575 0.084656
0.610556 0.512575 0.084656
0.673162 0.512575 0.084656
0.735769 0.512575 0.084656
0.798375 0.512575 0.084656
0.860981 0.512575 0.084656
0.923588 0.512575 0.084656
0.986194 0.512575 0.084656
1.000000 0.512575 0.084656
0.047100 0.572228 0.084656
0.109706 0.572228 0.084656
0.172313 0.572228 0.084656
0.234919 0.572228 0.084656
0.297525 0.572228 0.084656
0.360131 0.572228 0.084656
0.422738 0.572228 0.084656
0.485344 0.572228 0.084656
0.547950 0.572228 0.084656
0.610556 0.572228 0.084656
0.673162 0.572228 0.084656
0.735769 0.572228 0.084656
0.798375 0.572228 0.084656
0.860981 0.572228 0.084656
0.923588 0.572228 0.084656
0.986194 0.572228 0.084656
1.000000 0.572228 0.084656
0.047100 0.631881 0.084656
0.109706 0.631881 0.084656
0.172313 0.631881 0.084656
0.234919 0.631881 0.084656
0.297525 0.631881 0.084656
0.360131 0.631881 0.084656
0.422738 0.631881 0.084656
0.485344 0.631881 0.084656
0.547950 0.631881 0.084656
0.610556 0.631881 0.084656
0.673162 0.631881 0.084656
0.735769 0.631881 0.084656
0.798375 0.631881 0.084656
0.860981 0.631881 0.084656
0.923588 0.631881 0.084656
0.986194 0.631881 0.084656
1.000000 0.631881 0.084656
0.047100 0.691534 0.084656
0.109706 0.691534 0.084656
0.172313 0.691534 0.084656
0.234919 0.691534 0.084656
0.297525 0.691534 0.084656
0.360131 0.691534 0.084656
0.422738 0.691534 0.084656
0.485344 0.691534 0.084656
0.547950 0.691534 0.084656
0.610556 0.691534 0.084656
0.673162 0.691534 0.084656
0.735769 0.691534 0.084656
0.798375 0.691534 0.084656
0.860981 0.691534 0.084656
0.923588 0.691534 0.084656
0.986194 0.691534 0.084656
1.000000 0.691534 0.084656
0.047100 0.751188 0.084656
0.109706 0.751188 0.084656
0.172313 0.751188 0.084656
0.234919 0.751188 0.084656
0.297525 0.751188 0.084656
0.360131 0.751188 0.084656
0.422738 0.751188 0.084656
0.485344 0.751188 0.084656
0.547950 0.751188 0.084656
0.610556 0.751188 0.084656
0.673162 0.751188 0.084656
0.735769 0.751188 0.084656
0.798375 0.751188 0.084656
0.860981 0.751188 0.084656
0.923588 0.751188 0.084656
0.986194 0.751188 0.084656
1.000000 0.751188 0.084656
0.047100 0.810841 0.084656
0.109706 0.810841 0.084656
0.172313 0.810841 0.084656
0.234919 0.810841 0.084656
0.297525 0.810841 0.084656
0.360131 0.810841 0.084656
0.422738 0.810841 0.084656
0.485344 0.810841 0.084656
0.547950 0.810841 0.084656
0.610556 0.810841 0.084656
0.673162 0.810841 0.084656
0.735769 0.810841 0.084656
0.798375 0.810841 0.084656
0.860981 0.810841 0.084656
0.923588 0.810841 0.084656
0.986194 0.810841 0.084656
1.000000 0.810841 0.084656
0.047100 0.870494 0.084656
0.109706 0.870494 0.084656
0.172313 0.870494 0.084656
0.234919 0.870494 0.084656
0.297525 0.870494 0.084656
0.360131 0.870494 0.084656
0.422738 0.870494 0.084656
0.485344 0.870494 0.084656
0.547950 0.870494 0.084656
0.610556 0.870494 0.084656
0.673162 0.870494 0.084656
0.735769 0.870494 0.084656
0.798375 0.870494 0.084656
0.860981 0.870494 0.084656
0.923588 0.870494 0.084656
0.986194 0.870494 0.084656
1.000000 0.870494 0.084656
0.047100 0.930147 0.084656
0.109706 0.930147 0.084656
0.172313 0.930147 0.084656
0.234919 0.930147 0.084656
0.297525 0.930147 0.084656
0.360131 0.930147 0.084656
0.422738 0.930147 0.084656
0.485344 0.930147 0.084656
0.547950 0.930147 0.084656
0.610556 0.930147 0.084656
0.673162 0.930147 0.084656
0.735769 0.930147 0.084656
0.798375 0.930147 0.084656
0.860981 0.930147 0.084656
0.923588 0.930147 0.084656
0.986194 0.930147 0.084656
1.000000 0.930147 0.084656
0.047100 0.989800 0.084656
0.109706 0.989800 0.084656
0.172313 0.989800 0.084656
0.234919 0.989800 0.084656
0.297525 0.989800 0.084656
0.360131 0.989800 0.084656
0.422738 0.989800 0.084656
0.485344 0.989800 0.084656
0.547950 0.989800 0.084656
0.610556 0.989800 0.084656
0.673162 0.989800 0.084656
0.735769 0.989800 0.084656
0.798375 0.989800 0.084656
0.860981 0.989800 0.084656
0.923588 0.989800 0.084656
0.986194 0.989800 0.084656
1.000000 0.989800 0.084656
0.047100 0.035350 0.137813
0.109706 0.035350 0.137813
0.172313 0.035350 0.137813
0.234919 0.035350 0.137813
0.297525 0.035350 0.137813
0.360131 0.035350 0.137813
0.422738 0.035350 0.137813
0.485344 0.035350 0.137813
0.547950 0.035350 0.137813
0.610556 0.035350 0.137813
0.673162 0.035350 0.137813
0.735769 0.035350 0.137813
0.798375 0.035350 0.137813
0.860981 0.035350 0.137813
0.923588 0.035350 0.137813
0.986194 0.035350 0.137813
1.000000 0.035350 0.137813
0.047100 0.095003 0.137813
0.109706 0.095003 0.137813
0.172313 0.095003 0.137813
0.234919 0.095003 0.137813
0.297525 0.095003 0.137813
0.360131 0.095003 0.137813
0.422738 0.095003 0.137813
0.485344 0.095003 0.137813
0.547950 0.095003 0.137813
0.610556 0.095003 0.137813
0.673162 0.095003 0.137813
0.735769 0.095003 0.137813
0.798375 0.095003 0.137813
0.860981 0.095003 0.137813
0.923588 0.095003 0.137813
0.986194 0.095003 0.137813
1.000000 0.095003 0.137813
0.047100 0.154656 0.137813
0.109706 0.154656 0.137813
0.172313 0.154656 0.137813
0.234919 0.154656 0.137813
0.297525 0.154656 0.137813
0.360131 0.154656 0.137813
0.422738 0.154656 0.137813
0.485344 0.154656 0.137813
0.547950 0.154656 0.137813
0.610556 0.154656 0.137813
0.673162 0.154656 0.137813
0.735769 0.154656 0.137813
0.798375 0.154656 0.137813
0.860981 0.154656 0.137813
0.923588 0.154656 0.137813
0.986194 0.154656 0.137813
1.000000 0.154656 0.137813
0.047100 0.214309 0.137813
0.109706 0.214309 0.137813
0.172313 0.214309 0.137813
0.234919 0.214309 0.137813
0.297525 0.214309 0.137813
0.360131 0.214309 0.137813
0.422738 0.214309 0.137813
0.485344 0.214309 0.137813
0.547950 0.214309 0.137813
0.610556 0.214309 0.137813
0.673162 0.214309 0.137813
0.735769 0.214309 0.137813
0.798375 0.214309 0.137813
0.860981 0.214309 0.137813
0.923588 0.214309 0.137813
0.986194 0.214309 0.137813
1.000000 0.214309 0.137813
0.047100 0.273962 0.137813
0.109706 0.273962 0.137813
0.172313 0.273962 0.137813
0.234919 0.273962 0.137813
0.297525 0.273962 0.137813
0.360131 0.273962 0.137813
0.422738 0.273962 0.137813
0.485344 0.273962 0.137813
0.547950 0.273962 0.137813
0.610556 0.273962 0.137813
0.673162 0.273962 0.137813
0.735769 0.273962 0.137813
0.798375 0.273962 0.137813
0.860981 0.273962 0.137813
0.923588 0.273962 0.137813
0.986194 0.273962 0.137813
1.000000 0.273962 0.137813
0.047100 0.333616 0.137813
0.109706 0.333616 0.137813
0.172313 0.333616 0.137813
0.234919 0.333616 0.137813
0.297525 0.333616 0.137813
0.360131 0.333616 0.137813
0.422738 0.333616 0.137813
0.485344 0.333616 0.137813
0.547950 0.333616 0.137813
0.610556 0.333616 0.137813
0.673162 0.333616 0.137813
0.735769 0.333616 0.137813
0.798375 0.333616 0.137813
0.860981 0.333616 0.137813
0.923588 0.333616 0.137813
0.986194 0.333616 0.137813
1.000000 0.333616 0.137813
0.047100 0.393269 0.137813
0.109706 0.393269 0.137813
0.172313 0.393269 0.137813
0.234919 0.393269 0.137813
0.297525 0.393269 0.137813
0.360131 0.393269 0.137813
0.422738 0.393269 0.137813
0.485344 0.393269 0.137813
0.547950 0.393269 0.137813
0.610556 0.393269 0.137813
0.673162 0.393269 0.137813
0.735769 0.393269 0.137813
0.798375 0.393269 0.137813
0.860981 0.393269 0.137813
0.923588 0.393269 0.137813
0.986194 0.393269 0.137813
1.000000 0.393269 0.137813
0.047100 0.452922 0.137813
0.109706 0.452922 0.137813
0.172313 0.452922 0.137813
0.234919 0.452922 0.137813
0.297525 0.452922 0.137813
0.360131 0.452922 0.137813
0.422738 0.452922 0.137813
0.485344 0.452922 0.137813
0.547950 0.452922 0.137813
0.610556 0.452922 0.137813
0.673162 0.452922 0.137813
0.735769 0.452922 0.137813
0.798375 0.452922 0.137813
0.860981 0.452922 0.137813
0.923588 0.452922 0.137813
0.986194 0.452922 0.137813
1.000000 0.452922 0.137813
0.047100 0.512575 0.137813
0.109706 0.512575 0.137813
0.172313 0.512575 0.137813
0.234919 0.512575 0.137813
0.297525 0.512575 0.137813
0.360131 0.512575 0.137813
0.422738 0.512575 0.137813
0.485344 0.512575 0.137813
0.547950 0.512575 0.137813
0.610556 0.512575 0.137813
0.673162 0.512575 0.137813
0.735769 0.512575 0.137813
0.798375 0.512575 0.137813
0.860981 0.512575 0.137813
0.923588 0.512575 0.137813
0.986194 0.512575 0.137813
1.000000 0.512575 0.137813
0.047100 0.572228 0.137813
0.109706 0.572228 0.137813
0.172313 0.572228 0.137813
0.234919 0.572228 0.137813
0.297525 0.572228 0.137813
0.360131 0.572228 0.137813
0.422738 0.572228 0.137813
0.485344 0.572228 0.137813
0.547950 0.572228 0.137813
0.610556 0.572228 0.137813
0.673162 0.572228 0.137813
0.735769 0.572228 0.137813
0.798375 0.572228 0.137813
0.860981 0.572228 0.137813
0.923588 0.572228 0.137813
0.986194 0.572228 0.137813
1.000000 0.572228 0.137813
0.047100 0.631881 0.137813
0.109706 0.631881 0.137813
0.172313 0.631881 0.137813
0.234919 0.631881 0.137813
0.297525 0.631881 0.137813
0.360131 0.631881 0.137813
0.422738 0.631881 0.137813
0.485344 0.631881 0.137813
0.547950 0.631881 0.137813
0.610556 0.631881 0.137813
0.673162 0.631881 0.137813
0.735769 0.631881 0.137813
0.798375 0.631881 0.137813
0.860981 0.631881 0.137813
0.923588 0.631881 0.137813
0.986194 0.631881 0.137813
1.000000 0.631881 0.137813
0.047100 0.691534 0.137813
0.109706 0.691534 0.137813
0.172313 0.691534 0.137813
0.234919 0.691534 0.137813
0.297525 0.691534 0.137813
0.360131 0.691534 0.137813
0.422738 0.691534 0.137813
0.485344 0.691534 0.137813
0.547950 0.691534 0.137813
0.610556 0.691534 0.137813
0.673162 0.691534 0.137813
0.735769 0.691534 0.137813
0.798375 0.691534 0.137813
0.860981 0.691534 0.137813
0.923588 0.691534 0.137813
0.986194 0.691534 0.137813
1.000000 0.691534 0.137813
0.047100 0.751188 0.137813
0.109706 0.751188 0.137813
0.172313 0.751188 0.137813
0.234919 0.751188 0.137813
0.297525 0.751188 0.137813
0.360131 0.751188 0.137813
0.422738 0.751188 0.137813
0.485344 0.751188 0.137813
0.547950 0.751188 0.137813
0.610556 0.751188 0.137813
0.673162 0.751188 0.137813
0.735769 0.751188 0.137813
0.798375 0.751188 0.137813
0.860981 0.751188 0.137813
0.923588 0.751188 0.137813
0.986194 0.751188 0.137813
1.000000 0.751188 0.137813
0.047100 0.810841 0.137813
0.109706 0.810841 0.137813
0.172313 0.810841 0.137813
0.234919 0.810841 0.137813
0.297525 0.810841 0.137813
0.360131 0.810841 0.137813
0.422738 0.810841 0.137813
0.485344 0.810841 0.137813
0.547950 0.810841 0.137813
0.610556 0.810841 0.137813
0.673162 0.810841 0.137813
0.735769 0.810841 0.137813
0.798375 0.810841 0.137813
0.860981 0.810841 0.137813
0.923588 0.810841 0.137813
0.986194 0.810841 0.137813
1.000000 0.810841 0.137813
0.047100 0.870494 0.137813
0.109706 0.870494 0.137813
0.172313 0.870494 0.137813
0.234919 0.870494 0.137813
0.297525 0.870494 0.137813
0.360131 0.870494 0.137813
0.422738 0.870494 0.137813
0.485344 0.870494 0.137813
0.547950 0.870494 0.137813
0.610556 0.870494 0.137813
0.673162 0.870494 0.137813
0.735769 0.870494 0.137813
0.798375 0.870494 0.137813
0.860981 0.870494 0.137813
0.923588 0.870494 0.137813
0.986194 0.870494 0.137813
1.000000 0.870494 0.137813
0.047100 0.930147 0.137813
0.109706 0.930147 0.137813
0.172313 0.930147 0.137813
0.234919 0.930147 0.137813
0.297525 0.930147 0.137813
0.360131 0.930147 0.137813
0.422738 0.930147 0.137813
0.485344 0.930147 0.137813
0.547950 0.930147 0.137813
0.610556 0.930147 0.137813
0.673162 0.930147 0.137813
0.735769 0.930147 0.137813
0.798375 0.930147 0.137813
0.860981 0.930147 0.137813
0.923588 0.930147 0.137813
0.986194 0.930147 0.137813
1.000000 0.930147 0.137813
0.047100 0.989800 0.137813
0.109706 0.989800 0.137813
0.172313 0.989800 0.137813
0.234919 0.989800 0.137813
0.297525 0.989800 0.137813
0.360131 0.989800 0.137813
0.422738 0.989800 0.137813
0.485344 0.989800 0.137813
0.547950 0.989800 0.137813
0.610556 0.989800 0.137813
0.673162 0.989800 0.137813
0.735769 0.989800 0.137813
0.798375 0.989800 0.137813
0.860981 0.989800 0.137813
0.923588 0.989800 0.137813
0.986194 0.989800 0.137813
1.000000 0.989800 0.137813
0.047100 0.035350 0.190969
0.109706 0.035350 0.190969
0.172313 0.035350 0.190969
0.234919 0.035350 0.190969
0.297525 0.035350 0.190969
0.360131 0.035350 0.190969
0.422738 0.035350 0.190969
0.485344 0.035350 0.190969
0.547950 0.035350 0.190969
0.610556 0.035350 0.190969
0.673162 0.035350 0.190969
0.735769 0.035350 0.190969
0.798375 0.035350 0.190969
0.860981 0.035350 0.190969
0.923588 0.035350 0.190969
0.986194 0.035350 0.190969
1.000000 0.035350 0.190969
0.047100 0.095003 0.190969
0.109706 0.095003 0.190969
