web/src-tauri/luts/warm_film.cube
TITLE "Warm Film (golden, lifted blacks)"
LUT_3D_SIZE 9
0.047100 0.035350 0.031500
0.172313 0.035350 0.031500
0.297525 0.035350 0.031500
0.422738 0.035350 0.031500
0.547950 0.035350 0.031500
0.673162 0.035350 0.031500
0.798375 0.035350 0.031500
0.923588 0.035350 0.031500
1.000000 0.035350 0.031500
0.047100 0.154656 0.031500
0.172313 0.154656 0.031500
0.297525 0.154656 0.031500
0.422738 0.154656 0.031500
0.547950 0.154656 0.031500
0.673162 0.154656 0.031500
0.798375 0.154656 0.031500
0.923588 0.154656 0.031500
1.000000 0.154656 0.031500
0.047100 0.273962 0.031500
0.172313 0.273962 0.031500
0.297525 0.273962 0.031500
0.422738 0.273962 0.031500
0.547950 0.273962 0.031500
0.673162 0.273962 0.031500
0.798375 0.273962 0.031500
0.923588 0.273962 0.031500
1.000000 0.273962 0.031500
0.047100 0.393269 0.031500
0.172313 0.393269 0.031500
0.297525 0.393269 0.031500
0.422738 0.393269 0.031500
0.547950 0.393269 0.031500
0.673162 0.393269 0.031500
0.798375 0.393269 0.031500
0.923588 0.393269 0.031500
1.000000 0.393269 0.031500
0.047100 0.512575 0.031500
0.172313 0.512575 0.031500
0.297525 0.512575 0.031500
0.422738 0.512575 0.031500
0.547950 0.512575 0.031500
0.673162 0.512575 0.031500
0.798375 0.512575 0.031500
0.923588 0.512575 0.031500
1.000000 0.512575 0.031500
0.047100 0.631881 0.031500
0.172313 0.631881 0.031500
0.297525 0.631881 0.031500
0.422738 0.631881 0.031500
0.547950 0.631881 0.031500
0.673162 0.631881 0.031500
0.798375 0.631881 0.031500
0.923588 0.631881 0.031500
1.000000 0.631881 0.031500
0.047100 0.751188 0.031500
0.172313 0.751188 0.031500
0.297525 0.751188 0.031500
0.422738 0.751188 0.031500
0.547950 0.751188 0.031500
0.673162 0.751188 0.031500
0.798375 0.751188 0.031500
0.923588 0.751188 0.031500
1.000000 0.751188 0.031500
0.047100 0.870494 0.031500
0.172313 0.870494 0.031500
0.297525 0.870494 0.031500
0.422738 0.870494 0.031500
0.547950 0.870494 0.031500
0.673162 0.870494 0.031500
0.798375 0.870494 0.031500
0.923588 0.870494 0.031500
1.000000 0.870494 0.031500
0.047100 0.989800 0.031500
0.172313 0.989800 0.031500
0.297525 0.989800 0.031500
0.422738 0.989800 0.031500
0.547950 0.989800 0.031500
0.673162 0.989800 0.031500
0.798375 0.989800 0.031500
0.923588 0.989800 0.031500
1.000000 0.989800 0.031500
0.047100 0.035350 0.137813
0.172313 0.035350 0.137813
0.297525 0.035350 0.137813
0.422738 0.035350 0.137813
0.547950 0.035350 0.137813
0.673162 0.035350 0.137813
0.798375 0.035350 0.137813
0.923588 0.035350 0.137813
1.000000 0.035350 0.137813
0.047100 0.154656 0.137813
0.172313 0.154656 0.137813
0.297525 0.154656 0.137813
0.422738 0.154656 0.137813
0.547950 0.154656 0.137813
0.673162 0.154656 0.137813
0.798375 0.154656 0.137813
0.923588 0.154656 0.137813
1.000000 0.154656 0.137813
0.047100 0.273962 0.137813
0.172313 0.273962 0.137813
0.297525 0.273962 0.137813
0.422738 0.273962 0.137813
0.547950 0.273962 0.137813
0.673162 0.273962 0.137813
0.798375 0.273962 0.137813
0.923588 0.273962 0.137813
1.000000 0.273962 0.137813
0.047100 0.393269 0.137813
0.172313 0.393269 0.137813
0.297525 0.393269 0.137813
0.422738 0.393269 0.137813
0.547950 0.393269 0.137813
0.673162 0.393269 0.137813
0.798375 0.393269 0.137813
0.923588 0.393269 0.137813
1.000000 0.393269 0.137813
0.047100 0.512575 0.137813
0.172313 0.512575 0.137813
0.297525 0.512575 0.137813
0.422738 0.512575 0.137813
0.547950 0.512575 0.137813
0.673162 0.512575 0.137813
0.798375 0.512575 0.137813
0.923588 0.512575 0.137813
1.000000 0.512575 0.137813
0.047100 0.631881 0.137813
0.172313 0.631881 0.137813
0.297525 0.631881 0.137813
0.422738 0.631881 0.137813
0.547950 0.631881 0.137813
0.673162 0.631881 0.137813
0.798375 0.631881 0.137813
0.923588 0.631881 0.137813
1.000000 0.631881 0.137813
0.047100 0.751188 0.137813
0.172313 0.751188 0.137813
0.297525 0.751188 0.137813
0.422738 0.751188 0.137813
0.547950 0.751188 0.137813
0.673162 0.751188 0.137813
0.798375 0.751188 0.137813
0.923588 0.751188 0.137813
1.000000 0.751188 0.137813
0.047100 0.870494 0.137813
0.172313 0.870494 0.137813
0.297525 0.870494 0.137813
0.422738 0.870494 0.137813
0.547950 0.870494 0.137813
0.673162 0.870494 0.137813
0.798375 0.870494 0.137813
0.923588 0.870494 0.137813
1.000000 0.870494 0.137813
0.047100 0.989800 0.137813
0.172313 0.989800 0.137813
0.297525 0.989800 0.137813
0.422738 0.989800 0.137813
0.547950 0.989800 0.137813
0.673162 0.989800 0.137813
0.798375 0.989800 0.137813
0.923588 0.989800 0.137813
1.000000 0.989800 0.137813
0.047100 0.035350 0.244125
0.172313 0.035350 0.244125
0.297525 0.035350 0.244125
0.422738 0.035350 0.244125
0.547950 0.035350 0.244125
0.673162 0.035350 0.244125
0.798375 0.035350 0.244125
0.923588 0.035350 0.244125
1.000000 0.035350 0.244125
0.047100 0.154656 0.244125
0.172313 0.154656 0.244125
0.297525 0.154656 0.244125
0.422738 0.154656 0.244125
0.547950 0.154656 0.244125
0.673162 0.154656 0.244125
0.798375 0.154656 0.244125
0.923588 0.154656 0.244125
1.000000 0.154656 0.244125
0.047100 0.273962 0.244125
0.172313 0.273962 0.244125
0.297525 0.273962 0.244125
0.422738 0.273962 0.244125
0.547950 0.273962 0.244125
0.673162 0.273962 0.244125
0.798375 0.273962 0.244125
0.923588 0.273962 0.244125
1.000000 0.273962 0.244125
0.047100 0.393269 0.244125
0.172313 0.393269 0.244125
0.297525 0.393269 0.244125
0.422738 0.393269 0.244125
0.547950 0.393269 0.244125
0.673162 0.393269 0.244125
0.798375 0.393269 0.244125
0.923588 0.393269 0.244125
1.000000 0.393269 0.244125
0.047100 0.512575 0.244125
0.172313 0.512575 0.244125
0.297525 0.512575 0.244125
0.422738 0.512575 0.244125
0.547950 0.512575 0.244125
0.673162 0.512575 0.244125
0.798375 0.512575 0.244125
0.923588 0.512575 0.244125
1.000000 0.512575 0.244125
0.047100 0.631881 0.244125
0.172313 0.631881 0.244125
0.297525 0.631881 0.244125
0.422738 0.631881 0.244125
0.547950 0.631881 0.244125
0.673162 0.631881 0.244125
0.798375 0.631881 0.244125
0.923588 0.631881 0.244125
1.000000 0.631881 0.244125
0.047100 0.751188 0.244125
0.172313 0.751188 0.244125
0.297525 0.751188 0.244125
0.422738 0.751188 0.244125
0.547950 0.751188 0.244125
0.673162 0.751188 0.244125
0.798375 0.751188 0.244125
0.923588 0.751188 0.244125
1.000000 0.751188 0.244125
0.047100 0.870494 0.244125
0.172313 0.870494 0.244125
0.297525 0.870494 0.244125
0.422738 0.870494 0.244125
0.547950 0.870494 0.244125
0.673162 0.870494 0.244125
0.798375 0.870494 0.244125
0.923588 0.870494 0.244125
1.000000 0.870494 0.244125
0.047100 0.989800 0.244125
0.172313 0.989800 0.244125
0.297525 0.989800 0.244125
0.422738 0.989800 0.244125
0.547950 0.989800 0.244125
0.673162 0.989800 0.244125
0.798375 0.989800 0.244125
0.923588 0.989800 0.244125
1.000000 0.989800 0.244125
0.047100 0.035350 0.350438
0.172313 0.035350 0.350438
0.297525 0.035350 0.350438
0.422738 0.035350 0.350438
0.547950 0.035350 0.350438
0.673162 0.035350 0.350438
0.798375 0.035350 0.350438
0.923588 0.035350 0.350438
1.000000 0.035350 0.350438
0.047100 0.154656 0.350438
0.172313 0.154656 0.350438
0.297525 0.154656 0.350438
0.422738 0.154656 0.350438
0.547950 0.154656 0.350438
0.673162 0.154656 0.350438
0.798375 0.154656 0.350438
0.923588 0.154656 0.350438
1.000000 0.154656 0.350438
0.047100 0.273962 0.350438
0.172313 0.273962 0.350438
0.297525 0.273962 0.350438
0.422738 0.273962 0.350438
0.547950 0.273962 0.350438
0.673162 0.273962 0.350438
0.798375 0.273962 0.350438
0.923588 0.273962 0.350438
1.000000 0.273962 0.350438
0.047100 0.393269 0.350438
0.172313 0.393269 0.350438
0.297525 0.393269 0.350438
0.422738 0.393269 0.350438
0.547950 0.393269 0.350438
0.673162 0.393269 0.350438
0.798375 0.393269 0.350438
0.923588 0.393269 0.350438
1.000000 0.393269 0.350438
0.047100 0.512575 0.350438
0.172313 0.512575 0.350438
0.297525 0.512575 0.350438
0.422738 0.512575 0.350438
0.547950 0.512575 0.350438
0.673162 0.512575 0.350438
0.798375 0.512575 0.350438
0.923588 0.512575 0.350438
1.000000 0.512575 0.350438
0.047100 0.631881 0.350438
0.172313 0.631881 0.350438
0.297525 0.631881 0.350438
0.422738 0.631881 0.350438
0.547950 0.631881 0.350438
0.673162 0.631881 0.350438
0.798375 0.631881 0.350438
0.923588 0.631881 0.350438
1.000000 0.631881 0.350438
0.047100 0.751188 0.350438
0.172313 0.751188 0.350438
0.297525 0.751188 0.350438
0.422738 0.751188 0.350438
0.547950 0.751188 0.350438
0.673162 0.751188 0.350438
0.798375 0.751188 0.350438
0.923588 0.751188 0.350438
1.000000 0.751188 0.350438
0.047100 0.870494 0.350438
0.172313 0.870494 0.350438
0.297525 0.870494 0.350438
0.422738 0.870494 0.350438
0.547950 0.870494 0.350438
0.673162 0.870494 0.350438
0.798375 0.870494 0.350438
0.923588 0.870494 0.350438
1.000000 0.870494 0.350438
0.047100 0.989800 0.350438
0.172313 0.989800 0.350438
0.297525 0.989800 0.350438
0.422738 0.989800 0.350438
0.547950 0.989800 0.350438
0.673162 0.989800 0.350438
0.798375 0.989800 0.350438
0.923588 0.989800 0.350438
1.000000 0.989800 0.350438
0.047100 0.035350 0.456750
0.172313 0.035350 0.456750
0.297525 0.035350 0.456750
0.422738 0.035350 0.456750
0.547950 0.035350 0.456750
0.673162 0.035350 0.456750
0.798375 0.035350 0.456750
0.923588 0.035350 0.456750
1.000000 0.035350 0.456750
0.047100 0.154656 0.456750
0.172313 0.154656 0.456750
0.297525 0.154656 0.456750
0.422738 0.154656 0.456750
0.547950 0.154656 0.456750
0.673162 0.154656 0.456750
0.798375 0.154656 0.456750
0.923588 0.154656 0.456750
1.000000 0.154656 0.456750
0.047100 0.273962 0.456750
0.172313 0.273962 0.456750
0.297525 0.273962 0.456750
0.422738 0.273962 0.456750
0.547950 0.273962 0.456750
0.673162 0.273962 0.456750
0.798375 0.273962 0.456750
0.923588 0.273962 0.456750
1.000000 0.273962 0.456750
0.047100 0.393269 0.456750
0.172313 0.393269 0.456750
0.297525 0.393269 0.456750
0.422738 0.393269 0.456750
0.547950 0.393269 0.456750
0.673162 0.393269 0.456750
0.798375 0.393269 0.456750
0.923588 0.393269 0.456750
1.000000 0.393269 0.456750
0.047100 0.512575 0.456750
0.172313 0.512575 0.456750
0.297525 0.512575 0.456750
0.422738 0.512575 0.456750
0.547950 0.512575 0.456750
0.673162 0.512575 0.456750
0.798375 0.512575 0.456750
0.923588 0.512575 0.456750
1.000000 0.512575 0.456750
0.047100 0.631881 0.456750
0.172313 0.631881 0.456750
0.297525 0.631881 0.456750
0.422738 0.631881 0.456750
0.547950 0.631881 0.456750
0.673162 0.631881 0.456750
0.798375 0.631881 0.456750
0.923588 0.631881 0.456750
1.000000 0.631881 0.456750
0.047100 0.751188 0.456750
0.172313 0.751188 0.456750
0.297525 0.751188 0.456750
0.422738 0.751188 0.456750
0.547950 0.751188 0.456750
0.673162 0.751188 0.456750
0.798375 0.751188 0.456750
0.923588 0.751188 0.456750
1.000000 0.751188 0.456750
0.047100 0.870494 0.456750
0.172313 0.870494 0.456750
0.297525 0.870494 0.456750
0.422738 0.870494 0.456750
0.547950 0.870494 0.456750
0.673162 0.870494 0.456750
0.798375 0.870494 0.456750
0.923588 0.870494 0.456750
1.000000 0.870494 0.456750
0.047100 0.989800 0.456750
0.172313 0.989800 0.456750
0.297525 0.989800 0.456750
0.422738 0.989800 0.456750
0.547950 0.989800 0.456750
0.673162 0.989800 0.456750
0.798375 0.989800 0.456750
0.923588 0.989800 0.456750
1.000000 0.989800 0.456750
0.047100 0.035350 0.563063
0.172313 0.035350 0.563063
0.297525 0.035350 0.563063
0.422738 0.035350 0.563063
0.547950 0.035350 0.563063
0.673162 0.035350 0.563063
0.798375 0.035350 0.563063
0.923588 0.035350 0.563063
1.000000 0.035350 0.563063
0.047100 0.154656 0.563063
0.172313 0.154656 0.563063
0.297525 0.154656 0.563063
0.422738 0.154656 0.563063
0.547950 0.154656 0.563063
0.673162 0.154656 0.563063
0.798375 0.154656 0.563063
0.923588 0.154656 0.563063
1.000000 0.154656 0.563063
0.047100 0.273962 0.563063
0.172313 0.273962 0.563063
0.297525 0.273962 0.563063
0.422738 0.273962 0.563063
0.547950 0.273962 0.563063
0.673162 0.273962 0.563063
0.798375 0.273962 0.563063
0.923588 0.273962 0.563063
1.000000 0.273962 0.563063
0.047100 0.393269 0.563063
0.172313 0.393269 0.563063
0.297525 0.393269 0.563063
0.422738 0.393269 0.563063
0.547950 0.393269 0.563063
0.673162 0.393269 0.563063
0.798375 0.393269 0.563063
0.923588 0.393269 0.563063
1.000000 0.393269 0.563063
0.047100 0.512575 0.563063
0.172313 0.512575 0.563063
0.297525 0.512575 0.563063
0.422738 0.512575 0.563063
0.547950 0.512575 0.563063
0.673162 0.512575 0.563063
0.798375 0.512575 0.563063
0.923588 0.512575 0.563063
1.000000 0.512575 0.563063
0.047100 0.631881 0.563063
0.172313 0.631881 0.563063
0.297525 0.631881 0.563063
0.422738 0.631881 0.563063
0.547950 0.631881 0.563063
0.673162 0.631881 0.563063
0.798375 0.631881 0.563063
0.923588 0.631881 0.563063
1.000000 0.631881 0.563063
0.047100 0.751188 0.563063
0.172313 0.751188 0.563063
0.297525 0.751188 0.563063
0.422738 0.751188 0.563063
0.547950 0.751188 0.563063
0.673162 0.751188 0.563063
0.798375 0.751188 0.563063
0.923588 0.751188 0.563063
1.000000 0.751188 0.563063
0.047100 0.870494 0.563063
0.172313 0.870494 0.563063
0.297525 0.870494 0.563063
0.422738 0.870494 0.563063
0.547950 0.870494 0.563063
0.673162 0.870494 0.563063
0.798375 0.870494 0.563063
0.923588 0.870494 0.563063
1.000000 0.870494 0.563063
0.047100 0.989800 0.563063
0.172313 0.989800 0.563063
0.297525 0.989800 0.563063
0.422738 0.989800 0.563063
0.547950 0.989800 0.563063
0.673162 0.989800 0.563063
0.798375 0.989800 0.563063
0.923588 0.989800 0.563063
1.000000 0.989800 0.563063
0.047100 0.035350 0.669375
0.172313 0.035350 0.669375
0.297525 0.035350 0.669375
0.422738 0.035350 0.669375
0.547950 0.035350 0.669375
0.673162 0.035350 0.669375
0.798375 0.035350 0.669375
0.923588 0.035350 0.669375
1.000000 0.035350 0.669375
0.047100 0.154656 0.669375
0.172313 0.154656 0.669375
0.297525 0.154656 0.669375
0.422738 0.154656 0.669375
0.547950 0.154656 0.669375
0.673162 0.154656 0.669375
0.798375 0.154656 0.669375
0.923588 0.154656 0.669375
1.000000 0.154656 0.669375
0.047100 0.273962 0.669375
0.172313 0.273962 0.669375
0.297525 0.273962 0.669375
0.422738 0.273962 0.669375
0.547950 0.273962 0.669375
0.673162 0.273962 0.669375
0.798375 0.273962 0.669375
0.923588 0.273962 0.669375
1.000000 0.273962 0.669375
0.047100 0.393269 0.669375
0.172313 0.393269 0.669375
0.297525 0.393269 0.669375
0.422738 0.393269 0.669375
0.547950 0.393269 0.669375
0.673162 0.393269 0.669375
0.798375 0.393269 0.669375
0.923588 0.393269 0.669375
1.000000 0.393269 0.669375
0.047100 0.512575 0.669375
0.172313 0.512575 0.669375
0.297525 0.512575 0.669375
0.422738 0.512575 0.669375
0.547950 0.512575 0.669375
0.673162 0.512575 0.669375
0.798375 0.512575 0.669375
0.923588 0.512575 0.669375
1.000000 0.512575 0.669375
0.047100 0.631881 0.669375
0.172313 0.631881 0.669375
0.297525 0.631881 0.669375
0.422738 0.631881 0.669375
0.547950 0.631881 0.669375
0.673162 0.631881 0.669375
0.798375 0.631881 0.669375
0.923588 0.631881 0.669375
1.000000 0.631881 0.669375
0.047100 0.751188 0.669375
0.172313 0.751188 0.669375
0.297525 0.751188 0.669375
0.422738 0.751188 0.669375
0.547950 0.751188 0.669375
0.673162 0.751188 0.669375
0.798375 0.751188 0.669375
0.923588 0.751188 0.669375
1.000000 0.751188 0.669375
0.047100 0.870494 0.669375
0.172313 0.870494 0.669375
0.297525 0.870494 0.669375
0.422738 0.870494 0.669375
0.547950 0.870494 0.669375
0.673162 0.870494 0.669375
0.798375 0.870494 0.669375
0.923588 0.870494 0.669375
1.000000 0.870494 0.669375
0.047100 0.989800 0.669375
0.172313 0.989800 0.669375
0.297525 0.989800 0.669375
0.422738 0.989800 0.669375
0.547950 0.989800 0.669375
0.673162 0.989800 0.669375
0.798375 0.989800 0.669375
0.923588 0.989800 0.669375
1.000000 0.989800 0.669375
0.047100 0.035350 0.775687
0.172313 0.035350 0.775687
0.297525 0.035350 0.775687
0.422738 0.035350 0.775687
0.547950 0.035350 0.775687
0.673162 0.035350 0.775687
0.798375 0.035350 0.775687
0.923588 0.035350 0.775687
1.000000 0.035350 0.775687
0.047100 0.154656 0.775687
0.172313 0.154656 0.775687
0.297525 0.154656 0.775687
0.422738 0.154656 0.775687
0.547950 0.154656 0.775687
0.673162 0.154656 0.775687
0.798375 0.154656 0.775687
0.923588 0.154656 0.775687
1.000000 0.154656 0.775687
0.047100 0.273962 0.775687
0.172313 0.273962 0.775687
0.297525 0.273962 0.775687
0.422738 0.273962 0.775687
0.547950 0.273962 0.775687
0.673162 0.273962 0.775687
0.798375 0.273962 0.775687
0.923588 0.273962 0.775687
1.000000 0.273962 0.775687
0.047100 0.393269 0.775687
0.172313 0.393269 0.775687
0.297525 0.393269 0.775687
0.422738 0.393269 0.775687
0.547950 0.393269 0.775687
0.673162 0.393269 0.775687
0.798375 0.393269 0.775687
0.923588 0.393269 0.775687
1.000000 0.393269 0.775687
0.047100 0.512575 0.775687
0.172313 0.512575 0.775687
0.297525 0.512575 0.775687
0.422738 0.512575 0.775687
0.547950 0.512575 0.775687
0.673162 0.512575 0.775687
0.798375 0.512575 0.775687
0.923588 0.512575 0.775687
1.000000 0.512575 0.775687
0.047100 0.631881 0.775687
0.172313 0.631881 0.775687
0.297525 0.631881 0.775687
0.422738 0.631881 0.775687
0.547950 0.631881 0.775687
0.673162 0.631881 0.775687
0.798375 0.631881 0.775687
0.923588 0.631881 0.775687
1.000000 0.631881 0.775687
0.047100 0.751188 0.775687
0.172313 0.751188 0.775687
0.297525 0.751188 0.775687
0.422738 0.751188 0.775687
0.547950 0.751188 0.775687
0.673162 0.751188 0.775687
0.798375 0.751188 0.775687
0.923588 0.751188 0.775687
1.000000 0.751188 0.775687
0.047100 0.870494 0.775687
0.172313 0.870494 0.775687
0.297525 0.870494 0.775687
0.422738 0.870494 0.775687
0.547950 0.870494 0.775687
0.673162 0.870494 0.775687
0.798375 0.870494 0.775687
0.923588 0.870494 0.775687
1.000000 0.870494 0.775687
0.047100 0.989800 0.775687
0.172313 0.989800 0.775687
0.297525 0.989800 0.775687
0.422738 0.989800 0.775687
0.547950 0.989800 0.775687
0.673162 0.989800 0.775687
0.798375 0.989800 0.775687
0.923588 0.989800 0.775687
1.000000 0.989800 0.775687
0.047100 0.035350 0.882000
0.172313 0.035350 0.882000
0.297525 0.035350 0.882000
0.422738 0.035350 0.882000
0.547950 0.035350 0.882000
0.673162 0.035350 0.882000
0.798375 0.035350 0.882000
0.923588 0.035350 0.882000
1.000000 0.035350 0.882000
0.047100 0.154656 0.882000
0.172313 0.154656 0.882000
0.297525 0.154656 0.882000
0.422738 0.154656 0.882000
0.547950 0.154656 0.882000
0.673162 0.154656 0.882000
0.798375 0.154656 0.882000
0.923588 0.154656 0.882000
1.000000 0.154656 0.882000
0.047100 0.273962 0.882000
0.172313 0.273962 0.882000
0.297525 0.273962 0.882000
0.422738 0.273962 0.882000
0.547950 0.273962 0.882000
0.673162 0.273962 0.882000
0.798375 0.273962 0.882000
0.923588 0.273962 0.882000
1.000000 0.273962 0.882000
0.047100 0.393269 0.882000
0.172313 0.393269 0.882000
0.297525 0.393269 0.882000
0.422738 0.393269 0.882000
0.547950 0.393269 0.882000
0.673162 0.393269 0.882000
0.798375 0.393269 0.882000
0.923588 0.393269 0.882000
1.000000 0.393269 0.882000
0.047100 0.512575 0.882000
0.172313 0.512575 0.882000
0.297525 0.512575 0.882000
0.422738 0.512575 0.882000
0.547950 0.512575 0.882000
0.673162 0.512575 0.882000
0.798375 0.512575 0.882000
0.923588 0.512575 0.882000
1.000000 0.512575 0.882000
0.047100 0.631881 0.882000
0.172313 0.631881 0.882000
0.297525 0.631881 0.882000
0.422738 0.631881 0.882000
0.547950 0.631881 0.882000
0.673162 0.631881 0.882000
0.798375 0.631881 0.882000
0.923588 0.631881 0.882000
1.000000 0.631881 0.882000
0.047100 0.751188 0.882000
0.172313 0.751188 0.882000
0.297525 0.751188 0.882000
0.422738 0.751188 0.882000
0.547950 0.751188 0.882000
0.673162 0.751188 0.882000
0.798375 0.751188 0.882000
0.923588 0.751188 0.882000
1.000000 0.751188 0.882000
0.047100 0.870494 0.882000
0.172313 0.870494 0.882000
0.297525 0.870494 0.882000
0.422738 0.870494 0.882000
0.547950 0.870494 0.882000
0.673162 0.870494 0.882000
0.798375 0.870494 0.882000
0.923588 0.870494 0.882000
1.000000 0.870494 0.882000
0.047100 0.989800 0.882000
0.172313 0.989800 0.882000
0.297525 0.989800 0.882000
0.422738 0.989800 0.882000
0.547950 0.989800 0.882000
0.673162 0.989800 0.882000
0.798375 0.989800 0.882000
0.923588 0.989800 0.882000
1.000000 0.989800 0.882000
